<?xml version="1.0" encoding="UTF-8"?>
<map version="1.10" tiledversion="1.11.2" orientation="orthogonal" renderorder="right-down" width="40" height="140" tilewidth="32" tileheight="32" infinite="0" nextlayerid="19" nextobjectid="795">
 <tileset firstgid="1" source="ground.tsx"/>
 <tileset firstgid="442" source="water.tsx"/>
 <tileset firstgid="523" source="Cliff.tsx"/>
 <tileset firstgid="763" source="trees2.tsx"/>
 <tileset firstgid="835" name="tree objects" tilewidth="72" tileheight="78" tilecount="9" columns="0">
  <grid orientation="orthogonal" width="1" height="1"/>
  <tile id="0">
   <image source="C:/Users/sande/Downloads/tilepacks/tree objects/trees2_01.png" width="61" height="78"/>
  </tile>
  <tile id="1">
   <image source="C:/Users/sande/Downloads/tilepacks/tree objects/trees2_02.png" width="53" height="64"/>
  </tile>
  <tile id="2">
   <image source="C:/Users/sande/Downloads/tilepacks/tree objects/trees2_03.png" width="39" height="47"/>
  </tile>
  <tile id="3">
   <image source="C:/Users/sande/Downloads/tilepacks/tree objects/trees2_04.png" width="61" height="73"/>
  </tile>
  <tile id="4">
   <image source="C:/Users/sande/Downloads/tilepacks/tree objects/trees2_05.png" width="51" height="64"/>
  </tile>
  <tile id="5">
   <image source="C:/Users/sande/Downloads/tilepacks/tree objects/trees2_06.png" width="30" height="40"/>
  </tile>
  <tile id="6">
   <image source="C:/Users/sande/Downloads/tilepacks/tree objects/trees2_07.png" width="72" height="77"/>
  </tile>
  <tile id="7">
   <image source="C:/Users/sande/Downloads/tilepacks/tree objects/trees2_08.png" width="57" height="65"/>
  </tile>
  <tile id="8">
   <image source="C:/Users/sande/Downloads/tilepacks/tree objects/trees2_09.png" width="41" height="42"/>
  </tile>
 </tileset>
 <tileset firstgid="844" name="Building objects" tilewidth="500" tileheight="500" tilecount="35" columns="0">
  <grid orientation="orthogonal" width="1" height="1"/>
  <tile id="2">
   <image source="C:/Users/sande/Downloads/tilepacks/buildings/cart.png" width="169" height="165"/>
  </tile>
  <tile id="4">
   <image source="C:/Users/sande/Downloads/tilepacks/buildings/medium house.png" width="133" height="162"/>
  </tile>
  <tile id="5">
   <image source="C:/Users/sande/Downloads/tilepacks/buildings/small house2.png" width="104" height="124"/>
  </tile>
  <tile id="6">
   <image source="C:/Users/sande/Downloads/tilepacks/buildings/vine house.png" width="117" height="118"/>
  </tile>
  <tile id="7">
   <image source="C:/Users/sande/Downloads/tilepacks/buildings/shrine.png" width="500" height="500"/>
  </tile>
  <tile id="8">
   <image source="C:/Users/sande/Downloads/tilepacks/buildings/large house.png" width="134" height="129"/>
  </tile>
  <tile id="9">
   <image source="C:/Users/sande/Downloads/tilepacks/buildings/small house.png" width="404" height="484"/>
  </tile>
  <tile id="10">
   <image source="C:/Users/sande/Downloads/tilepacks/buildings/work_house.png" width="500" height="500"/>
  </tile>
  <tile id="11">
   <image source="C:/Users/sande/Downloads/craftpix-net-692491-free-glassblowers-workshop-top-down-pixel-art-asset/PNG/Exterior_house_01.png" width="132" height="149"/>
  </tile>
  <tile id="12">
   <image source="C:/Users/sande/Downloads/craftpix-net-692491-free-glassblowers-workshop-top-down-pixel-art-asset/PNG/Exterior_house_04.png" width="49" height="62"/>
  </tile>
  <tile id="13">
   <image source="C:/Users/sande/Downloads/craftpix-net-692491-free-glassblowers-workshop-top-down-pixel-art-asset/PNG/Exterior_house_05.png" width="41" height="42"/>
  </tile>
  <tile id="14">
   <image source="C:/Users/sande/Downloads/craftpix-net-692491-free-glassblowers-workshop-top-down-pixel-art-asset/PNG/Exterior_house_12.png" width="17" height="18"/>
  </tile>
  <tile id="15">
   <image source="C:/Users/sande/Downloads/craftpix-net-692491-free-glassblowers-workshop-top-down-pixel-art-asset/PNG/Exterior_house_14.png" width="34" height="39"/>
  </tile>
  <tile id="16">
   <image source="C:/Users/sande/Downloads/craftpix-net-692491-free-glassblowers-workshop-top-down-pixel-art-asset/PNG/Exterior_house_15.png" width="33" height="32"/>
  </tile>
  <tile id="17">
   <image source="C:/Users/sande/Downloads/craftpix-net-692491-free-glassblowers-workshop-top-down-pixel-art-asset/PNG/Exterior_house_16.png" width="20" height="21"/>
  </tile>
  <tile id="18">
   <image source="C:/Users/sande/Downloads/craftpix-net-692491-free-glassblowers-workshop-top-down-pixel-art-asset/PNG/Exterior_house_17.png" width="22" height="29"/>
  </tile>
  <tile id="19">
   <image source="C:/Users/sande/Downloads/craftpix-net-692491-free-glassblowers-workshop-top-down-pixel-art-asset/PNG/Exterior_house_19.png" width="16" height="24"/>
  </tile>
  <tile id="20">
   <image source="C:/Users/sande/Downloads/craftpix-net-692491-free-glassblowers-workshop-top-down-pixel-art-asset/Tiled_files/Interior_objects_05.png" width="36" height="58"/>
  </tile>
  <tile id="21">
   <image source="C:/Users/sande/Downloads/craftpix-net-692491-free-glassblowers-workshop-top-down-pixel-art-asset/Tiled_files/Interior_objects_06.png" width="36" height="58"/>
  </tile>
  <tile id="22">
   <image source="C:/Users/sande/Downloads/craftpix-net-692491-free-glassblowers-workshop-top-down-pixel-art-asset/Tiled_files/Interior_objects_07.png" width="36" height="58"/>
  </tile>
  <tile id="23">
   <image source="C:/Users/sande/Downloads/craftpix-net-692491-free-glassblowers-workshop-top-down-pixel-art-asset/Tiled_files/Interior_objects_08.png" width="36" height="58"/>
  </tile>
  <tile id="24">
   <image source="C:/Users/sande/Downloads/craftpix-net-692491-free-glassblowers-workshop-top-down-pixel-art-asset/Tiled_files/Interior_objects_11.png" width="36" height="53"/>
  </tile>
  <tile id="25">
   <image source="C:/Users/sande/Downloads/craftpix-net-692491-free-glassblowers-workshop-top-down-pixel-art-asset/Tiled_files/Interior_objects_12.png" width="36" height="53"/>
  </tile>
  <tile id="26">
   <image source="C:/Users/sande/Downloads/craftpix-net-692491-free-glassblowers-workshop-top-down-pixel-art-asset/Tiled_files/Interior_objects_13.png" width="36" height="53"/>
  </tile>
  <tile id="27">
   <image source="C:/Users/sande/Downloads/craftpix-net-692491-free-glassblowers-workshop-top-down-pixel-art-asset/Tiled_files/Interior_objects_14.png" width="36" height="53"/>
  </tile>
  <tile id="28">
   <image source="C:/Users/sande/Downloads/craftpix-net-692491-free-glassblowers-workshop-top-down-pixel-art-asset/Tiled_files/Interior_objects_15.png" width="36" height="53"/>
  </tile>
  <tile id="29">
   <image source="C:/Users/sande/Downloads/craftpix-net-692491-free-glassblowers-workshop-top-down-pixel-art-asset/Tiled_files/Interior_objects_18.png" width="40" height="43"/>
  </tile>
  <tile id="30">
   <image source="C:/Users/sande/Downloads/craftpix-net-692491-free-glassblowers-workshop-top-down-pixel-art-asset/Tiled_files/Interior_objects_22.png" width="31" height="40"/>
  </tile>
  <tile id="31">
   <image source="C:/Users/sande/Downloads/craftpix-net-692491-free-glassblowers-workshop-top-down-pixel-art-asset/Tiled_files/Interior_objects_23.png" width="52" height="43"/>
  </tile>
  <tile id="32">
   <image source="C:/Users/sande/Downloads/craftpix-net-692491-free-glassblowers-workshop-top-down-pixel-art-asset/Tiled_files/Interior_objects_24.png" width="36" height="50"/>
  </tile>
  <tile id="33">
   <image source="C:/Users/sande/Downloads/craftpix-net-692491-free-glassblowers-workshop-top-down-pixel-art-asset/Tiled_files/Interior_objects_41.png" width="51" height="22"/>
  </tile>
  <tile id="34">
   <image source="C:/Users/sande/Downloads/craftpix-net-692491-free-glassblowers-workshop-top-down-pixel-art-asset/Tiled_files/Interior_objects_42.png" width="29" height="30"/>
  </tile>
  <tile id="35">
   <image source="C:/Users/sande/Downloads/craftpix-net-692491-free-glassblowers-workshop-top-down-pixel-art-asset/Tiled_files/Interior_objects_43.png" width="24" height="24"/>
  </tile>
  <tile id="36">
   <image source="C:/Users/sande/Downloads/craftpix-net-692491-free-glassblowers-workshop-top-down-pixel-art-asset/Tiled_files/Interior_objects_45.png" width="18" height="31"/>
  </tile>
  <tile id="37">
   <image source="C:/Users/sande/Downloads/craftpix-net-692491-free-glassblowers-workshop-top-down-pixel-art-asset/Tiled_files/Interior_objects_46.png" width="18" height="32"/>
  </tile>
 </tileset>
 <tileset firstgid="882" name="Interactables" tilewidth="105" tileheight="119" tilecount="13" columns="0">
  <grid orientation="orthogonal" width="1" height="1"/>
  <tile id="0">
   <image source="C:/Users/sande/Downloads/tilepacks/interact objects/paper_01.png" width="56" height="54"/>
  </tile>
  <tile id="1">
   <image source="C:/Users/sande/Downloads/tilepacks/interact objects/paper_02.png" width="55" height="52"/>
  </tile>
  <tile id="2">
   <image source="C:/Users/sande/Downloads/tilepacks/interact objects/book_01.png" width="76" height="119"/>
  </tile>
  <tile id="3">
   <image source="C:/Users/sande/Downloads/tilepacks/interact objects/book_02.png" width="79" height="112"/>
  </tile>
  <tile id="4">
   <image source="C:/Users/sande/Downloads/tilepacks/interact objects/book_03.png" width="57" height="48"/>
  </tile>
  <tile id="5">
   <image source="C:/Users/sande/Downloads/tilepacks/interact objects/book_04.png" width="67" height="47"/>
  </tile>
  <tile id="6">
   <image source="C:/Users/sande/Downloads/tilepacks/interact objects/book_05.png" width="59" height="24"/>
  </tile>
  <tile id="7">
   <image source="C:/Users/sande/Downloads/tilepacks/interact objects/book_06.png" width="64" height="54"/>
  </tile>
  <tile id="8">
   <image source="C:/Users/sande/Downloads/tilepacks/interact objects/open_book.png" width="105" height="81"/>
  </tile>
  <tile id="9">
   <image source="C:/Users/sande/Downloads/tilepacks/interact objects/signs_01.png" width="30" height="32"/>
  </tile>
  <tile id="10">
   <image source="C:/Users/sande/Downloads/tilepacks/interact objects/signs_02.png" width="30" height="32"/>
  </tile>
  <tile id="11">
   <image source="C:/Users/sande/Downloads/tilepacks/interact objects/signs_03.png" width="30" height="32"/>
  </tile>
  <tile id="12">
   <image source="C:/Users/sande/Downloads/tilepacks/interact objects/signs_04.png" width="30" height="32"/>
  </tile>
 </tileset>
 <tileset firstgid="895" source="bushrockobjects.tsx"/>
 <tileset firstgid="979" source="ground_details.tsx"/>
 <tileset firstgid="1069" name="npc" tilewidth="22" tileheight="46" tilecount="1" columns="0">
  <grid orientation="orthogonal" width="1" height="1"/>
  <tile id="3">
   <image source="C:/Users/sande/Downloads/tim (3) (1) (4) (2).png" width="22" height="46"/>
  </tile>
 </tileset>
 <tileset firstgid="1073" source="bushes.tsx"/>
 <layer id="12" name="background" width="40" height="140">
  <data encoding="csv">
452,452,452,452,452,452,452,452,452,452,452,452,452,452,452,452,452,452,452,452,452,452,452,452,452,452,452,452,452,452,452,452,452,452,452,452,452,452,452,452,
452,452,452,452,452,452,452,452,452,452,452,452,452,452,452,452,452,452,452,452,452,452,452,452,452,452,452,452,452,452,452,452,452,452,452,452,452,452,452,452,
452,452,452,452,452,452,452,452,452,452,452,452,452,452,452,452,452,452,452,452,452,452,452,452,452,452,452,452,452,452,452,452,452,452,452,452,452,452,452,452,
452,452,452,452,452,452,452,452,452,452,452,452,452,452,452,452,452,452,452,452,452,452,452,452,452,452,452,452,452,452,452,452,452,452,452,452,452,452,452,452,
452,452,452,452,452,452,452,452,452,452,452,452,452,452,452,452,452,452,452,452,452,452,452,452,452,452,452,452,452,452,452,452,452,452,452,452,452,452,452,452,
452,452,452,452,452,452,452,452,452,452,452,452,452,452,452,452,452,452,452,452,452,452,452,452,452,452,452,452,452,452,452,452,452,452,452,452,452,452,452,452,
452,452,452,452,452,452,452,452,452,452,452,452,452,452,452,452,452,452,452,452,452,452,452,452,452,452,452,452,452,452,452,452,452,452,452,452,452,452,452,452,
452,452,452,452,452,452,452,452,452,452,452,452,452,452,452,452,452,452,452,452,452,452,452,452,452,452,452,452,452,452,452,452,452,452,452,452,452,452,452,452,
452,452,452,452,452,452,452,452,452,452,452,452,452,452,452,452,452,452,452,452,452,452,452,452,452,452,452,452,452,452,452,452,452,452,452,452,452,452,452,452,
452,452,452,452,452,452,452,452,452,452,452,452,452,452,452,452,452,452,452,452,452,452,452,452,452,452,452,452,452,452,452,452,452,452,452,452,452,452,452,452,
452,452,452,452,452,452,452,452,452,452,452,452,452,452,452,452,452,452,452,452,452,452,452,452,452,452,452,452,452,452,452,452,452,452,452,452,452,452,452,452,
452,452,452,452,452,452,452,452,452,452,452,452,452,452,452,452,452,452,452,452,452,452,452,452,452,452,452,452,452,452,452,452,452,452,452,452,452,452,452,452,
452,452,452,452,452,452,452,452,452,452,452,452,452,452,452,452,452,452,452,452,452,452,452,452,452,452,452,452,452,452,452,452,452,452,452,452,452,452,452,452,
452,452,452,452,452,452,452,452,452,452,452,452,452,452,452,452,452,452,452,452,452,452,452,452,452,452,452,452,452,452,452,452,452,452,452,452,452,452,452,452,
452,452,452,452,452,452,452,452,452,452,452,452,452,452,452,452,452,452,452,452,452,452,452,452,452,452,452,452,452,452,452,452,452,452,452,452,452,452,452,452,
452,452,452,452,452,452,452,452,452,452,452,452,452,452,452,452,452,452,452,452,452,452,452,452,452,452,452,452,452,452,452,452,452,452,452,452,452,452,452,452,
452,452,452,452,452,452,452,452,452,452,452,452,452,452,452,452,452,452,452,452,452,452,452,452,452,452,452,452,452,452,452,452,452,452,452,452,452,452,452,452,
452,452,452,452,452,452,452,452,452,452,452,452,452,452,452,452,452,452,452,452,452,452,452,452,452,452,452,452,452,452,452,452,452,452,452,452,452,452,452,452,
452,452,452,452,452,452,452,452,452,452,452,452,452,452,452,452,452,452,452,452,452,452,452,452,452,452,452,452,452,452,452,452,452,452,452,452,452,452,452,452,
452,452,452,452,452,452,452,452,452,452,452,452,452,452,452,452,452,452,452,452,452,452,452,452,452,452,452,452,452,452,452,452,452,452,452,452,452,452,452,452,
452,452,452,452,452,452,452,452,452,452,452,452,452,452,452,452,452,452,452,452,452,452,452,452,452,452,452,452,452,452,452,452,452,452,452,452,452,452,452,452,
452,452,452,452,452,452,452,452,452,452,452,452,452,452,452,452,452,452,452,452,452,452,452,452,452,452,452,452,452,452,452,452,452,452,452,452,452,452,452,452,
452,452,452,452,452,452,452,452,452,452,452,452,452,452,452,452,452,452,452,452,452,452,452,452,452,452,452,452,452,452,452,452,452,452,452,452,452,452,452,452,
452,452,452,452,452,452,452,452,452,452,452,452,452,452,452,452,452,452,452,452,452,452,452,452,452,452,452,452,452,452,452,452,452,452,452,452,452,452,452,452,
452,452,452,452,452,452,452,452,452,452,452,452,452,452,452,452,452,452,452,452,452,452,452,452,452,452,452,452,452,452,452,452,452,452,452,452,452,452,452,452,
452,452,452,452,452,452,452,452,452,452,452,452,452,452,452,452,452,452,452,452,452,452,452,452,452,452,452,452,452,452,452,452,452,452,452,452,452,452,452,452,
452,452,452,452,452,452,452,452,452,452,452,452,452,452,452,452,452,452,452,452,452,452,452,452,452,452,452,452,452,452,452,452,452,452,452,452,452,452,452,452,
452,452,452,452,452,452,452,452,452,452,452,452,452,452,452,452,452,452,452,452,452,452,452,452,452,452,452,452,452,452,452,452,452,452,452,452,452,452,452,452,
452,452,452,452,452,452,452,452,452,452,452,452,452,452,452,452,452,452,452,452,452,452,452,452,452,452,452,452,452,452,452,452,452,452,452,452,452,452,452,452,
452,452,452,452,452,452,452,452,452,452,452,452,452,452,452,452,452,452,452,452,452,452,452,452,452,452,452,452,452,452,452,452,452,452,452,452,452,452,452,452,
452,452,452,452,452,452,452,452,452,452,452,452,452,452,452,452,452,452,452,452,452,452,452,452,452,452,452,452,452,452,452,452,452,452,452,452,452,452,452,452,
452,452,452,452,452,452,452,452,452,452,452,452,452,452,452,452,452,452,452,452,452,452,452,452,452,452,452,452,452,452,452,452,452,452,452,452,452,452,452,452,
452,452,452,452,452,452,452,452,452,452,452,452,452,452,452,452,452,452,452,452,452,452,452,452,452,452,452,452,452,452,452,452,452,452,452,452,452,452,452,452,
452,452,452,452,452,452,452,452,452,452,452,452,452,452,452,452,452,452,452,452,452,452,452,452,452,452,452,452,452,452,452,452,452,452,452,452,452,452,452,452,
452,452,452,452,452,452,452,452,452,452,452,452,452,452,452,452,452,452,452,452,452,452,452,452,452,452,452,452,452,452,452,452,452,452,452,452,452,452,452,452,
452,452,452,452,452,452,452,452,452,452,452,452,452,452,452,452,452,452,452,452,452,452,452,452,452,452,452,452,452,452,452,452,452,452,452,452,452,452,452,452,
452,452,452,452,452,452,452,452,452,452,452,452,452,452,452,452,452,452,452,452,452,452,452,452,452,452,452,452,452,452,452,452,452,452,452,452,452,452,452,452,
452,452,452,452,452,452,452,452,452,452,452,452,452,452,452,452,452,452,452,452,452,452,452,452,452,452,452,452,452,452,452,452,452,452,452,452,452,452,452,452,
452,452,452,452,452,452,452,452,452,452,452,452,452,452,452,452,452,452,452,452,452,452,452,452,452,452,452,452,452,452,452,452,452,452,452,452,452,452,452,452,
452,452,452,452,452,452,452,452,452,452,452,452,452,452,452,452,452,452,452,452,452,452,452,452,452,452,452,452,452,452,452,452,452,452,452,452,452,452,452,452,
442,442,442,442,442,442,442,442,442,442,442,442,442,442,442,442,442,442,442,442,442,442,442,442,442,442,442,442,442,442,442,442,442,442,442,442,442,442,442,442,
442,442,442,442,442,442,442,442,442,442,442,442,442,442,442,442,442,442,442,442,442,442,442,442,442,442,442,442,442,442,442,442,442,442,442,442,442,442,442,442,
442,442,442,442,442,442,442,442,442,442,442,442,442,442,442,442,442,442,442,442,442,442,442,442,442,442,442,442,442,442,442,442,442,442,442,442,442,442,442,442,
442,442,442,442,442,442,442,442,442,442,442,442,442,442,442,442,442,442,442,442,442,442,442,442,442,442,442,442,442,442,442,442,442,442,442,442,442,442,442,442,
442,442,442,442,442,442,442,442,442,442,442,442,442,442,442,442,442,442,442,442,442,442,442,442,442,442,442,442,442,442,442,442,442,442,442,442,442,442,442,442,
442,442,442,442,442,442,442,442,442,442,442,442,442,442,442,442,442,442,442,442,442,442,442,442,442,442,442,442,442,442,442,442,442,442,442,442,442,442,442,442,
442,442,442,442,442,442,442,442,442,442,442,442,442,442,442,442,442,442,442,442,442,442,442,442,442,442,442,442,442,442,442,442,442,442,442,442,442,442,442,442,
442,442,442,442,442,442,442,442,442,442,442,442,442,442,442,442,442,442,442,442,442,442,442,442,442,442,442,442,442,442,442,442,442,442,442,442,442,442,442,442,
442,442,442,442,442,442,442,442,442,442,442,442,442,442,442,442,442,442,442,442,442,442,442,442,442,442,442,442,442,442,442,442,442,442,442,442,442,442,442,442,
442,442,442,442,442,442,442,442,442,442,442,442,442,442,442,442,442,442,442,442,442,442,442,442,442,442,442,442,442,442,442,442,442,442,442,442,442,442,442,442,
442,442,442,442,442,442,442,442,442,442,442,442,442,442,442,442,442,442,442,442,442,442,442,442,442,442,442,442,442,442,442,442,442,442,442,442,442,442,442,442,
442,442,442,442,442,442,442,442,442,442,442,442,442,442,442,442,442,442,442,442,442,442,442,442,442,442,442,442,442,442,442,442,442,442,442,442,442,442,442,442,
442,442,442,442,442,442,442,442,442,442,442,442,442,442,442,442,442,442,442,442,442,442,442,442,442,442,442,442,442,442,442,442,442,442,442,442,442,442,442,442,
442,442,442,442,442,442,442,442,442,442,442,442,442,442,442,442,442,442,442,442,442,442,442,442,442,442,442,442,442,442,442,442,442,442,442,442,442,442,442,442,
442,442,442,442,442,442,442,442,442,442,442,442,442,442,442,442,442,442,442,442,442,442,442,442,442,442,442,442,442,442,442,442,442,442,442,442,442,442,442,442,
442,442,442,442,442,442,442,442,442,442,442,442,442,442,442,442,442,442,442,442,442,442,442,442,442,442,442,442,442,442,442,442,442,442,442,442,442,442,442,442,
442,442,442,442,442,442,442,442,442,442,442,442,442,442,442,442,442,442,442,442,442,442,442,442,442,442,442,442,442,442,442,442,442,442,442,442,442,442,442,442,
442,442,442,442,442,442,442,442,442,442,442,442,442,442,442,442,442,442,442,442,442,442,442,442,442,442,442,442,442,442,442,442,442,442,442,442,442,442,442,442,
442,442,442,442,442,442,442,442,442,442,442,442,442,442,442,442,442,442,442,442,442,442,442,442,442,442,442,442,442,442,442,442,442,442,442,442,442,442,442,442,
442,442,442,442,442,442,442,442,442,442,442,442,442,442,442,442,442,442,442,442,442,442,442,442,442,442,442,442,442,442,442,442,442,442,442,442,442,442,442,442,
442,442,442,442,442,442,442,442,442,442,442,442,442,442,442,442,442,442,442,442,442,442,442,442,442,442,442,442,442,442,442,442,442,442,442,442,442,442,442,442,
442,442,442,442,442,442,442,442,442,442,442,442,442,442,442,442,442,442,442,442,442,442,442,442,442,442,442,442,442,442,442,442,442,442,442,442,442,442,442,442,
442,442,442,442,442,442,442,442,442,442,442,442,442,442,442,442,442,442,442,442,442,442,442,442,442,442,442,442,442,442,442,442,442,442,442,442,442,442,442,442,
442,442,442,442,442,442,442,442,442,442,442,442,442,442,442,442,442,442,442,442,442,442,442,442,442,442,442,442,442,442,442,442,442,442,442,442,442,442,442,442,
442,442,442,442,442,442,442,442,442,442,442,442,442,442,442,442,442,442,442,442,442,442,442,442,442,442,442,442,442,442,442,442,442,442,442,442,442,442,442,442,
442,442,442,442,442,442,442,442,442,442,442,442,442,442,442,442,442,442,442,442,442,442,442,442,442,442,442,442,442,442,442,442,442,442,442,442,442,442,442,442,
442,442,442,442,442,442,442,442,442,442,442,442,442,442,442,442,442,442,442,442,442,442,442,442,442,442,442,442,442,442,442,442,442,442,442,442,442,442,442,442,
442,442,442,442,442,442,442,442,442,442,442,442,442,442,442,442,442,442,442,442,442,442,442,442,442,442,442,442,442,442,442,442,442,442,442,442,442,442,442,442,
442,442,442,442,442,442,442,442,442,442,442,442,442,442,442,442,442,442,442,442,442,442,442,442,442,442,442,442,442,442,442,442,442,442,442,442,442,442,442,442,
442,442,442,442,442,442,442,442,442,442,442,442,442,442,442,442,442,442,442,442,442,442,442,442,442,442,442,442,442,442,442,442,442,442,442,442,442,442,442,442,
442,442,442,442,442,442,442,442,442,442,442,442,442,442,442,442,442,442,442,442,442,442,442,442,442,442,442,442,442,442,442,442,442,442,442,442,442,442,442,442,
442,442,442,442,442,442,442,442,442,442,442,442,442,442,442,442,442,442,442,442,442,442,442,442,442,442,442,442,442,442,442,442,442,442,442,442,442,442,442,442,
442,442,442,442,442,442,442,442,442,442,442,442,442,442,442,442,442,442,442,442,442,442,442,442,442,442,442,442,442,442,442,442,442,442,442,442,442,442,442,442,
442,442,442,442,442,442,442,442,442,442,442,442,442,442,442,442,442,442,442,442,442,442,442,442,442,442,442,442,442,442,442,442,442,442,442,442,442,442,442,442,
442,442,442,442,442,442,442,442,442,442,442,442,442,442,442,442,442,442,442,442,442,442,442,442,442,442,442,442,442,442,442,442,442,442,442,442,442,442,442,442,
442,442,442,442,442,442,442,442,442,442,442,442,442,442,442,442,442,442,442,442,442,442,442,442,442,442,442,442,442,442,442,442,442,442,442,442,442,442,442,442,
442,442,442,442,442,442,442,442,442,442,442,442,442,442,442,442,442,442,442,442,442,442,442,442,442,442,442,442,442,442,442,442,442,442,442,442,442,442,442,442,
442,442,442,442,442,442,442,442,442,442,442,442,442,442,442,442,442,442,442,442,442,442,442,442,442,442,442,442,442,442,442,442,442,442,442,442,442,442,442,442,
442,442,442,442,442,442,442,442,442,442,442,442,442,442,442,442,442,442,442,442,442,442,442,442,442,442,442,442,442,442,442,442,442,442,442,442,442,442,442,442,
442,442,442,442,442,442,442,442,442,442,442,442,442,442,442,442,442,442,442,442,442,442,442,442,442,442,442,442,442,442,442,442,442,442,442,442,442,442,442,442,
442,442,442,442,442,442,442,442,442,442,442,442,442,442,442,442,442,442,442,442,442,442,442,442,442,442,442,442,442,442,442,442,442,442,442,442,442,442,442,442,
442,442,442,442,442,442,442,442,442,442,442,442,442,442,442,442,442,442,442,442,442,442,442,442,442,442,442,442,442,442,442,442,442,442,442,442,442,442,442,442,
442,442,442,442,442,442,442,442,442,442,442,442,442,442,442,442,442,442,442,442,442,442,442,442,442,442,442,442,442,442,442,442,442,442,442,442,442,442,442,442,
442,442,442,442,442,442,442,442,442,442,442,442,442,442,442,442,442,442,442,442,442,442,442,442,442,442,442,442,442,442,442,442,442,442,442,442,442,442,442,442,
442,442,442,442,442,442,442,442,442,442,442,442,442,442,442,442,442,442,442,442,442,442,442,442,442,442,442,442,442,442,442,442,442,442,442,442,442,442,442,442,
442,442,442,442,442,442,442,442,442,442,442,442,442,442,442,442,442,442,442,442,442,442,442,442,442,442,442,442,442,442,442,442,442,442,442,442,442,442,442,442,
442,442,442,442,442,442,442,442,442,442,442,442,442,442,442,442,442,442,442,442,442,442,442,442,442,442,442,442,442,442,442,442,442,442,442,442,442,442,442,442,
442,442,442,442,442,442,442,442,442,442,442,442,442,442,442,442,442,442,442,442,442,442,442,442,442,442,442,442,442,442,442,442,442,442,442,442,442,442,442,442,
442,442,442,442,442,442,442,442,442,442,442,442,442,442,442,442,442,442,442,442,442,442,442,442,442,442,442,442,442,442,442,442,442,442,442,442,442,442,442,442,
442,442,442,442,442,442,442,442,442,442,442,442,442,442,442,442,442,442,442,442,442,442,442,442,442,442,442,442,442,442,442,442,442,442,442,442,442,442,442,442,
442,442,442,442,442,442,442,442,442,442,442,442,442,442,442,442,442,442,442,442,442,442,442,442,442,442,442,442,442,442,442,442,442,442,442,442,442,442,442,442,
442,442,442,442,442,442,442,442,442,442,442,442,442,442,442,442,442,442,442,442,442,442,442,442,442,442,442,442,442,442,442,442,442,442,442,442,442,442,442,442,
442,442,442,442,442,442,442,442,442,442,442,442,442,442,442,442,442,442,442,442,442,442,442,442,442,442,442,442,442,442,442,442,442,442,442,442,442,442,442,442,
442,442,442,442,442,442,442,442,442,442,442,442,442,442,442,442,442,442,442,442,442,442,442,442,442,442,442,442,442,442,442,442,442,442,442,442,442,442,442,442,
442,442,442,442,442,442,442,442,442,442,442,442,442,442,442,442,442,442,442,442,442,442,442,442,442,442,442,442,442,442,442,442,442,442,442,442,442,442,442,442,
442,442,442,442,442,442,442,442,442,442,442,442,442,442,442,442,442,442,442,442,442,442,442,442,442,442,442,442,442,442,442,442,442,442,442,442,442,442,442,442,
442,442,442,442,442,442,442,442,442,442,442,442,442,442,442,442,442,442,442,442,442,442,442,442,442,442,442,442,442,442,442,442,442,442,442,442,442,442,442,442,
442,442,442,442,442,442,442,442,442,442,442,442,442,442,442,442,442,442,442,442,442,442,442,442,442,442,442,442,442,442,442,442,442,442,442,442,442,442,442,442,
442,442,442,442,442,442,442,442,442,442,442,442,442,442,442,442,442,442,442,442,442,442,442,442,442,442,442,442,442,442,442,442,442,442,442,442,442,442,442,442,
442,442,442,442,442,442,442,442,442,442,442,442,442,442,442,442,442,442,442,442,442,442,442,442,442,442,442,442,442,442,442,442,442,442,442,442,442,442,442,442,
442,442,442,442,442,442,442,442,442,442,442,442,442,442,442,442,442,442,442,442,442,442,442,442,442,442,442,442,442,442,442,442,442,442,442,442,442,442,442,442,
442,442,442,442,442,442,442,442,442,442,442,442,442,442,442,442,442,442,442,442,442,442,442,442,442,442,442,442,442,442,442,442,442,442,442,442,442,442,442,442,
442,442,442,442,442,442,442,442,442,442,442,442,442,442,442,442,442,442,442,442,442,442,442,442,442,442,442,442,442,442,442,442,442,442,442,442,442,442,442,442,
442,442,442,442,442,442,442,442,442,442,442,442,442,442,442,442,442,442,442,442,442,442,442,442,442,442,442,443,444,442,442,442,442,442,442,442,442,442,442,442,
442,442,442,442,442,442,442,442,442,442,442,442,442,442,442,442,442,442,442,442,442,442,442,442,442,442,442,442,442,442,443,444,442,442,442,442,442,442,442,442,
442,442,442,442,442,442,442,442,442,442,442,442,442,442,442,442,442,442,442,442,442,442,442,442,442,451,451,451,451,442,442,443,444,442,442,442,442,442,442,442,
442,442,442,442,442,442,442,442,442,442,442,442,442,442,442,442,442,442,442,442,442,442,442,442,442,442,442,442,442,451,451,452,453,442,442,442,442,442,442,442,
442,442,442,442,442,442,442,442,442,442,442,442,442,442,442,442,442,442,442,442,442,442,442,442,442,442,442,442,442,442,442,442,442,442,442,442,442,442,442,442,
442,442,443,444,442,442,442,442,442,442,442,442,442,442,442,442,442,442,442,442,442,442,442,442,442,442,442,442,442,442,442,442,442,442,442,442,442,442,442,442,
442,451,452,453,442,442,442,442,442,442,442,442,442,442,442,442,442,442,442,442,442,442,442,442,442,442,442,442,442,442,442,442,442,442,442,442,442,442,442,442,
442,442,442,442,442,442,442,442,442,442,442,442,442,442,442,442,442,442,442,442,442,442,442,442,442,442,442,442,442,442,442,442,442,442,442,442,442,442,442,442,
442,442,442,442,442,442,442,442,442,442,442,442,442,442,442,442,442,442,442,442,442,442,442,442,442,442,442,442,442,442,442,442,442,442,442,442,442,442,442,442,
442,442,442,442,442,442,442,442,442,442,442,442,442,442,442,442,442,442,442,442,442,442,442,442,442,442,442,442,442,442,442,442,442,442,442,442,442,442,442,442,
442,442,442,442,442,442,442,442,442,442,442,442,442,442,442,442,442,442,442,442,442,442,442,442,442,442,442,442,442,442,442,442,442,442,442,442,442,442,442,442,
442,442,442,442,442,442,442,442,442,442,442,442,442,442,442,442,442,442,442,442,442,442,442,442,442,442,442,442,442,442,442,442,442,442,442,442,442,442,442,442,
442,442,442,442,442,442,442,442,442,442,442,442,442,442,442,442,442,442,442,442,442,442,442,442,442,442,442,442,442,442,442,442,442,442,442,442,442,442,442,442,
442,443,444,445,446,447,448,449,442,443,444,445,446,447,448,449,442,443,444,445,446,447,448,449,442,442,442,442,442,442,442,442,442,442,442,442,442,442,442,442,
451,452,453,454,455,456,457,458,451,452,453,454,455,456,457,458,451,452,453,454,455,456,457,458,442,443,444,445,446,447,448,449,442,443,444,445,446,447,448,449,
460,461,462,463,464,465,466,467,460,461,462,463,464,465,466,467,460,461,462,463,464,465,466,467,451,452,453,454,455,456,457,458,451,452,453,454,455,456,457,458,
469,470,471,472,473,474,475,476,469,470,471,472,473,474,475,476,469,470,471,472,473,474,475,476,460,461,462,463,464,465,466,467,460,461,462,463,464,465,466,467,
478,479,480,481,482,483,484,485,478,479,480,481,482,483,484,485,478,479,480,481,482,483,484,485,469,470,471,472,473,474,475,476,469,470,471,472,473,474,475,476,
487,488,489,490,491,492,493,494,487,488,489,490,491,492,493,494,487,488,489,490,491,492,493,494,478,479,480,481,482,483,484,485,478,479,480,481,482,483,484,485,
496,497,498,499,500,501,502,503,496,497,498,499,500,501,502,503,496,497,498,499,500,501,502,503,487,488,489,490,491,492,493,494,487,488,489,490,491,492,493,494,
505,506,507,508,509,510,511,512,505,506,507,508,509,510,511,512,505,506,507,508,509,510,511,512,496,497,498,499,500,501,502,503,496,497,498,499,500,501,502,503,
442,443,444,445,446,447,448,449,442,443,444,445,446,447,448,449,442,443,444,445,446,447,448,449,505,506,507,508,509,510,511,512,505,506,507,508,509,510,511,512,
451,452,453,454,455,456,457,458,451,452,453,454,455,456,457,458,451,452,453,454,455,456,457,458,442,443,444,445,446,447,448,449,442,443,444,445,446,447,448,449,
460,461,462,463,464,465,466,467,460,461,462,463,464,465,466,467,460,461,462,463,464,465,466,467,442,442,442,442,442,442,442,442,442,442,442,442,442,442,442,442,
469,470,471,472,473,474,475,476,469,470,471,472,473,474,475,476,469,470,471,472,473,474,475,476,442,442,442,442,442,442,442,442,442,442,442,442,442,442,442,442,
442,443,444,445,442,442,442,442,442,442,442,442,442,442,442,442,442,442,442,442,442,442,442,442,442,442,442,442,442,442,442,442,442,442,442,442,442,442,442,442,
442,442,443,444,445,442,442,442,442,442,442,442,442,442,442,442,442,442,442,442,442,442,442,442,442,442,442,442,442,442,442,442,442,442,442,442,442,442,442,442,
451,442,442,443,444,445,446,447,448,442,442,442,442,442,442,442,442,442,442,442,442,442,442,442,442,442,442,442,442,442,442,442,442,442,442,442,442,442,442,442,
460,451,442,442,442,443,444,445,446,442,442,442,442,442,442,442,442,442,442,442,442,442,442,442,442,442,442,442,442,442,442,442,442,442,442,442,442,442,442,442,
442,443,444,445,446,447,448,449,449,449,442,442,442,442,442,442,442,442,442,442,442,442,442,442,442,442,442,442,442,442,442,442,442,442,442,442,442,442,442,442,
451,452,453,454,455,456,457,458,458,458,442,442,442,442,442,442,442,442,442,442,442,442,442,442,442,442,442,442,442,442,442,442,442,442,442,442,442,442,442,442,
460,461,462,463,464,465,466,467,467,467,458,442,442,442,442,442,442,442,442,442,442,442,442,442,442,442,442,442,442,442,442,442,442,442,442,442,442,442,442,442,
469,470,471,472,473,474,475,476,476,476,467,467,442,442,442,442,442,442,442,442,442,442,442,442,442,442,442,442,442,442,442,442,442,442,442,442,442,442,442,442,
478,479,480,481,482,483,484,485,485,485,476,476,442,442,442,442,442,442,442,442,442,442,442,442,442,442,442,442,442,442,442,442,442,442,442,442,442,442,442,442,
487,488,489,490,491,492,493,494,494,494,485,485,442,442,442,442,442,442,442,442,442,442,442,442,442,442,442,442,442,442,442,442,442,442,442,442,442,442,442,442,
496,497,498,499,500,501,502,503,503,503,494,494,494,442,442,442,442,442,442,442,442,442,442,442,442,442,442,442,442,442,442,442,442,442,442,442,442,442,442,442,
505,506,507,508,509,510,511,512,512,512,503,503,503,442,442,442,442,442,442,442,442,442,442,442,442,442,442,442,442,442,442,442,442,442,442,442,442,442,442,442
</data>
 </layer>
 <layer id="2" name="ground" width="40" height="140">
  <data encoding="csv">
44,45,44,45,44,45,44,45,44,45,44,45,44,45,44,45,44,44,45,175,199,192,198,44,44,45,44,45,44,45,44,45,44,45,44,45,44,45,44,45,
65,66,65,66,65,66,65,66,65,66,65,66,65,66,65,66,65,65,66,196,191,192,200,177,65,66,65,66,65,66,65,66,65,66,65,66,65,66,65,66,
44,45,44,45,44,45,44,45,44,45,44,45,44,45,44,45,44,44,45,217,220,213,213,198,44,45,44,45,44,45,44,45,44,45,44,45,44,45,44,45,
65,66,65,66,65,66,65,66,65,66,65,66,65,66,65,66,65,44,45,44,196,212,213,200,177,66,65,66,65,66,65,66,65,66,65,66,65,66,65,66,
44,45,44,45,44,45,44,45,44,45,44,45,44,45,44,45,44,65,66,65,196,212,213,192,198,45,44,45,44,45,44,45,44,45,44,45,44,45,44,45,
65,66,65,66,65,66,65,66,65,66,65,66,65,66,65,66,65,44,45,44,196,212,213,213,198,66,65,66,65,66,65,66,65,66,65,66,65,66,65,66,
44,45,44,45,44,45,44,45,44,45,44,45,44,45,44,45,44,44,45,175,199,212,212,221,219,45,44,45,44,45,44,45,44,45,44,45,44,45,44,45,
65,66,65,66,65,66,65,66,65,66,65,66,65,66,65,66,65,44,175,199,212,212,221,219,65,66,65,66,65,66,65,66,65,66,65,66,65,66,65,66,
44,45,44,45,44,45,44,45,44,45,44,45,44,45,44,45,44,175,199,212,212,221,219,45,44,45,44,45,44,45,44,45,44,45,44,45,44,45,44,45,
65,66,65,66,65,66,65,66,65,66,65,66,65,66,65,66,65,196,212,212,221,219,65,66,65,66,65,66,65,66,65,66,65,66,65,66,65,66,65,66,
44,45,44,45,44,45,44,45,44,45,44,45,44,45,44,45,44,196,212,213,200,177,44,45,44,45,44,45,44,45,44,45,44,45,44,45,44,45,44,45,
65,66,65,66,65,66,65,66,65,66,65,66,65,66,65,66,65,196,212,213,192,198,65,66,65,66,65,66,65,66,65,66,65,66,65,66,65,66,65,66,
44,45,44,45,44,45,44,45,44,45,44,45,44,45,44,45,44,196,212,213,213,200,177,45,44,45,44,45,44,45,44,45,44,45,44,45,44,45,44,45,
65,66,65,66,65,66,65,66,65,66,65,66,65,66,65,66,65,217,220,212,213,192,198,66,65,66,65,66,65,66,65,66,65,66,65,66,65,66,65,66,
44,45,44,45,44,45,44,45,44,45,44,45,44,45,44,45,44,65,196,212,213,213,200,177,44,45,44,45,44,45,44,45,44,45,44,45,44,45,44,45,
65,66,65,66,65,66,65,66,65,66,65,66,65,66,65,66,65,44,217,220,212,213,213,198,65,66,65,66,65,66,65,66,65,66,65,66,65,66,65,66,
44,45,44,45,44,45,44,45,44,45,44,45,44,45,44,45,44,65,66,196,191,212,213,198,44,45,44,45,44,45,44,45,44,45,44,45,44,45,44,45,
65,66,65,66,65,66,65,66,65,66,65,66,65,66,65,66,65,44,175,199,212,212,213,198,65,66,65,66,65,66,65,66,65,66,65,66,65,66,65,66,
44,45,44,45,44,45,44,45,44,45,44,45,44,45,44,45,44,175,199,191,212,213,221,219,44,45,44,45,44,45,44,45,44,45,44,45,44,45,44,45,
65,66,65,66,65,66,65,66,65,66,65,66,65,66,65,66,65,196,191,191,221,218,219,66,65,66,65,66,65,66,65,66,65,66,65,66,65,66,65,66,
44,45,44,45,44,45,44,45,44,45,44,45,44,45,44,45,44,196,212,212,200,177,44,45,44,45,44,45,44,45,44,45,44,45,44,45,44,45,44,45,
65,66,65,66,65,66,65,66,65,66,65,66,65,66,65,66,65,196,212,213,192,198,65,66,65,66,65,66,65,66,65,66,65,66,65,66,65,66,65,66,
44,45,44,45,44,45,44,45,44,45,44,45,44,45,44,45,44,196,212,213,213,200,177,45,44,45,44,45,44,45,44,45,44,45,44,45,44,45,44,45,
65,66,65,66,65,66,65,66,65,66,65,66,65,66,65,66,65,217,220,212,213,192,198,66,65,66,65,66,65,66,65,66,65,66,65,66,65,66,65,66,
44,45,44,45,44,45,44,45,44,45,44,45,44,45,44,45,44,65,196,212,213,213,200,177,44,45,44,45,44,45,44,45,44,45,44,45,44,45,44,45,
65,66,65,66,65,66,65,66,65,66,65,66,65,66,65,66,191,177,217,220,212,213,192,198,65,66,65,66,65,66,65,66,65,66,65,66,65,66,65,66,
44,45,44,45,44,45,44,45,44,45,44,45,44,45,44,196,212,198,66,196,212,213,221,219,44,45,44,45,44,45,44,45,44,45,44,45,44,45,44,45,
65,66,65,66,65,66,65,66,65,66,65,66,65,66,65,196,212,200,177,196,191,212,200,44,65,66,65,66,65,66,65,66,65,66,65,66,65,66,65,66,
44,45,44,45,44,45,44,45,44,45,44,45,44,45,44,217,218,220,200,199,212,212,213,198,44,45,44,45,44,45,44,45,44,45,44,45,44,45,44,45,
65,66,65,66,65,66,65,66,65,66,65,66,65,66,65,66,65,217,220,191,212,213,221,219,65,66,65,66,65,66,65,66,65,66,65,66,65,66,65,66,
44,45,44,45,44,45,44,45,44,45,44,45,44,45,44,45,44,175,199,212,212,213,198,66,44,45,44,45,44,45,44,45,44,45,44,45,44,45,44,45,
65,66,65,66,65,66,65,66,65,66,65,66,65,66,65,66,65,196,191,212,213,221,219,45,65,66,65,66,65,66,65,66,65,66,65,66,65,66,65,66,
44,45,44,45,44,45,44,45,44,45,44,45,44,45,44,45,44,196,212,212,213,198,65,66,44,45,44,45,44,45,44,45,44,45,44,45,44,45,44,45,
65,66,65,66,65,66,65,66,65,66,65,66,65,66,65,66,65,217,220,213,221,219,44,45,65,66,65,66,65,66,65,66,65,66,65,66,65,66,65,66,
44,45,44,45,44,45,44,45,44,45,44,45,44,45,44,45,44,65,217,218,219,65,65,66,44,45,44,45,44,45,44,45,44,45,44,45,44,45,44,45,
65,66,65,66,65,66,65,66,65,66,65,66,65,66,65,66,65,44,45,593,219,595,44,45,65,66,65,66,65,66,65,66,65,66,65,66,65,66,65,66,
44,45,44,45,44,45,44,45,44,45,44,45,44,45,44,45,44,65,66,191,191,192,65,66,44,45,44,45,44,45,44,45,44,45,44,45,44,45,44,45,
65,66,65,66,65,66,65,66,65,66,65,66,65,66,65,66,65,44,45,196,212,213,198,45,65,66,65,66,65,66,65,66,65,66,65,66,65,66,65,66,
44,45,44,45,44,45,44,45,44,45,44,45,44,45,44,45,44,65,66,196,212,221,219,66,44,45,44,45,44,45,44,45,44,45,44,45,44,45,44,45,
65,66,65,66,65,66,65,66,65,66,65,66,65,66,65,175,176,176,176,199,221,219,45,44,65,66,65,66,65,66,65,66,65,66,65,66,65,66,65,66,
44,45,44,45,44,45,44,45,44,45,44,44,175,176,176,199,191,212,212,221,219,65,66,65,44,45,44,45,44,45,44,45,44,45,44,45,44,45,44,45,
65,66,65,66,65,66,65,66,65,66,65,175,199,191,212,212,221,218,218,219,45,44,45,44,65,66,65,66,65,66,65,66,65,66,65,66,65,66,65,66,
44,45,44,45,44,45,44,45,44,175,176,199,212,221,218,218,219,45,44,65,66,65,66,65,44,45,44,45,44,45,44,45,44,45,44,45,44,45,44,45,
65,66,65,66,65,66,65,66,175,199,212,221,218,219,45,44,45,44,45,44,45,44,45,44,65,66,65,66,65,66,65,66,65,66,65,66,65,66,65,66,
44,45,44,45,44,45,44,175,199,221,218,219,44,65,66,65,66,65,66,65,261,65,66,65,44,45,44,45,44,45,44,45,44,45,44,45,44,45,44,45,
45,44,45,44,45,44,175,199,192,198,45,44,45,44,45,44,45,44,45,260,304,260,261,44,45,44,45,44,45,44,45,44,45,44,45,44,45,44,45,44,
44,45,44,45,44,175,199,191,221,219,66,300,276,65,66,65,66,65,66,65,297,297,304,260,260,260,261,65,66,65,66,65,66,65,66,65,66,65,66,65,
44,45,44,45,175,199,212,221,219,44,300,276,276,44,45,44,45,44,45,275,275,296,296,297,275,276,304,260,260,260,261,44,45,44,45,44,45,44,45,44,
65,66,65,66,196,212,212,198,44,300,275,276,297,275,275,275,275,275,275,296,275,276,276,297,275,276,296,296,275,275,304,261,300,299,66,65,66,65,66,65,
44,45,44,45,196,212,213,200,177,280,275,275,275,296,296,296,296,296,275,296,275,275,275,275,275,275,296,297,296,296,283,303,279,278,300,261,45,45,45,44,
65,66,65,66,196,212,213,192,198,301,284,275,296,275,275,275,296,297,296,296,296,275,276,276,296,296,296,297,282,302,303,65,66,300,296,304,260,260,260,261,
44,45,44,45,196,212,213,213,200,177,301,284,296,296,275,296,296,296,275,276,276,276,276,297,297,282,302,302,303,44,45,44,45,280,296,297,275,276,276,304,
65,66,65,66,217,220,212,213,192,198,44,301,302,302,302,284,278,302,284,297,297,297,283,302,302,303,44,45,44,44,45,44,45,279,284,297,275,275,276,276,
44,45,44,45,44,196,212,212,213,200,177,65,66,65,66,301,303,66,301,302,302,302,302,66,65,66,65,66,65,65,66,65,66,65,280,297,296,275,275,276,
8,8,9,66,65,217,218,220,213,192,200,177,45,44,45,44,44,45,44,45,175,176,176,176,176,177,175,176,176,177,45,44,45,44,279,282,284,296,275,276,
0,0,31,8,9,44,44,217,218,220,192,200,176,177,66,175,176,177,65,175,199,192,192,192,192,200,199,192,192,200,176,177,66,65,301,303,279,284,275,275,
11,0,0,0,31,8,8,8,9,217,220,191,192,200,176,199,191,200,176,199,192,192,213,213,213,213,213,212,213,192,192,200,176,177,44,65,65,280,296,275,
49,50,11,0,0,0,0,0,31,9,217,220,213,192,221,218,218,220,213,213,221,218,218,218,218,218,218,218,218,218,220,213,192,200,177,44,44,280,297,296,
65,66,49,50,11,0,0,0,0,31,9,217,218,218,219,7,9,217,218,218,219,7,8,8,8,8,9,44,45,44,217,218,220,213,200,177,65,279,284,297,
44,45,44,45,49,50,50,11,0,0,31,9,7,8,8,32,31,8,8,8,8,32,0,10,11,0,31,8,8,8,9,44,196,213,213,198,44,45,280,297,
259,260,261,66,65,44,45,49,11,10,11,31,32,10,50,50,11,10,50,11,0,0,0,31,32,0,0,0,0,10,51,44,217,218,220,200,177,66,280,297,
280,281,282,45,44,65,66,7,32,31,32,0,10,51,175,177,49,51,44,28,0,0,0,0,0,0,0,0,0,31,8,8,8,9,217,220,198,44,279,297,
301,302,303,66,65,44,7,32,0,0,10,50,51,175,199,198,175,176,177,49,50,11,0,0,0,0,0,0,0,0,0,0,0,31,9,196,200,177,66,279,
44,45,44,7,8,8,32,0,10,50,51,175,176,199,213,200,199,191,198,44,44,28,0,0,0,0,0,0,0,0,0,10,11,0,30,196,213,198,45,280,
8,8,8,32,0,0,10,50,51,175,176,199,212,213,221,220,221,220,200,176,177,49,11,0,0,0,0,0,0,0,0,31,32,10,51,196,221,219,66,280,
0,0,10,50,50,50,51,175,176,199,212,213,221,218,219,217,219,196,191,192,198,44,49,11,0,10,11,0,0,0,0,0,10,51,175,199,219,44,45,280,
50,50,51,66,65,65,175,199,191,212,212,221,219,66,65,66,65,196,191,191,200,177,45,28,0,31,32,0,0,0,10,50,51,175,199,192,177,45,44,279,
44,45,44,45,44,44,196,191,212,212,221,219,44,45,44,45,44,217,220,191,192,198,66,49,11,0,10,50,50,50,51,44,175,199,212,213,198,66,65,66,
65,66,65,66,65,65,217,218,218,218,219,44,44,45,44,45,44,45,196,191,192,200,177,44,49,50,51,175,176,176,176,176,199,212,212,221,219,45,44,45,
0,0,0,0,0,0,0,212,213,0,0,0,65,196,197,176,176,176,199,191,191,192,200,176,176,176,176,199,191,191,191,191,212,212,221,219,65,66,65,66,
44,45,275,276,44,196,191,212,213,44,45,44,45,217,218,218,218,218,220,212,191,192,191,191,191,191,212,212,212,191,212,212,212,221,219,44,45,44,45,44,
275,276,275,276,65,196,212,212,213,65,44,45,44,45,44,45,44,45,217,220,212,213,191,212,212,212,212,221,218,218,220,221,218,219,259,260,261,65,66,65,
275,276,296,297,278,196,212,213,213,198,44,45,44,45,44,45,44,45,44,217,218,220,212,212,213,221,218,219,44,45,217,219,44,45,280,281,282,45,44,45,
275,276,278,302,303,217,220,213,221,219,65,66,65,66,65,66,65,66,65,66,65,217,218,218,218,219,65,66,65,66,65,66,65,66,300,275,65,66,65,66,
276,297,261,45,44,175,199,221,219,45,44,45,44,45,44,45,44,45,44,45,44,45,44,45,44,45,44,45,44,45,44,44,45,45,279,296,45,44,45,44,
297,278,303,66,65,196,212,200,177,66,65,66,65,66,65,66,65,66,65,66,65,66,65,66,65,66,65,66,175,176,177,65,66,279,66,65,275,275,275,275,
302,303,44,45,44,196,212,213,198,45,44,45,44,45,44,45,44,45,44,275,275,275,275,275,276,44,65,66,196,191,219,44,45,44,45,44,296,296,296,296,
65,66,65,66,65,196,212,221,219,66,65,66,65,259,260,261,65,259,260,261,296,275,276,275,282,175,176,177,217,220,198,65,66,65,66,65,301,302,284,276,
44,45,45,44,45,196,212,200,177,44,45,44,45,280,281,276,276,280,281,282,45,296,297,276,261,196,191,198,175,199,200,177,44,45,44,45,44,45,279,302,
65,66,66,65,66,217,220,213,198,65,66,65,66,301,296,281,282,301,302,303,66,296,297,276,278,217,220,200,199,213,191,198,65,66,65,66,65,66,65,66,
44,45,44,45,44,45,196,212,200,177,45,44,45,44,301,302,303,44,45,44,45,296,297,278,303,175,199,191,221,218,218,219,44,45,44,45,44,45,44,45,
65,66,65,66,65,66,196,212,213,198,66,65,66,65,66,65,66,65,66,65,66,296,278,303,66,217,220,221,219,259,260,44,45,44,45,44,45,44,45,44,
44,191,191,192,44,45,196,212,213,200,176,177,45,44,45,44,45,44,45,44,302,302,303,44,175,176,199,200,177,280,281,282,66,259,300,260,299,259,66,65,
65,175,176,176,176,177,217,220,213,213,192,198,66,10,11,0,66,65,66,65,66,65,66,175,199,191,192,192,198,301,302,303,45,280,275,276,297,261,45,44,
45,196,191,191,191,198,45,196,212,213,213,200,177,31,32,10,11,45,44,45,44,44,175,199,191,192,221,218,219,65,66,65,300,276,276,276,297,304,260,260,
66,217,218,220,191,200,176,199,191,212,213,192,198,66,0,31,32,0,0,0,65,175,199,191,192,221,44,44,44,44,44,45,279,297,297,297,297,297,297,297,
44,45,44,217,218,220,191,191,191,212,213,213,200,176,177,0,0,0,0,0,175,199,221,218,218,259,260,65,65,44,45,44,45,301,302,279,296,296,296,297,
65,66,65,66,65,217,218,220,191,221,220,213,213,192,198,0,0,0,0,175,199,191,219,44,259,260,281,66,44,65,66,65,66,65,66,301,302,302,302,302,
44,45,44,45,44,45,44,217,218,219,196,212,213,213,200,176,177,44,175,199,191,192,198,65,280,281,281,281,282,65,65,44,45,44,45,44,45,66,65,66,
65,66,65,66,65,66,65,66,65,66,217,218,220,213,213,191,198,65,196,191,192,192,200,177,301,302,302,302,303,175,177,65,66,65,66,65,66,45,44,45,
44,45,44,45,44,45,44,45,44,45,44,45,196,212,213,192,200,176,199,191,192,213,191,198,65,66,175,176,176,199,198,65,65,65,280,275,275,275,275,276,
65,66,65,66,65,66,65,66,65,66,65,66,217,218,220,213,192,192,191,192,192,192,192,200,176,176,199,192,192,192,200,176,176,177,301,302,284,275,275,275,
44,45,44,45,44,45,44,45,44,45,44,45,44,45,196,213,213,213,191,192,213,192,213,213,221,218,220,213,213,213,192,192,192,200,176,177,280,275,296,275,
65,66,65,66,65,66,65,66,65,66,65,66,65,66,217,218,220,213,212,213,213,213,221,218,219,44,217,218,218,218,218,220,213,213,192,198,301,284,296,275,
44,45,44,45,44,45,44,45,44,45,44,45,44,45,44,44,196,212,213,191,191,192,198,45,45,44,45,44,45,44,45,217,218,220,213,200,177,301,284,275,
65,66,65,66,65,66,65,66,65,66,65,66,65,66,65,175,199,212,213,212,191,191,200,176,177,65,66,65,66,44,45,44,45,196,212,213,198,44,279,275,
44,45,44,45,44,45,44,45,44,45,44,45,44,45,44,196,191,191,221,218,220,191,191,192,198,45,45,44,45,65,66,65,66,217,218,220,200,177,280,275,
65,66,65,66,65,66,65,66,65,66,65,66,65,66,175,199,212,221,219,45,196,212,191,221,219,66,66,65,66,175,176,176,177,44,45,196,212,198,280,275,
44,45,44,45,44,45,44,45,44,45,44,45,44,175,199,191,221,219,65,66,217,218,220,200,176,177,45,44,175,199,191,191,198,65,66,196,212,200,279,284,
65,66,65,66,65,66,65,66,65,66,65,66,65,196,191,212,200,177,45,45,45,44,196,191,192,198,66,65,217,220,212,191,200,176,176,199,212,213,198,279,
44,45,44,45,44,45,44,45,44,45,44,45,44,196,212,213,221,219,66,66,66,65,217,218,218,219,44,44,44,217,218,220,212,212,212,212,221,218,219,65,
44,45,44,45,44,45,44,45,44,45,44,45,44,196,191,192,200,177,44,45,44,45,44,45,44,45,44,44,44,45,44,217,218,218,218,218,219,44,45,44,
65,66,65,66,65,66,196,191,192,198,65,66,65,196,212,213,191,198,65,66,65,66,65,66,65,66,0,0,65,66,0,65,66,65,66,65,66,65,66,65,
44,45,44,45,44,45,217,220,191,200,177,45,175,199,191,192,221,219,44,45,44,45,44,45,44,45,10,11,0,45,44,45,44,44,45,44,45,44,45,44,
65,66,65,66,65,66,65,217,220,191,200,176,199,191,212,213,198,66,65,66,65,66,65,66,65,0,31,32,0,0,0,0,65,65,66,0,0,0,0,0,
44,45,44,45,44,45,44,45,217,218,218,218,220,191,191,192,198,45,44,45,44,45,44,45,44,0,0,0,0,10,11,0,0,44,0,0,0,0,0,0,
65,66,65,66,65,66,65,66,65,66,65,66,217,221,218,218,219,66,65,66,65,66,65,66,65,66,65,66,65,31,32,0,0,275,275,275,275,275,275,275,
44,0,0,0,44,45,44,45,44,45,44,45,217,219,212,213,192,44,45,44,45,44,45,44,45,44,45,44,44,45,44,45,44,296,296,296,296,296,296,296,
65,0,0,0,0,0,0,44,45,44,45,44,45,276,212,212,213,276,275,276,275,65,66,65,66,65,66,65,275,276,275,276,275,276,275,276,275,276,275,276,
44,0,0,0,275,276,275,276,44,276,0,0,296,196,191,191,198,44,296,297,296,297,296,297,296,297,44,297,296,297,296,297,296,297,296,297,296,297,296,297,
0,0,0,0,275,276,275,276,275,276,275,276,275,217,220,191,200,176,177,44,280,276,275,276,275,276,275,276,275,276,275,276,275,276,275,276,275,276,275,276,
0,0,0,0,296,297,296,297,296,282,302,302,302,303,196,212,191,192,198,66,301,284,296,297,296,297,296,297,296,297,296,297,296,297,296,297,296,297,296,297,
275,276,275,276,275,276,275,282,302,303,175,176,176,177,196,213,221,220,200,176,177,301,302,284,275,276,275,275,276,275,276,275,276,275,275,276,275,276,275,276,
296,297,296,297,296,282,302,303,175,176,199,191,191,200,199,221,219,196,191,213,200,176,177,280,296,297,296,282,302,302,302,302,302,284,296,297,296,297,296,297,
275,283,302,302,302,303,175,176,199,212,221,220,212,221,218,219,44,217,218,218,220,191,198,301,302,276,275,198,44,45,44,45,44,280,275,276,275,276,275,276,
296,282,65,66,65,66,196,66,212,221,219,217,218,219,44,44,44,66,44,66,217,220,200,176,199,191,191,198,65,44,65,66,65,301,302,302,302,284,276,276,
302,303,44,44,44,45,196,45,44,219,44,45,44,45,44,45,45,7,8,8,9,217,218,220,191,191,221,219,45,44,45,44,45,44,45,44,44,301,302,302,
65,66,65,66,65,66,65,191,192,66,44,66,65,66,65,7,8,32,0,0,30,65,66,217,218,218,219,65,66,65,66,65,66,65,66,65,66,65,66,65,
44,45,65,66,44,7,8,212,213,8,8,8,8,8,9,28,0,0,0,0,31,9,44,45,44,45,7,8,9,44,45,44,44,7,8,8,8,8,9,44,
65,44,44,45,7,32,0,191,192,0,0,0,0,0,31,32,0,0,0,0,0,31,8,9,65,66,28,0,30,44,66,65,7,32,0,0,0,0,31,8,
9,45,7,8,32,0,0,212,213,0,0,0,0,0,0,0,0,0,0,0,0,0,0,31,8,8,32,0,31,9,44,7,32,0,0,0,0,0,0,0,
31,8,32,0,0,10,50,191,192,50,11,0,0,0,0,0,0,0,0,0,0,0,0,0,0,0,0,0,0,31,9,28,0,0,0,0,0,0,0,0,
0,0,0,0,0,30,175,191,192,177,28,0,0,0,0,0,0,0,0,0,0,0,0,0,0,0,0,0,0,0,31,32,0,10,50,50,50,50,11,0,
0,0,10,50,50,51,196,212,213,219,28,0,0,0,0,0,0,0,0,10,50,50,50,50,50,50,50,11,0,0,0,0,10,51,44,45,44,45,49,11,
10,50,51,45,44,45,196,191,192,198,49,50,11,0,0,0,0,0,10,51,44,45,44,45,44,45,44,49,50,11,0,10,51,44,45,44,45,44,45,49,
51,66,65,66,65,66,217,220,213,200,65,66,28,0,0,0,0,10,51,66,175,176,176,176,177,66,65,44,65,49,50,51,66,65,66,65,66,65,66,65,
44,45,44,44,44,45,44,217,212,213,198,45,49,11,0,10,50,51,44,175,199,192,191,192,200,177,44,45,44,45,44,44,44,45,45,44,45,44,45,44,
65,66,65,66,65,66,44,66,220,192,200,176,177,49,50,51,65,66,175,199,192,213,212,213,213,200,176,176,176,176,177,65,65,66,66,65,66,65,66,65,
8,8,8,9,44,44,45,44,217,220,213,192,200,177,45,44,45,175,199,192,221,218,218,218,220,213,192,191,192,191,200,177,45,44,45,44,44,45,45,44,
0,0,0,31,9,65,66,65,66,217,220,213,192,200,177,175,176,199,191,221,219,66,65,66,217,220,213,212,213,212,213,200,177,65,66,65,65,66,66,65,
0,0,0,10,51,7,8,8,9,44,217,218,220,212,200,199,192,221,218,219,44,45,44,45,44,217,218,218,218,218,220,213,200,44,45,44,45,44,45,44,
0,0,0,30,44,28,10,11,30,65,66,65,217,220,213,212,221,219,66,65,65,66,65,66,65,44,45,66,65,66,217,212,213,177,66,65,66,65,66,65,
0,0,0,31,8,32,31,32,31,9,44,45,44,217,218,218,219,45,44,45,44,45,44,45,44,65,66,45,175,176,199,191,221,219,45,44,45,44,45,44,
0,0,0,0,0,0,0,0,0,30,65,66,65,66,65,66,65,66,65,66,65,66,44,45,65,66,65,66,217,218,220,191,200,176,177,44,45,44,45,44,
0,0,0,0,0,0,0,0,0,31,9,44,45,44,45,44,45,44,45,44,44,45,65,66,44,45,44,45,44,45,217,220,213,212,198,65,66,65,66,65,
0,0,0,0,0,0,0,0,0,0,31,9,44,45,44,65,66,45,44,45,65,66,65,66,65,66,65,66,65,66,65,196,192,221,219,44,45,44,45,44,
0,0,0,0,0,0,0,0,0,0,0,30,65,66,65,66,65,44,45,66,44,45,44,45,44,45,44,44,45,45,44,217,218,219,44,44,45,44,45,44,
0,0,0,0,0,10,50,11,0,0,0,30,44,45,44,45,44,65,66,45,65,66,65,66,65,66,65,65,66,66,65,44,45,44,45,65,66,65,66,65,
0,0,0,0,10,51,44,28,0,0,0,31,9,44,45,44,45,44,45,44,44,45,44,45,44,45,44,45,44,45,44,45,44,45,44,45,44,45,44,45,
0,0,0,0,30,44,44,49,11,0,0,0,30,65,66,65,66,65,66,65,65,66,65,66,65,66,65,66,65,66,65,66,65,66,65,66,65,66,65,66
</data>
 </layer>
 <layer id="8" name="grounddetails" width="40" height="140">
  <data encoding="csv">
0,0,0,0,0,0,0,0,0,0,0,0,0,0,0,0,0,0,0,0,0,0,0,0,0,0,0,0,0,0,0,0,0,0,0,0,0,0,0,0,
0,0,0,0,0,0,0,0,0,0,0,0,0,0,0,0,0,0,0,0,0,0,0,0,0,0,0,0,0,0,0,0,0,0,0,0,0,0,0,0,
0,0,0,0,0,0,0,0,0,0,0,0,0,0,0,0,0,0,0,0,0,0,0,0,0,0,0,0,0,0,0,0,0,0,0,0,0,0,0,0,
0,0,0,0,0,0,0,0,0,0,0,0,0,0,0,0,0,0,0,0,0,0,0,0,0,0,0,0,0,0,0,0,0,0,0,0,0,0,0,0,
0,0,0,0,0,0,0,0,0,0,0,0,0,0,0,0,0,0,0,0,0,0,0,0,0,0,0,0,0,0,0,0,0,0,0,0,0,0,0,0,
0,0,0,0,0,0,0,0,0,0,0,0,0,0,0,0,0,0,0,0,0,0,0,0,0,0,0,0,0,0,0,0,0,0,0,0,0,0,0,0,
0,0,0,0,0,0,0,0,0,0,0,0,0,0,0,0,0,0,0,0,0,0,0,0,0,0,0,0,0,0,0,0,0,0,0,0,0,0,0,0,
0,0,0,0,0,0,0,0,0,0,0,0,0,0,0,0,0,0,0,0,0,0,0,0,0,0,0,0,0,0,0,0,0,0,0,0,0,0,0,0,
0,0,0,0,0,0,0,0,0,0,0,0,0,0,0,0,0,0,0,0,0,0,0,0,0,0,0,0,0,0,0,0,0,0,0,0,0,0,0,0,
0,0,0,0,0,0,0,0,0,0,0,0,0,0,0,0,0,0,0,0,0,0,0,0,0,0,0,0,0,0,0,0,0,0,0,0,0,0,0,0,
0,0,0,0,0,0,0,0,0,0,0,0,0,0,0,0,0,0,0,0,0,0,0,0,0,0,0,0,0,0,0,0,0,0,0,0,0,0,0,0,
0,0,0,0,0,0,0,0,0,0,0,0,0,0,0,0,0,0,0,0,0,0,0,0,0,0,0,0,0,0,0,0,0,0,0,0,0,0,0,0,
0,0,0,0,0,0,0,0,0,0,0,0,0,0,0,0,0,0,0,0,0,0,0,0,0,0,0,0,0,0,0,0,0,0,0,0,0,0,0,0,
0,0,0,0,0,0,0,0,0,0,0,0,0,0,0,0,0,0,0,0,0,0,0,0,0,0,0,0,0,0,0,0,0,0,0,0,0,0,0,0,
0,0,0,0,0,0,0,0,0,0,0,0,0,0,0,0,0,0,0,0,0,0,0,0,0,0,0,0,0,0,0,0,0,0,0,0,0,0,0,0,
0,0,0,0,0,0,0,0,0,0,0,0,0,0,0,0,0,0,0,0,0,0,0,0,0,0,0,0,0,0,0,0,0,0,0,0,0,0,0,0,
0,0,0,0,0,0,0,0,0,0,0,0,0,0,0,0,0,0,0,0,0,0,0,0,0,0,0,0,0,0,0,0,0,0,0,0,0,0,0,0,
0,0,0,0,0,0,0,0,0,0,0,0,0,0,0,0,0,0,0,0,0,0,0,0,0,0,0,0,0,0,0,0,0,0,0,0,0,0,0,0,
0,0,0,0,0,0,0,0,0,0,0,0,0,0,0,0,0,0,0,0,0,0,0,0,0,0,0,0,0,0,0,0,0,0,0,0,0,0,0,0,
0,0,0,0,0,0,0,0,0,0,0,0,0,0,0,0,0,0,0,0,0,0,0,0,0,0,0,0,0,0,0,0,0,0,0,0,0,0,0,0,
0,0,0,0,0,0,0,0,0,0,0,0,0,0,0,0,0,0,0,0,0,0,0,0,0,0,0,0,0,0,0,0,0,0,0,0,0,0,0,0,
0,0,0,0,0,0,0,0,0,0,0,0,0,0,0,0,0,0,0,0,0,0,0,0,0,0,0,0,0,0,0,0,0,0,0,0,0,0,0,0,
0,0,0,0,0,0,0,0,0,0,0,0,0,0,0,0,0,0,0,0,0,0,0,0,0,0,0,0,0,0,0,0,0,0,0,0,0,0,0,0,
0,0,0,0,0,0,0,0,0,0,0,0,0,0,0,0,0,0,0,0,0,0,0,0,0,0,0,0,0,0,0,0,0,0,0,0,0,0,0,0,
0,0,0,0,0,0,0,0,0,0,0,0,0,0,0,0,0,0,0,0,0,0,0,0,0,0,0,0,0,0,0,0,0,0,0,0,0,0,0,0,
0,0,0,0,0,0,0,0,0,0,0,0,0,0,0,0,0,0,0,0,0,0,0,0,0,0,0,0,0,0,0,0,0,0,0,0,0,0,0,0,
0,0,0,0,0,0,0,0,0,0,0,0,0,0,0,0,0,0,0,0,0,0,0,0,0,0,0,0,0,0,0,0,0,0,0,0,0,0,0,0,
0,0,0,0,0,0,0,0,0,0,0,0,0,0,0,0,0,0,0,0,0,0,0,0,0,0,0,0,0,0,0,0,0,0,0,0,0,0,0,0,
0,0,0,0,0,0,0,0,0,0,0,0,0,0,0,0,0,0,0,0,0,0,0,0,0,0,0,0,0,0,0,0,0,0,0,0,0,0,0,0,
0,0,0,0,0,0,0,0,0,0,0,0,0,0,0,0,0,0,0,0,0,0,0,0,0,0,0,0,0,0,0,0,0,0,0,0,0,0,0,0,
0,0,0,0,0,0,0,0,0,0,0,0,0,0,0,0,0,0,0,0,0,0,0,0,0,0,0,0,0,0,0,0,0,0,0,0,0,0,0,0,
0,0,0,0,0,0,0,0,0,0,0,0,0,0,0,0,0,0,0,0,0,0,0,0,0,0,0,0,0,0,0,0,0,0,0,0,0,0,0,0,
0,0,0,0,0,0,0,0,0,0,0,0,0,0,0,0,0,0,0,0,0,0,0,0,0,0,0,0,0,0,0,0,0,0,0,0,0,0,0,0,
0,0,0,0,0,0,0,0,0,0,0,0,0,0,0,0,0,0,0,0,0,0,0,0,0,0,0,0,0,0,0,0,0,0,0,0,0,0,0,0,
0,0,0,0,0,0,0,0,0,0,0,0,0,0,0,0,0,0,0,0,0,0,0,0,0,0,0,0,0,0,0,0,0,0,0,0,0,0,0,0,
0,0,0,0,0,0,0,0,0,0,0,0,0,0,0,0,0,0,0,0,0,0,0,0,0,0,0,0,0,0,0,0,0,0,0,0,0,0,0,0,
0,0,0,0,0,0,0,0,0,0,0,0,0,0,0,0,0,0,0,0,0,0,0,0,0,0,0,0,0,0,0,0,0,0,0,0,0,0,0,0,
0,0,0,0,0,0,0,0,0,0,0,0,0,0,0,0,0,0,1024,1025,0,0,0,0,0,0,0,0,0,0,0,0,0,0,0,0,0,0,0,0,
0,0,0,0,0,0,0,0,0,0,0,0,0,0,0,0,920,0,1034,1035,0,0,0,0,0,0,0,0,0,0,0,0,0,0,0,0,0,0,0,0,
0,0,0,0,0,0,0,0,0,0,0,1062,1063,920,0,0,0,0,0,0,0,0,0,0,0,0,0,0,0,0,0,0,0,0,0,0,0,0,0,0,
0,0,0,0,0,0,0,0,0,0,0,1062,1063,1062,1063,0,0,0,0,0,0,0,0,0,0,0,0,0,0,0,0,0,0,0,0,0,0,1026,1027,1028,
0,0,0,0,0,0,0,0,0,0,1062,1063,0,0,0,0,0,0,0,1024,1025,0,0,0,0,920,1040,1041,1033,1034,0,0,0,0,0,1026,1027,1036,1037,1038,
0,0,0,0,0,0,0,0,921,0,1062,1063,0,0,0,0,0,0,0,1034,1035,1024,1025,1024,1040,1041,1050,1051,1043,1044,0,0,0,0,920,1036,1037,1046,1047,1048,
0,0,0,1019,1020,0,1019,1062,1063,0,0,0,1024,1025,0,0,0,0,0,0,0,1034,1035,1034,1050,1051,921,1033,1034,1034,0,0,0,1021,1026,1046,1047,1048,921,0,
0,0,0,1029,1030,1019,1029,1030,0,0,1040,1041,1034,1035,0,0,0,0,0,0,0,0,0,0,0,0,0,1043,1044,1044,0,1033,1034,1021,1036,1037,1038,1040,1041,0,
0,0,0,0,920,1062,1063,0,0,0,1050,1051,921,0,0,0,0,0,0,0,0,0,0,0,0,0,1040,1041,1033,1034,0,1043,1044,1031,1046,1047,1048,1050,1051,0,
1022,0,0,1021,1022,0,0,0,0,1040,1041,0,0,0,0,0,0,0,0,0,0,0,0,0,0,0,1050,1051,1043,1044,1033,1034,0,0,0,920,0,1040,1041,920,
1032,1021,1022,1031,1032,0,0,0,0,1050,1051,0,0,0,0,0,0,0,0,0,0,0,0,0,0,0,0,0,0,0,1043,1044,0,921,1033,1034,0,1050,1051,0,
1032,1021,1022,1021,1022,0,0,0,1040,1041,0,0,0,0,0,0,0,0,0,0,0,0,0,0,0,0,0,0,0,0,0,0,0,0,1043,1044,0,1040,1041,0,
1032,1031,1032,1031,1032,0,0,0,1050,1051,0,0,0,0,0,0,0,0,0,0,0,0,0,0,0,0,0,0,0,0,0,1033,1034,0,0,0,0,1050,1040,1041,
1032,0,920,1031,1032,0,0,0,0,0,1023,0,0,0,0,0,0,0,0,0,0,0,0,0,0,0,0,0,0,0,920,1043,1044,0,0,0,0,0,1050,1051,
0,0,0,1045,1046,0,0,0,0,1019,1020,0,0,0,0,0,0,0,0,0,0,0,0,0,0,0,1019,1020,1021,0,0,0,0,0,0,0,0,0,0,0,
0,0,0,921,0,0,0,0,0,0,1043,1023,0,0,0,0,1019,1020,1021,0,0,0,0,0,0,0,1029,1030,1031,1020,1021,0,0,0,0,0,0,0,0,0,
0,0,1035,1036,0,0,0,0,0,0,1043,1033,920,1023,0,1023,1029,1030,1031,1023,0,0,0,0,920,0,1039,1040,1041,1030,1031,920,0,0,0,0,0,0,0,0,
0,0,1045,1046,920,0,0,0,0,0,0,1043,0,1033,1023,1033,1039,1040,1041,1033,0,0,0,0,0,1025,1026,0,1039,1040,1041,1021,1022,1026,1027,0,0,0,0,0,
0,0,0,0,0,0,0,1025,1026,0,0,0,0,1043,1033,1043,0,0,921,1043,0,0,0,0,0,0,0,0,0,0,1030,1031,1032,1020,1021,1022,921,0,0,0,
0,0,0,0,0,0,0,0,0,0,0,0,0,0,1043,0,0,0,0,0,0,0,0,0,0,0,0,0,0,0,0,0,0,1030,1031,1032,1026,1027,0,0,
0,0,0,0,0,0,0,0,0,1025,1026,0,0,0,0,1040,1041,0,0,0,0,1020,1021,0,921,1025,1026,0,0,0,0,0,0,0,1034,1035,1036,1037,0,0,
0,0,0,0,0,0,0,0,0,0,0,0,0,1040,1041,0,1025,1026,0,1040,1041,0,0,0,0,0,0,0,0,920,1033,1033,0,0,1044,1045,1046,1047,0,0,
0,0,0,1021,1064,1065,0,0,0,0,0,921,0,0,0,0,0,0,0,0,0,0,0,0,0,0,0,0,0,0,1043,1043,0,0,0,0,1034,1035,0,0,
1021,0,0,0,921,1064,1065,0,0,0,0,0,0,0,1036,0,0,0,0,0,0,0,0,0,0,0,0,0,0,0,1065,1066,1065,1066,0,0,1044,1045,0,0,
0,0,0,0,920,920,1021,0,0,0,0,0,0,921,1046,0,1041,0,0,0,0,0,0,0,0,0,0,0,0,0,0,0,0,1065,1066,0,921,0,0,0,
1021,1021,920,0,921,1066,0,0,0,0,0,0,1036,1041,0,1019,0,0,0,1036,1036,0,0,0,0,0,0,0,0,0,0,0,0,0,1065,1066,0,1024,1025,0,
1021,921,0,0,0,0,0,0,0,0,0,1063,1046,0,0,1029,0,0,1019,1046,1046,920,0,0,0,0,0,0,0,0,0,0,0,0,0,0,0,1034,1035,0,
0,0,0,0,0,0,0,0,1020,1021,0,0,0,0,0,0,0,0,1029,1065,1066,0,0,0,0,0,0,0,0,0,0,0,0,0,1065,1066,0,1044,1045,0,
0,0,0,0,0,0,0,1063,1041,0,0,0,0,0,0,0,0,0,0,0,1065,1066,0,0,0,0,0,0,0,0,0,0,0,0,920,0,921,1033,920,0,
0,1031,1032,1033,1034,1031,1032,0,0,0,0,0,0,0,0,0,0,0,0,0,1065,1066,0,0,0,0,0,0,0,0,0,0,1065,1066,0,0,1019,1043,0,0,
1039,1041,1042,1043,1044,1041,1042,0,0,0,0,0,0,0,0,0,0,0,0,0,0,1019,0,921,0,0,0,0,0,0,0,0,0,0,0,0,1033,0,0,0,
1039,1051,1052,1053,1054,1051,1052,1053,1054,0,0,0,0,0,0,0,0,0,0,0,0,1029,1041,1065,1066,0,1061,1065,1065,1065,1066,0,0,0,0,0,1043,1033,1033,1033,
0,1061,1062,1063,1064,1061,1062,1063,1064,0,0,0,0,0,0,0,0,0,0,0,0,0,0,1061,1062,1041,0,0,0,0,0,0,0,0,0,1019,1043,1033,1043,1033,
0,0,0,0,0,0,0,0,0,0,0,0,0,1061,1062,1063,1061,1062,0,0,0,0,0,0,0,0,0,0,0,0,0,0,0,0,0,1029,0,1043,1033,1033,
0,0,0,0,0,0,0,0,0,0,0,0,0,0,0,0,0,0,0,0,0,0,0,0,0,0,0,0,1020,1021,0,0,0,0,0,0,0,1033,1033,1043,
0,0,0,0,0,0,0,0,0,0,0,0,0,0,0,0,0,0,0,0,0,0,0,0,0,0,1020,1021,0,1045,0,1035,0,1033,0,0,0,1033,1043,920,
0,0,0,0,0,0,0,0,0,0,0,1055,1056,921,1021,1022,1030,1031,0,0,0,1019,1020,1061,1062,921,1041,0,0,0,0,1045,920,1019,1020,0,0,1033,1033,1033,
0,0,0,1021,1022,0,0,0,0,1055,1055,1055,1056,921,1031,1032,1040,1041,0,0,0,1029,1030,1029,1030,0,0,0,0,0,0,1045,921,1029,1030,0,0,1043,1043,1043,
0,0,0,1021,1022,0,0,0,0,1055,1021,1022,1066,0,1055,1056,0,0,0,0,0,0,0,0,0,0,0,0,920,1021,0,0,0,1029,1030,0,0,0,0,0,
0,920,1019,1020,1019,1020,0,0,0,1065,1031,1032,0,0,1065,1066,920,0,0,0,0,0,0,0,0,1025,1026,0,0,0,0,0,0,0,0,0,0,0,0,0,
1056,1019,1039,1040,1029,1030,0,0,0,0,0,0,0,0,0,0,0,0,0,0,0,0,0,0,0,1035,1036,0,0,0,0,0,0,0,0,0,0,1033,0,0,
1056,1029,1030,1068,1068,921,0,0,0,0,0,0,0,0,0,0,0,0,0,0,0,0,0,0,0,0,0,0,0,0,0,0,0,0,0,0,0,1043,1033,0,
1066,1067,1068,0,0,0,0,0,0,1030,1031,1030,1031,0,0,0,0,1030,1031,1061,1062,0,0,0,0,0,0,0,0,0,0,1025,1026,0,0,0,0,1043,1043,0,
0,0,0,0,0,0,0,0,0,1040,1041,1040,1041,921,0,0,0,1040,1041,0,0,0,0,1020,1021,921,0,0,0,1049,1050,1035,1036,0,920,0,0,0,0,0,
0,0,0,0,0,0,0,0,0,0,0,0,0,0,0,920,0,0,0,0,0,0,0,1030,1054,1055,1056,0,1049,1050,1053,0,0,921,1049,1049,1050,0,0,0,
0,0,0,0,0,0,0,0,0,0,0,1022,1023,1023,0,0,0,0,0,0,0,0,0,920,1064,1065,1066,0,1019,0,0,0,0,1049,1049,1050,0,0,0,0,
1043,1044,0,0,0,1026,1025,0,0,0,0,1032,1033,1033,0,0,0,0,0,0,0,1061,1062,0,0,0,0,0,1029,0,0,0,0,0,0,0,0,0,0,0,
1053,1054,0,0,0,1019,1020,1022,0,0,0,0,1019,1020,0,0,0,0,0,0,1061,1061,1062,0,0,0,0,1049,1049,1049,1050,0,0,0,0,0,0,0,0,0,
1063,1064,0,0,0,1029,1030,1032,0,0,0,0,1029,1030,0,0,0,0,0,0,1061,1062,0,0,0,0,0,1049,1049,1050,1050,0,0,0,0,0,0,0,0,0,
0,921,1042,1043,1044,0,0,0,0,0,0,0,0,0,1026,0,0,0,0,0,0,0,0,0,0,0,0,1049,1050,0,0,0,0,0,0,0,0,0,0,0,
1043,1044,1052,1053,1054,0,0,0,0,0,0,0,0,0,1065,1066,0,0,1054,1055,0,0,0,0,0,0,0,0,0,0,0,0,0,0,920,1049,1050,921,0,0,
1053,1054,1062,1063,1064,0,0,0,0,920,0,0,0,0,0,0,1050,1051,0,0,0,0,0,0,0,0,0,0,1044,1045,0,0,0,1049,1050,1049,1050,0,0,0,
1063,1064,920,0,0,0,0,0,0,0,1042,1043,1044,0,0,0,1060,1061,0,0,0,0,0,0,0,0,1044,1045,1054,1055,0,1023,1024,0,0,0,0,0,0,0,
1042,1043,1044,0,0,0,1042,1043,1044,0,1052,1053,1054,0,0,0,0,0,0,0,0,0,0,0,0,0,1054,1055,0,0,0,1033,1034,1023,1024,0,0,0,0,0,
1052,1053,1054,0,0,0,1052,1053,1054,921,1062,1063,1064,0,0,0,0,0,0,0,0,0,0,0,0,0,0,0,0,0,0,1043,1044,1033,1034,1035,1036,1037,0,0,
1062,1063,1064,1042,1043,1044,1062,1063,1064,0,0,0,920,0,0,0,0,0,0,0,0,0,0,0,0,0,0,0,0,0,0,0,0,1043,1044,1045,1046,1047,0,0,
0,921,0,1052,1053,1054,1020,1021,1022,1023,1024,1025,1026,1027,1028,0,0,0,0,0,0,0,0,0,0,920,0,1025,1026,1027,1028,0,0,0,0,1055,1056,1057,0,0,
1019,1020,1021,1062,1063,1064,1030,1031,1032,1033,1034,1035,1036,1037,1038,0,0,0,0,0,0,0,0,0,1033,1034,1035,1035,1036,1037,1038,0,0,0,0,1065,1066,1067,0,0,
1029,1030,1031,0,0,1039,1040,1041,1042,1043,1044,1045,1046,1047,1048,0,0,0,0,0,0,0,0,0,1043,1044,1045,1046,920,0,920,920,0,0,0,0,0,1035,1036,1037,
1039,1040,1041,920,0,1049,1050,1051,1052,1053,1054,1055,1056,1057,1058,0,0,0,0,0,0,0,0,0,1053,1054,1055,1056,0,0,0,0,0,0,0,0,0,1045,1046,1047,
0,0,0,0,0,1059,1060,1061,1062,1063,1064,1065,1066,1067,1068,0,0,1025,1026,1026,1026,0,0,0,1051,1052,920,0,0,0,0,0,0,0,0,0,0,1055,1056,1057,
0,0,0,0,0,0,0,0,0,1052,1053,1054,1055,0,0,0,0,1036,1037,1038,1037,1038,0,0,1061,1051,1052,0,0,0,0,0,0,0,0,0,0,1065,1066,1067,
0,0,0,0,0,0,0,0,0,1062,1063,1064,1065,0,0,0,0,1046,1047,1048,1047,1048,0,0,0,1061,1062,0,0,0,0,0,0,0,0,0,0,0,0,0,
0,0,0,0,0,0,0,0,0,1019,1020,1021,0,0,0,0,0,1046,1047,1048,1040,920,0,0,0,1052,1053,1054,920,0,0,0,0,0,0,0,0,0,0,0,
0,0,0,0,0,0,0,0,0,1029,1019,1020,1021,0,0,0,0,0,1059,1060,1050,1053,1054,1052,1052,1062,1063,1064,0,0,921,1033,1033,1033,1033,1034,1035,0,0,0,
0,0,0,0,0,0,0,0,0,1039,1029,1030,1031,0,0,0,0,0,1059,1060,1060,1063,1064,1062,1062,1063,1064,0,0,0,0,1043,1043,1043,1030,1031,1030,1031,0,0,
1032,1033,0,0,1019,1020,1021,0,0,0,1039,1040,1041,0,0,0,0,0,0,0,0,921,1062,1062,1063,1064,0,0,0,0,0,1043,1044,1045,1040,1041,1040,1041,0,921,
1042,1043,0,0,1029,1030,1031,1032,0,0,0,0,0,0,0,0,0,0,0,0,0,0,1062,1063,1064,0,0,0,0,0,0,0,0,921,1050,1051,1050,1051,0,0,
0,0,920,0,1039,1040,1041,1042,1043,0,0,0,0,0,0,0,1032,1033,0,0,0,0,1062,1063,1064,0,0,0,0,0,0,0,1030,1031,0,0,0,0,0,0,
0,0,0,0,1049,1050,1051,1052,1053,1054,1055,1056,0,1058,0,0,1042,1043,1033,0,0,0,1052,1053,1054,0,0,0,0,0,0,0,1030,1031,0,0,0,0,0,0,
0,0,0,0,1059,1060,1061,1062,1050,1051,1050,1051,1067,1068,593,594,595,1042,1043,0,1052,1053,1054,1063,1064,0,0,0,1052,1053,1054,1026,1040,1041,0,0,0,0,0,0,
0,0,0,0,0,0,0,0,1060,1061,1060,1061,0,0,608,609,610,0,0,0,1062,1063,1064,1043,0,0,0,0,1062,1063,1064,1036,1050,1051,0,0,0,0,0,0,
0,0,0,0,0,0,0,0,921,0,0,0,0,0,623,624,625,0,0,0,0,0,0,0,0,0,0,0,0,0,0,0,0,0,0,0,0,0,0,0,
0,0,0,0,0,0,0,0,0,0,0,0,0,0,0,0,0,0,0,0,0,0,0,0,0,0,0,0,0,0,0,0,0,0,0,0,0,0,0,0,
0,0,0,0,0,0,0,0,0,1020,1021,1022,0,0,0,0,0,0,0,0,0,0,0,0,0,0,0,0,0,0,0,0,0,0,0,0,0,0,0,0,
0,0,0,0,0,0,0,1020,1021,1030,1031,1032,0,0,0,0,0,0,0,0,0,0,0,0,0,0,0,0,0,0,0,0,0,0,0,0,0,0,0,0,
0,0,0,0,0,0,921,1030,1031,1032,0,0,0,0,0,0,0,0,0,0,0,0,0,0,0,0,0,0,1039,1040,1041,0,0,0,0,0,0,0,0,0,
0,0,0,1020,1021,1022,0,0,0,0,0,0,0,0,0,0,0,0,0,921,0,0,0,0,0,0,0,0,1049,1050,1051,0,0,0,0,0,0,0,0,0,
0,0,0,1030,1031,1032,0,191,192,0,1032,1033,1032,1033,0,0,0,1022,1023,1022,1023,0,0,0,0,0,0,0,1059,1060,1061,0,0,1039,1040,1041,0,0,0,0,
0,0,0,0,1023,1024,193,212,213,195,1042,1043,1036,1043,1036,0,0,1032,0,0,1033,0,0,0,0,0,0,0,0,1020,1021,1022,0,1049,1050,1051,0,0,0,0,
0,0,0,0,1033,1034,214,0,0,216,0,0,1046,0,1046,0,0,0,0,0,0,0,0,1039,1040,1041,1020,1021,1022,1030,1031,1032,0,1059,1060,1061,921,0,0,0,
0,0,0,0,0,0,214,0,0,216,10,11,0,0,0,921,0,0,0,0,0,0,0,1049,1050,1051,1030,1031,1032,1039,1040,1041,0,0,0,0,0,0,0,0,
1023,1024,0,0,0,0,214,0,0,216,31,32,0,0,0,0,0,0,0,0,0,0,0,1059,1060,1061,0,0,0,1049,1050,1051,0,0,0,0,0,10,11,0,
1033,1034,0,0,0,0,214,0,0,216,0,0,0,0,0,0,0,0,0,0,0,0,0,0,0,0,0,0,0,1059,1060,1061,0,0,0,0,0,31,32,0,
0,0,0,0,0,0,214,0,0,216,0,0,0,0,0,0,0,0,0,0,0,0,0,0,0,0,0,0,0,0,0,921,0,0,0,0,0,0,0,0,
0,0,0,0,0,0,235,0,0,237,921,0,0,0,0,0,0,0,0,0,0,0,0,0,0,0,0,10,11,0,0,0,0,0,0,0,0,0,0,10,
10,11,0,0,0,0,0,0,0,1023,1024,0,0,0,10,11,0,0,0,0,0,0,0,0,0,0,0,31,32,0,10,11,0,0,0,0,0,0,0,31,
31,32,0,0,0,0,0,0,0,1033,1034,0,0,0,31,32,0,0,0,0,1020,1021,1022,921,0,0,0,0,0,0,31,32,0,1039,1040,0,1055,1056,1057,0,
0,0,0,0,0,0,0,0,0,0,1023,1024,0,0,0,0,0,0,0,0,1030,1031,1032,0,0,0,0,0,1023,1024,0,0,0,1049,1050,0,1065,1066,1067,0,
1022,1023,1024,1025,1026,1027,1028,0,0,0,1033,1034,0,0,0,0,0,0,0,0,0,0,0,0,0,0,0,0,1033,1034,1039,1040,0,0,0,0,0,0,921,0,
1032,1033,1034,1035,1036,1037,1038,0,0,0,0,0,0,0,0,0,0,0,0,0,0,0,0,0,0,0,0,0,0,0,1049,1050,0,0,0,0,1055,1056,1057,0,
0,0,0,1045,1046,1047,1048,0,0,0,0,0,0,0,1023,1024,0,0,0,0,0,0,0,0,0,0,0,0,0,0,0,0,0,1019,1020,1021,1065,1066,1067,1025,
0,0,0,0,1056,1057,1058,0,0,0,0,0,0,0,1033,1034,0,0,0,0,0,0,0,0,0,0,0,0,0,0,0,0,0,1029,1030,1031,1032,1033,1034,1035,
0,0,0,0,0,1067,1068,0,0,0,0,0,0,0,0,0,0,0,0,0,0,0,0,0,0,0,0,0,0,0,0,0,0,1039,1040,1041,1042,1043,1044,1045,
0,0,0,0,921,0,0,0,0,0,0,0,0,0,0,0,0,1020,1021,1022,0,0,0,0,0,0,0,0,0,0,0,0,0,1049,1050,1051,1052,1053,1054,1055,
0,0,0,0,0,0,0,0,0,0,0,0,0,0,0,0,0,1030,1031,1032,0,0,0,0,0,0,0,0,0,0,0,0,0,1059,1060,1061,1062,1063,1064,1065,
0,0,0,0,0,0,0,0,0,0,0,0,0,0,0,0,0,0,0,0,0,0,0,0,0,0,0,0,0,0,0,0,0,0,0,0,0,1019,1020,1021,
0,0,0,0,0,0,0,0,0,0,0,0,1019,1020,1021,1022,1023,1024,1025,1026,1027,1028,0,920,0,1055,1055,1056,1057,0,0,0,0,0,0,0,0,1029,1030,1031,
0,0,0,0,0,0,0,0,0,0,0,0,1029,1030,1031,1032,1033,1034,1035,1036,1055,1056,1057,0,1055,1056,1057,1066,1067,0,0,0,0,0,0,0,0,1039,1040,1041,
0,0,0,0,0,0,0,0,0,0,0,0,1039,1040,1041,1042,1043,1044,1045,1046,1065,1066,1067,1020,1055,1056,1057,1067,1025,1026,1027,1028,0,0,1019,1020,1021,1049,1050,1051,
0,10,11,0,0,0,0,0,0,0,0,0,1049,1050,1051,1052,1053,1054,1055,1056,1057,1058,1029,1030,1065,1066,1067,1034,1035,1036,1037,1038,0,0,1029,1030,1031,1059,1060,1061,
0,31,32,0,0,0,0,0,0,0,0,0,1059,1060,1061,1062,1063,1064,1065,1066,1067,1068,1039,1040,1041,1042,1043,1044,1045,1046,1047,1048,0,921,1039,1040,1041,1042,1043,1044,
0,0,0,0,0,0,0,0,0,0,10,11,0,0,0,0,0,0,0,0,1055,1056,1057,1050,1051,1052,1053,1054,1055,1056,1057,1055,1056,1057,1049,1050,1051,1052,1053,1054
</data>
 </layer>
 <layer id="3" name="hills" width="40" height="140">
  <data encoding="csv">
0,0,0,0,0,0,0,0,0,0,0,0,0,0,0,0,0,0,0,0,0,0,0,0,0,0,0,0,0,0,0,0,0,0,0,0,0,0,0,0,
0,0,0,0,0,0,0,0,0,0,0,0,0,0,0,0,0,0,0,0,0,0,0,0,0,0,0,0,0,0,0,0,0,0,0,0,0,0,0,0,
0,0,0,0,0,0,0,0,0,0,0,0,0,0,0,0,0,0,0,0,0,0,0,0,0,0,0,0,0,0,0,0,0,0,0,0,0,0,0,0,
0,0,0,0,0,0,0,0,0,0,0,0,0,0,0,0,0,0,0,0,0,0,0,0,0,0,0,0,0,0,0,0,0,0,0,0,0,0,0,0,
0,0,0,0,0,0,0,0,0,0,0,0,0,0,0,0,0,0,0,0,0,0,0,0,0,0,0,0,0,0,0,0,0,0,0,0,0,0,0,0,
0,0,0,0,0,0,0,0,0,0,0,0,0,0,0,0,0,0,0,0,0,0,0,0,0,0,0,0,0,0,0,0,0,0,0,0,0,0,0,0,
0,0,0,0,0,0,0,0,0,0,0,0,0,0,0,0,0,0,0,0,0,0,0,0,0,0,0,0,0,0,0,0,0,0,0,0,0,0,0,0,
0,0,0,0,0,0,0,0,0,0,0,0,0,0,0,0,0,0,0,0,0,0,0,0,0,0,0,0,0,0,0,0,0,0,0,0,0,0,0,0,
0,0,0,0,0,0,0,0,0,0,0,0,0,0,0,0,0,0,0,0,0,0,0,0,0,0,0,0,0,0,0,0,0,0,0,0,0,0,0,0,
0,0,0,0,0,0,0,0,0,0,0,0,0,0,0,0,0,0,0,0,0,0,0,0,0,0,0,0,0,0,0,0,0,0,0,0,0,0,0,0,
0,0,0,0,0,0,0,0,0,0,0,0,0,0,0,0,0,0,0,0,0,0,0,0,0,0,0,0,0,0,0,0,0,0,0,0,0,0,0,0,
0,0,0,0,0,0,0,0,0,0,0,0,0,0,0,0,0,0,0,0,0,0,0,0,0,0,0,0,0,0,0,0,0,0,0,0,0,0,0,0,
0,0,0,0,0,0,0,0,0,0,0,0,0,0,0,0,0,0,0,0,0,0,0,0,0,0,0,0,0,0,0,0,0,0,0,0,0,0,0,0,
0,0,0,0,0,0,0,0,0,0,0,0,0,0,0,0,0,0,0,0,0,0,0,0,0,0,0,0,0,0,0,0,0,0,0,0,0,0,0,0,
0,0,0,0,0,0,0,0,0,0,0,0,0,0,0,0,0,0,0,0,0,0,0,0,0,0,0,0,0,0,0,0,0,0,0,0,0,0,0,0,
0,0,0,0,0,0,0,0,0,0,0,0,0,0,0,0,0,0,0,0,0,0,0,0,0,0,0,0,0,0,0,0,0,0,0,0,0,0,0,0,
0,0,0,0,0,0,0,0,0,0,0,0,0,0,0,0,0,0,0,0,0,0,0,0,0,0,0,0,0,0,0,0,0,0,0,0,0,0,0,0,
0,0,0,0,0,0,0,0,0,0,0,0,0,0,0,0,0,0,0,0,0,0,0,0,0,0,0,0,0,0,0,0,0,0,0,0,0,0,0,0,
0,0,0,0,0,0,0,0,0,0,0,0,0,0,0,0,0,0,0,0,0,0,0,0,0,0,0,0,0,0,0,0,0,0,0,0,0,0,0,0,
0,0,0,0,0,0,0,0,0,0,0,0,0,0,0,0,0,0,0,0,0,0,0,0,0,0,0,0,0,0,0,0,0,0,0,0,0,0,0,0,
0,0,0,0,0,0,0,0,0,0,0,0,0,0,0,0,0,0,0,0,0,0,0,0,0,0,0,0,0,0,0,0,0,0,0,0,0,0,0,0,
0,0,0,0,0,0,0,0,0,0,0,0,0,0,0,0,0,0,0,0,0,0,0,0,0,0,0,0,0,0,0,0,0,0,0,0,0,0,0,0,
0,0,0,0,0,0,0,0,0,0,0,0,0,0,0,0,0,0,0,0,0,0,0,0,0,0,0,0,0,0,0,0,0,0,0,0,0,0,0,0,
0,0,0,0,0,0,0,0,0,0,0,0,0,0,0,0,0,0,0,0,0,0,0,0,0,0,0,0,0,0,0,0,0,0,0,0,0,0,0,0,
0,0,0,0,0,0,0,0,0,0,0,0,0,0,0,0,0,0,0,0,0,0,0,0,0,0,0,0,0,0,0,0,0,0,0,0,0,0,0,0,
0,0,0,0,0,0,0,0,0,0,0,0,0,0,0,0,0,0,0,0,0,0,0,0,0,0,0,0,0,0,0,0,0,0,0,0,0,0,0,0,
0,0,0,0,0,0,0,0,0,0,0,0,0,0,0,0,0,0,0,0,0,0,0,0,0,0,0,0,0,0,0,0,0,0,0,0,0,0,0,0,
0,0,0,0,0,0,0,0,0,0,0,0,0,0,0,0,0,0,0,0,0,0,0,0,0,0,0,0,0,0,0,0,0,0,0,0,0,0,0,0,
0,0,0,0,0,0,0,0,0,0,0,0,0,0,0,0,0,0,0,0,0,0,0,0,0,0,0,0,0,0,0,0,0,0,0,0,0,0,0,0,
0,0,0,0,0,0,0,0,0,0,0,0,0,0,0,0,0,0,0,0,0,0,0,0,0,0,0,0,0,0,0,0,0,0,0,0,0,0,0,0,
0,0,0,0,0,0,0,0,0,0,0,0,0,0,0,0,0,0,0,0,0,0,0,0,0,0,0,0,0,0,0,0,0,0,0,0,0,0,0,0,
0,0,0,0,0,0,0,0,0,0,0,0,0,0,0,0,0,0,0,0,0,0,0,0,0,0,0,0,0,0,0,0,0,0,0,0,0,0,0,0,
0,0,0,0,0,0,0,0,0,0,0,0,0,0,0,0,0,0,0,0,0,0,0,0,0,0,0,0,0,0,0,0,0,0,0,0,0,0,0,0,
0,0,0,0,0,0,0,0,0,0,0,0,0,0,0,0,0,0,0,0,0,0,0,0,0,0,0,0,0,0,0,0,0,0,0,0,0,0,0,0,
0,0,0,0,0,0,0,0,0,0,0,0,0,0,0,0,0,0,0,0,0,0,0,0,0,0,0,0,0,0,0,0,0,0,0,0,0,0,0,0,
0,0,0,0,0,0,0,0,0,0,0,0,0,0,585,586,587,0,0,593,594,595,0,0,0,0,0,0,0,0,0,0,0,0,0,0,0,0,0,0,
0,0,0,0,0,0,0,0,0,0,0,0,0,656,600,601,602,645,656,608,609,610,653,0,0,0,0,0,0,0,0,0,0,0,0,0,0,0,0,0,
0,0,0,0,0,0,0,0,0,0,0,0,656,671,615,616,617,660,671,623,624,625,668,645,646,647,545,0,0,0,0,0,0,0,0,0,0,0,0,0,
0,0,0,0,0,0,0,0,0,0,0,656,671,0,0,0,0,675,604,0,0,0,614,660,661,662,560,585,586,587,585,586,587,585,586,587,0,0,0,0,
0,0,0,0,0,0,0,0,586,587,0,671,0,0,0,0,0,0,0,0,0,0,0,675,676,677,560,600,601,602,600,601,602,600,601,602,545,586,587,0,
0,0,0,0,0,0,0,546,601,602,0,0,0,0,0,0,0,0,0,0,0,0,0,0,0,0,575,615,616,617,615,616,617,615,616,617,560,601,602,545,
0,0,0,0,586,587,588,561,616,617,618,0,0,0,0,0,0,0,0,0,0,0,0,0,0,0,0,0,0,0,0,0,0,0,0,0,575,616,617,560,
0,0,0,546,601,602,603,576,0,0,0,0,0,0,0,0,0,0,0,0,0,0,0,0,0,0,0,0,0,0,0,0,0,0,0,0,0,0,0,575,
586,587,588,561,616,617,618,0,0,0,0,0,0,0,0,0,0,0,0,0,0,0,0,0,0,0,0,0,0,0,0,0,0,0,0,0,0,0,524,525,
601,602,603,576,0,0,0,0,0,0,0,0,0,0,0,0,0,0,0,0,0,0,0,0,0,0,0,0,0,0,0,0,0,0,0,0,0,0,539,540,
616,617,618,0,0,0,0,0,0,0,0,0,0,0,0,0,0,0,0,0,0,0,0,0,0,0,0,0,0,0,0,0,0,0,0,0,0,0,554,555,
528,529,0,0,0,0,0,0,0,0,0,0,0,0,0,0,0,0,0,0,0,0,0,0,0,0,0,0,0,0,0,0,0,0,0,0,0,0,569,570,
543,544,0,0,0,0,0,0,0,0,0,0,0,0,0,0,0,0,0,0,0,0,0,0,0,0,0,0,0,0,0,0,0,0,0,0,0,0,584,585,
558,559,0,0,0,0,0,0,0,0,0,0,0,0,0,0,0,0,0,0,0,0,0,0,0,0,0,0,0,0,0,0,0,0,0,0,0,0,599,600,
573,574,0,0,0,0,0,0,0,0,0,0,0,0,0,0,0,0,0,0,0,0,0,0,0,0,0,0,0,0,0,0,0,0,0,0,0,0,614,615,
588,589,0,0,0,0,0,0,0,0,0,0,0,0,0,0,0,0,0,0,0,0,0,0,0,0,0,0,0,0,0,0,0,0,0,0,0,0,0,0,
603,604,0,0,0,0,0,0,0,0,0,0,0,0,0,0,0,0,0,0,0,0,0,0,0,0,0,0,0,0,0,0,0,0,0,0,0,0,0,0,
618,619,0,0,0,0,0,0,0,0,0,0,0,0,0,0,0,0,0,0,0,0,0,0,0,0,0,0,0,0,0,0,0,0,0,0,0,0,0,0,
0,0,0,0,0,0,0,0,0,0,0,0,0,0,0,0,0,0,0,0,0,0,0,0,0,0,0,0,0,0,0,0,0,0,0,0,0,0,0,0,
0,0,0,0,0,0,0,0,0,0,0,0,0,0,0,0,0,0,0,0,0,0,0,0,0,0,0,0,0,0,0,0,0,0,0,0,0,0,0,0,
0,0,0,0,0,0,0,0,0,0,0,0,0,0,0,0,0,0,0,0,0,0,0,0,0,0,0,0,0,0,0,0,0,0,0,0,0,0,0,0,
0,0,0,0,0,0,0,0,0,0,0,0,0,0,0,0,0,0,0,0,0,0,0,0,0,0,0,0,0,0,0,0,0,0,0,0,0,0,0,0,
0,0,0,0,0,0,0,0,0,0,0,0,0,0,0,0,0,0,0,0,0,0,0,0,0,0,0,0,0,0,0,0,0,0,0,0,0,0,0,0,
0,0,0,0,0,0,0,0,0,0,0,0,0,0,0,0,0,0,0,0,0,0,0,0,0,0,0,0,0,0,0,0,0,0,0,0,0,0,0,0,
0,0,0,0,0,0,0,0,0,0,0,0,0,0,0,0,0,0,0,0,0,0,0,0,0,0,0,0,0,0,0,0,0,0,0,0,0,0,0,0,
0,0,0,0,0,0,0,0,0,0,0,0,0,0,0,0,0,0,0,0,0,0,0,0,0,0,0,0,0,0,0,0,0,0,0,0,0,0,0,0,
0,0,0,0,0,0,0,0,0,0,0,0,0,0,0,0,0,0,0,0,0,0,0,0,0,0,0,0,0,0,0,0,0,0,0,0,0,0,0,0,
0,0,0,0,0,0,0,0,0,0,0,0,0,0,0,0,0,0,0,0,0,0,0,0,0,0,0,0,0,0,0,0,0,0,0,0,0,0,0,0,
0,0,0,0,0,0,0,0,0,0,0,0,0,0,0,0,0,0,0,0,0,0,0,0,0,0,0,0,0,0,0,0,0,0,0,0,0,0,0,0,
0,0,0,0,0,0,0,0,0,0,0,0,0,0,0,0,0,0,0,0,0,0,0,0,0,0,0,0,0,0,0,0,0,0,0,0,0,0,0,0,
0,0,0,0,0,0,0,0,0,0,0,0,0,0,0,0,0,0,0,0,0,0,0,0,0,0,0,0,0,0,0,0,0,0,0,0,0,0,0,0,
0,0,0,0,0,0,0,0,0,0,0,0,0,0,0,0,0,0,0,0,0,0,0,0,0,0,0,0,0,0,0,0,0,0,0,0,0,0,0,0,
0,0,0,0,0,0,0,0,0,0,0,0,0,0,0,0,0,0,0,0,0,0,0,0,0,0,0,0,0,0,0,0,0,0,0,0,524,525,526,527,
0,0,0,0,0,0,0,0,0,0,0,0,0,0,0,0,0,0,0,0,0,0,0,0,0,0,0,0,0,0,0,0,0,0,0,0,539,540,541,542,
586,649,650,651,586,587,593,594,595,586,587,587,0,0,0,0,0,0,0,0,0,0,0,0,0,0,0,0,0,0,0,0,0,0,0,0,554,555,0,0,
601,664,665,666,601,602,608,609,610,601,602,602,545,0,0,0,0,0,0,0,0,0,0,0,0,0,0,0,0,0,0,0,0,0,0,524,569,570,0,0,
616,679,680,681,616,617,623,624,625,616,617,617,560,545,586,587,586,587,0,0,0,0,0,0,0,0,0,0,0,0,0,0,0,0,0,539,540,0,0,0,
0,0,0,0,0,0,0,0,524,525,526,526,575,560,601,602,601,602,591,0,0,0,0,0,0,0,0,0,586,587,0,0,0,0,0,554,555,0,0,0,
0,0,0,0,0,0,0,0,539,540,541,541,541,575,616,617,616,617,606,0,0,0,0,0,0,0,0,590,601,602,645,0,0,0,0,569,0,0,0,0,
0,0,0,0,0,0,0,0,554,555,0,0,0,0,0,0,0,558,584,0,0,0,586,587,649,650,651,605,616,617,660,0,0,0,0,584,585,586,587,588,
0,0,0,0,0,0,0,0,569,570,0,0,0,0,0,0,0,573,599,0,0,0,601,602,664,665,666,576,0,0,675,0,0,0,0,599,600,601,602,603,
0,0,0,0,0,0,0,0,584,0,0,0,0,585,586,587,0,0,620,544,0,0,616,617,679,680,681,0,0,0,0,0,0,0,0,614,615,616,617,618,
0,0,0,0,0,0,0,0,599,653,0,0,656,600,601,602,591,0,0,620,527,528,0,0,0,0,0,0,0,0,0,0,0,0,0,0,0,0,0,0,
0,0,0,0,0,0,0,0,614,668,669,670,671,615,616,617,606,0,0,0,558,559,0,0,0,0,0,0,0,0,524,525,526,527,528,529,0,0,0,0,
0,0,0,0,0,0,0,0,0,0,684,685,0,0,0,0,569,570,0,0,573,574,0,0,0,0,0,0,0,0,539,540,541,542,543,544,0,591,586,587,
0,0,0,0,0,0,0,0,0,0,0,0,0,0,0,0,584,585,586,587,588,589,0,0,0,0,0,0,0,0,584,585,0,0,0,620,526,606,601,602,
0,0,0,0,0,0,0,0,0,0,0,0,0,585,586,0,599,600,601,602,603,604,0,0,0,0,0,0,0,0,599,600,591,0,0,0,541,542,616,617,
0,0,0,0,0,0,0,0,0,0,0,0,558,600,0,0,614,615,616,617,618,0,0,0,0,0,0,0,0,0,614,615,606,0,0,0,0,0,0,541,
0,0,0,0,0,0,0,0,0,0,0,0,573,615,0,584,585,0,0,0,0,0,0,0,0,0,0,525,526,527,526,527,621,0,0,0,0,0,0,0,
0,0,0,0,0,0,0,0,0,0,0,0,0,620,544,599,600,601,602,591,0,0,0,0,0,0,539,540,541,542,541,542,0,0,0,0,0,0,0,0,
0,0,0,0,0,0,0,0,0,0,0,0,0,0,620,614,615,616,617,606,0,0,0,0,0,0,554,555,0,0,0,0,0,0,0,0,0,0,0,0,
0,0,0,0,0,0,0,0,0,0,0,0,0,0,0,574,0,0,539,621,0,0,0,0,0,0,584,585,586,587,586,587,0,0,0,0,0,0,0,0,
0,0,0,0,0,0,0,0,0,0,0,0,0,0,0,620,527,527,621,0,0,0,0,0,0,0,599,600,601,602,601,602,591,0,0,0,0,0,0,0,
0,0,0,0,0,0,0,0,0,0,0,0,0,0,0,0,0,542,0,0,0,0,0,0,0,0,614,615,616,617,616,617,606,585,586,585,586,585,586,587,
0,0,0,0,0,0,0,0,0,0,0,0,0,0,0,0,0,0,0,0,0,0,0,0,0,0,0,0,0,0,0,0,599,600,601,600,601,600,601,602,
0,0,0,0,0,0,0,0,0,0,0,0,0,0,0,0,0,0,0,0,0,0,0,0,0,0,0,0,0,0,0,0,614,615,616,615,616,615,616,617,
0,0,0,0,0,0,0,0,0,0,0,0,0,0,0,0,0,0,0,0,0,0,0,0,0,0,0,0,0,0,0,0,0,0,0,0,0,0,0,0,
0,0,0,0,0,0,0,0,0,0,0,0,0,0,0,0,0,0,0,0,0,0,0,0,0,0,0,0,0,0,0,0,0,0,0,0,0,0,0,0,
0,0,0,0,0,0,0,0,0,0,0,0,0,0,0,0,0,0,0,0,0,0,0,0,0,0,0,0,0,0,0,0,0,0,0,0,0,0,0,0,
0,0,0,0,0,0,0,0,0,0,0,0,0,0,0,0,0,0,0,0,0,0,0,0,0,0,0,0,0,0,0,0,0,0,0,0,0,0,0,0,
0,0,0,0,0,0,0,0,0,0,0,0,0,0,0,0,0,0,0,0,0,0,0,0,0,0,0,0,0,0,0,0,0,0,0,0,0,0,0,0,
0,0,0,0,0,0,0,0,0,0,0,0,0,0,0,0,0,0,0,0,0,0,0,0,0,0,0,0,0,0,0,0,0,0,0,0,0,0,0,0,
0,0,0,0,0,0,0,0,0,0,0,0,0,0,0,0,0,0,0,0,0,0,0,0,0,0,0,0,0,0,0,0,0,0,0,0,0,0,0,0,
0,0,0,0,0,0,0,0,0,0,0,0,0,0,0,0,0,0,0,0,0,0,0,0,0,0,0,0,0,0,0,0,0,0,0,0,0,0,0,0,
0,0,0,0,0,0,0,0,0,0,0,0,0,0,0,0,0,0,0,0,0,0,0,0,0,0,0,0,0,0,0,0,0,0,0,0,0,0,0,0,
0,0,0,0,0,0,0,0,0,0,0,0,0,0,0,0,0,0,0,0,0,0,0,0,0,0,0,0,0,0,0,0,0,0,0,0,0,0,0,0,
0,0,0,0,0,0,0,0,0,0,0,0,0,0,0,0,0,0,0,0,0,0,0,0,0,0,0,0,0,0,0,0,0,0,0,0,0,0,0,0,
0,0,0,0,0,0,0,0,0,0,0,0,0,0,0,0,0,0,0,0,0,0,0,0,0,0,656,591,0,0,651,0,0,0,0,0,0,0,0,0,
0,0,0,0,0,0,0,0,0,0,0,0,0,0,0,0,0,0,0,0,0,0,0,0,0,656,671,560,661,662,666,645,0,0,0,0,0,0,0,0,
0,0,0,0,0,0,0,0,0,0,0,0,0,0,0,0,0,0,0,0,0,0,0,0,0,605,0,575,676,677,681,660,591,0,0,706,707,0,0,0,
0,0,0,0,0,0,0,0,0,0,0,0,0,0,0,0,0,0,0,0,0,0,0,0,0,543,527,527,527,528,0,675,606,0,588,707,0,0,0,0,
0,0,0,0,0,0,0,0,0,0,0,0,0,0,0,0,0,0,0,0,0,0,0,0,0,0,0,0,0,543,527,527,621,573,603,0,0,0,0,0,
0,707,656,591,0,0,0,0,0,0,0,0,0,0,0,0,0,0,0,0,0,0,0,0,0,0,0,0,0,0,0,0,0,573,618,0,0,0,0,0,
0,605,671,606,559,0,0,0,0,0,0,0,0,546,0,0,0,645,646,647,651,0,0,0,0,0,0,0,590,574,706,645,646,588,589,0,0,0,0,0,
0,620,527,621,574,0,0,645,0,647,651,651,656,561,0,0,0,660,661,662,666,653,649,650,651,585,0,587,605,589,0,660,661,662,604,0,0,0,0,0,
649,650,651,588,589,0,0,660,661,662,666,666,671,576,0,0,0,675,676,677,681,668,664,665,666,600,601,602,603,604,0,675,676,677,0,0,0,0,0,0,
664,665,666,603,604,0,0,675,676,677,681,681,0,0,0,0,0,0,0,0,0,675,679,680,681,615,616,617,618,0,0,0,0,0,0,0,0,0,0,0,
679,680,681,618,619,0,0,0,0,0,0,0,0,0,0,0,0,0,0,0,0,0,0,0,0,0,0,0,0,0,0,0,0,0,0,0,0,0,0,0,
0,0,0,0,0,0,0,0,0,0,0,0,0,0,0,0,0,0,0,0,0,0,0,0,0,0,0,0,0,0,0,0,0,0,0,0,0,0,0,0,
0,0,0,0,0,0,0,0,0,0,0,0,0,0,0,0,0,0,0,0,0,0,0,0,0,0,0,0,0,0,0,0,0,0,0,0,0,0,0,0,
0,0,0,0,0,0,0,0,0,0,0,0,0,0,0,0,0,0,0,0,0,0,0,0,0,0,0,0,0,0,0,0,0,0,0,0,0,0,0,0,
0,0,0,0,0,0,0,0,0,0,0,0,0,0,0,0,0,0,0,0,0,0,0,0,0,0,0,0,0,0,0,0,0,0,0,0,0,0,0,0,
0,0,0,0,0,0,0,0,0,0,0,0,0,0,0,0,0,0,0,0,0,0,0,0,0,0,0,0,0,0,0,0,0,0,0,0,0,0,0,0,
0,0,0,0,0,0,0,0,0,0,0,0,0,0,0,0,0,0,0,0,0,0,0,0,0,0,0,0,0,0,0,0,0,0,0,0,0,0,0,0,
0,0,0,0,0,0,0,0,0,0,0,0,0,0,0,0,0,0,0,0,0,0,0,0,0,0,0,0,0,0,0,0,0,0,0,0,0,0,0,0,
0,0,0,0,0,0,0,0,0,0,0,0,0,0,0,0,0,0,0,0,0,0,0,0,0,0,0,0,0,0,0,0,0,0,0,0,0,0,0,0,
0,0,0,0,0,0,0,0,0,0,0,0,0,0,0,0,0,0,0,0,0,0,0,0,0,0,0,0,0,0,0,0,0,0,0,0,0,0,0,0,
0,0,0,0,0,0,0,0,0,0,0,0,0,0,0,0,0,0,0,0,0,0,0,0,0,0,0,0,0,0,0,0,0,0,0,0,0,0,0,0,
0,0,0,0,0,0,0,0,0,0,0,0,0,0,0,0,0,0,0,0,0,0,0,0,0,0,0,0,0,0,0,0,0,0,0,0,0,0,0,0,
0,0,0,0,0,0,0,0,0,0,0,0,0,0,0,0,0,0,0,0,0,0,0,0,0,0,0,0,0,0,0,0,0,0,0,0,0,0,0,0,
0,0,0,0,0,0,0,0,0,0,0,0,0,0,0,0,0,0,0,0,0,0,0,0,0,0,0,0,0,0,0,0,0,0,0,0,0,0,0,0,
0,0,0,0,0,0,0,0,0,0,0,0,0,0,0,0,0,0,0,0,0,0,0,0,0,0,0,0,0,0,0,0,0,0,0,0,0,0,0,0,
0,0,0,0,0,0,0,0,0,0,0,0,0,0,0,0,0,0,0,0,0,0,0,0,0,0,0,0,0,0,0,0,0,0,0,0,0,0,0,0,
0,0,0,0,0,0,0,0,0,0,0,0,0,0,0,0,0,0,0,0,0,0,0,0,0,0,0,0,0,0,0,0,0,0,0,0,0,0,0,0,
0,0,0,0,0,0,0,0,0,0,0,0,0,0,0,0,0,0,0,0,0,0,0,0,0,0,0,0,0,0,0,0,0,0,0,0,0,0,0,0,
0,0,0,0,0,0,0,0,0,0,0,0,0,0,0,0,0,0,0,0,0,0,0,0,0,0,0,0,0,0,0,0,0,0,0,0,0,0,0,0,
0,0,0,0,0,0,0,0,0,0,0,0,0,0,0,0,0,0,0,0,0,0,0,0,0,0,0,0,0,0,0,0,0,0,0,0,0,0,0,0,
0,0,0,0,0,0,0,0,0,0,0,0,0,0,0,0,0,0,0,0,0,0,0,0,0,0,0,0,0,0,0,0,0,0,0,0,0,0,0,0,
0,0,0,0,0,0,0,0,0,0,0,0,0,0,0,0,0,0,0,0,0,0,0,0,0,0,0,0,0,0,0,0,0,0,0,0,0,0,0,0,
0,0,0,0,0,0,0,0,0,0,0,0,0,0,0,0,0,0,0,0,0,0,0,0,0,0,0,0,0,0,0,0,0,0,0,0,0,0,0,0,
0,0,0,0,0,0,0,0,0,0,0,0,0,0,0,0,0,0,0,0,0,0,0,0,0,0,0,0,0,0,0,0,0,0,0,0,0,0,0,0,
0,0,0,0,0,0,0,0,0,0,0,0,0,0,0,0,0,0,0,0,0,0,0,0,0,0,0,0,0,0,0,0,0,0,0,0,0,0,0,0,
0,0,0,0,0,0,0,0,0,0,0,0,0,0,0,0,0,0,0,0,0,0,0,0,0,0,0,0,0,0,0,0,0,0,0,0,0,0,0,0,
0,0,0,0,0,0,0,0,0,0,0,0,0,0,0,0,0,0,0,0,0,0,0,0,0,0,0,0,0,0,0,0,0,0,0,0,0,0,0,0,
0,0,0,0,0,0,0,0,0,0,0,0,0,0,0,0,0,0,0,0,0,0,0,0,0,0,0,0,0,0,0,0,0,0,0,0,0,0,0,0
</data>
 </layer>
 <layer id="13" name="overlaphills" width="40" height="140">
  <data encoding="csv">
0,0,0,0,0,0,0,0,0,0,0,0,0,0,0,0,0,0,0,0,0,0,0,0,0,0,0,0,0,0,0,0,0,0,0,0,0,0,0,0,
0,0,0,0,0,0,0,0,0,0,0,0,0,0,0,0,0,0,0,0,0,0,0,0,0,0,0,0,0,0,0,0,0,0,0,0,0,0,0,0,
0,0,0,0,0,0,0,0,0,0,0,0,0,0,0,0,0,0,0,0,0,0,0,0,0,0,0,0,0,0,0,0,0,0,0,0,0,0,0,0,
0,0,0,0,0,0,0,0,0,0,0,0,0,0,0,0,0,0,0,0,0,0,0,0,0,0,0,0,0,0,0,0,0,0,0,0,0,0,0,0,
0,0,0,0,0,0,0,0,0,0,0,0,0,0,0,0,0,0,0,0,0,0,0,0,0,0,0,0,0,0,0,0,0,0,0,0,0,0,0,0,
0,0,0,0,0,0,0,0,0,0,0,0,0,0,0,0,0,0,0,0,0,0,0,0,0,0,0,0,0,0,0,0,0,0,0,0,0,0,0,0,
0,0,0,0,0,0,0,0,0,0,0,0,0,0,0,0,0,0,0,0,0,0,0,0,0,0,0,0,0,0,0,0,0,0,0,0,0,0,0,0,
0,0,0,0,0,0,0,0,0,0,0,0,0,0,0,0,0,0,0,0,0,0,0,0,0,0,0,0,0,0,0,0,0,0,0,0,0,0,0,0,
0,0,0,0,0,0,0,0,0,0,0,0,0,0,0,0,0,0,0,0,0,0,0,0,0,0,0,0,0,0,0,0,0,0,0,0,0,0,0,0,
0,0,0,0,0,0,0,0,0,0,0,0,0,0,0,0,0,0,0,0,0,0,0,0,0,0,0,0,0,0,0,0,0,0,0,0,0,0,0,0,
0,0,0,0,0,0,0,0,0,0,0,0,0,0,0,0,0,0,0,0,0,0,0,0,0,0,0,0,0,0,0,0,0,0,0,0,0,0,0,0,
0,0,0,0,0,0,0,0,0,0,0,0,0,0,0,0,0,0,0,0,0,0,0,0,0,0,0,0,0,0,0,0,0,0,0,0,0,0,0,0,
0,0,0,0,0,0,0,0,0,0,0,0,0,0,0,0,0,0,0,0,0,0,0,0,0,0,0,0,0,0,0,0,0,0,0,0,0,0,0,0,
0,0,0,0,0,0,0,0,0,0,0,0,0,0,0,0,0,0,0,0,0,0,0,0,0,0,0,0,0,0,0,0,0,0,0,0,0,0,0,0,
0,0,0,0,0,0,0,0,0,0,0,0,0,0,0,0,0,0,0,0,0,0,0,0,0,0,0,0,0,0,0,0,0,0,0,0,0,0,0,0,
0,0,0,0,0,0,0,0,0,0,0,0,0,0,0,0,0,0,0,0,0,0,0,0,0,0,0,0,0,0,0,0,0,0,0,0,0,0,0,0,
0,0,0,0,0,0,0,0,0,0,0,0,0,0,0,0,0,0,0,0,0,0,0,0,0,0,0,0,0,0,0,0,0,0,0,0,0,0,0,0,
0,0,0,0,0,0,0,0,0,0,0,0,0,0,0,0,0,0,0,0,0,0,0,0,0,0,0,0,0,0,0,0,0,0,0,0,0,0,0,0,
0,0,0,0,0,0,0,0,0,0,0,0,0,0,0,0,0,0,0,0,0,0,0,0,0,0,0,0,0,0,0,0,0,0,0,0,0,0,0,0,
0,0,0,0,0,0,0,0,0,0,0,0,0,0,0,0,0,0,0,0,0,0,0,0,0,0,0,0,0,0,0,0,0,0,0,0,0,0,0,0,
0,0,0,0,0,0,0,0,0,0,0,0,0,0,0,0,0,0,0,0,0,0,0,0,0,0,0,0,0,0,0,0,0,0,0,0,0,0,0,0,
0,0,0,0,0,0,0,0,0,0,0,0,0,0,0,0,0,0,0,0,0,0,0,0,0,0,0,0,0,0,0,0,0,0,0,0,0,0,0,0,
0,0,0,0,0,0,0,0,0,0,0,0,0,0,0,0,0,0,0,0,0,0,0,0,0,0,0,0,0,0,0,0,0,0,0,0,0,0,0,0,
0,0,0,0,0,0,0,0,0,0,0,0,0,0,0,0,0,0,0,0,0,0,0,0,0,0,0,0,0,0,0,0,0,0,0,0,0,0,0,0,
0,0,0,0,0,0,0,0,0,0,0,0,0,0,0,0,0,0,0,0,0,0,0,0,0,0,0,0,0,0,0,0,0,0,0,0,0,0,0,0,
0,0,0,0,0,0,0,0,0,0,0,0,0,0,0,0,0,0,0,0,0,0,0,0,0,0,0,0,0,0,0,0,0,0,0,0,0,0,0,0,
0,0,0,0,0,0,0,0,0,0,0,0,0,0,0,0,0,0,0,0,0,0,0,0,0,0,0,0,0,0,0,0,0,0,0,0,0,0,0,0,
0,0,0,0,0,0,0,0,0,0,0,0,0,0,0,0,0,0,0,0,0,0,0,0,0,0,0,0,0,0,0,0,0,0,0,0,0,0,0,0,
0,0,0,0,0,0,0,0,0,0,0,0,0,0,0,0,0,0,0,0,0,0,0,0,0,0,0,0,0,0,0,0,0,0,0,0,0,0,0,0,
0,0,0,0,0,0,0,0,0,0,0,0,0,0,0,0,0,0,0,0,0,0,0,0,0,0,0,0,0,0,0,0,0,0,0,0,0,0,0,0,
0,0,0,0,0,0,0,0,0,0,0,0,0,0,0,0,0,0,0,0,0,0,0,0,0,0,0,0,0,0,0,0,0,0,0,0,0,0,0,0,
0,0,0,0,0,0,0,0,0,0,0,0,0,0,0,0,0,0,0,0,0,0,0,0,0,0,0,0,0,0,0,0,0,0,0,0,0,0,0,0,
0,0,0,0,0,0,0,0,0,0,0,0,0,0,0,0,0,0,0,0,0,0,0,0,0,0,0,0,0,0,0,0,0,0,0,0,0,0,0,0,
0,0,0,0,0,0,0,0,0,0,0,0,0,0,0,0,0,0,0,0,0,0,0,0,0,0,0,0,0,0,0,0,0,0,0,0,0,0,0,0,
0,0,0,0,0,0,0,0,0,0,0,0,0,0,0,0,0,0,0,0,0,0,0,0,0,0,0,0,0,0,0,0,0,0,0,0,0,0,0,0,
0,0,0,0,0,0,0,0,0,0,0,0,0,0,0,0,0,0,0,0,0,0,0,0,0,0,0,0,0,0,0,0,0,0,0,0,0,0,0,0,
0,0,0,0,0,0,0,0,0,0,0,0,0,0,0,0,0,0,0,0,0,0,0,0,0,0,0,0,0,0,0,0,0,0,0,0,0,0,0,0,
0,0,0,0,0,0,0,0,0,0,0,0,0,0,0,0,0,0,0,0,0,0,0,0,0,0,0,0,0,0,0,0,0,0,0,0,0,0,0,0,
0,0,0,0,0,0,0,0,0,0,0,0,0,0,0,0,0,0,0,0,0,0,0,0,0,0,0,0,0,0,0,0,0,0,0,0,0,0,0,0,
0,0,0,0,0,0,0,0,0,0,588,589,0,0,0,0,0,0,0,0,0,0,0,0,0,0,0,0,0,0,0,0,0,0,0,0,0,0,0,0,
0,0,0,0,0,0,0,0,0,0,603,604,0,0,0,0,0,0,0,0,0,0,0,0,0,0,0,0,0,0,0,0,0,0,0,0,0,0,0,0,
0,0,0,0,0,0,0,0,0,0,0,0,0,0,0,0,0,0,0,0,0,0,0,0,0,0,0,0,0,0,0,0,0,0,0,0,0,0,0,0,
0,0,0,0,0,0,0,0,0,0,0,0,0,0,0,0,0,0,0,0,0,0,0,0,0,0,0,0,0,0,0,0,0,0,0,0,0,0,0,0,
0,0,0,0,0,0,0,0,0,0,0,0,0,0,0,0,0,0,0,0,0,0,0,0,0,0,0,0,0,0,0,0,0,0,0,0,0,0,0,0,
0,0,0,0,0,0,0,0,0,0,0,0,0,0,0,0,0,0,0,0,0,0,0,0,0,0,0,0,0,0,0,0,0,0,0,0,0,0,0,0,
0,0,0,0,0,0,0,0,0,0,0,0,0,0,0,0,0,0,0,0,0,0,0,0,0,0,0,0,0,0,0,0,0,0,0,0,0,0,0,0,
0,0,0,0,0,0,0,0,0,0,0,0,0,0,0,0,0,0,0,0,0,0,0,0,0,0,0,0,0,0,0,0,0,0,0,0,0,0,0,0,
0,0,0,0,0,0,0,0,0,0,0,0,0,0,0,0,0,0,0,0,0,0,0,0,0,0,0,0,0,0,0,0,0,0,0,0,0,0,0,0,
0,0,0,0,0,0,0,0,0,0,0,0,0,0,0,0,0,0,0,0,0,0,0,0,0,0,0,0,0,0,0,0,0,0,0,0,0,0,0,0,
0,0,0,0,0,0,0,0,0,0,0,0,0,0,0,0,0,0,0,0,0,0,0,0,0,0,0,0,0,0,0,0,0,0,0,0,0,0,0,0,
0,0,0,0,0,0,0,0,0,0,0,0,0,0,0,0,0,0,0,0,0,0,0,0,0,0,0,0,0,0,0,0,0,0,0,0,0,0,0,0,
0,0,0,0,0,0,0,0,0,0,0,0,0,0,0,0,0,0,0,0,0,0,0,0,0,0,0,0,0,0,0,0,0,0,0,0,0,0,0,0,
0,0,0,0,0,0,0,0,0,0,0,0,0,0,0,0,0,0,0,0,0,0,0,0,0,0,0,0,0,0,0,0,0,0,0,0,0,0,0,0,
0,0,0,0,0,0,0,0,0,0,0,0,0,0,0,0,0,0,0,0,0,0,0,0,0,0,0,0,0,0,0,0,0,0,0,0,0,0,0,0,
0,0,0,0,0,0,0,0,0,0,0,0,0,0,0,0,0,0,0,0,0,0,0,0,0,0,0,0,0,0,0,0,0,0,0,0,0,0,0,0,
0,0,0,0,0,0,0,0,0,0,0,0,0,0,0,0,0,0,0,0,0,0,0,0,0,0,0,0,0,0,0,0,0,0,0,0,0,0,0,0,
0,0,0,0,0,0,0,0,0,0,0,0,0,0,0,0,0,0,0,0,0,0,0,0,0,0,0,0,0,0,0,0,0,0,0,0,0,0,0,0,
0,0,0,0,0,0,0,0,0,0,0,0,0,0,0,0,0,0,0,0,0,0,0,0,0,0,0,0,0,0,0,0,0,0,0,0,0,0,0,0,
0,0,0,0,0,0,0,0,0,0,0,0,0,0,0,0,0,0,0,0,0,0,0,0,0,0,0,0,0,0,0,0,0,0,0,0,0,0,0,0,
0,0,0,0,0,0,0,0,0,0,0,0,0,0,0,0,0,0,0,0,0,0,0,0,0,0,0,0,0,0,0,0,0,0,0,0,0,0,0,0,
0,0,0,0,0,0,0,0,0,0,0,0,0,0,0,0,0,0,0,0,0,0,0,0,0,0,0,0,0,0,0,0,0,0,0,0,0,0,0,0,
0,0,0,0,0,0,0,0,0,0,0,0,0,0,0,0,0,0,0,0,0,0,0,0,0,0,0,0,0,0,0,0,0,0,0,0,0,0,0,0,
0,0,0,0,0,0,0,0,0,0,0,0,0,0,0,0,0,0,0,0,0,0,0,0,0,0,0,0,0,0,0,0,0,0,0,0,0,0,0,0,
0,0,0,0,0,0,0,0,0,0,0,0,0,0,0,0,0,0,0,0,0,0,0,0,0,0,0,0,0,0,0,0,0,0,0,0,0,0,0,0,
0,0,0,0,0,0,0,0,0,0,0,0,0,0,0,0,0,0,0,0,0,0,0,0,0,0,0,0,0,0,0,0,0,0,0,0,0,0,0,0,
0,0,0,0,0,0,0,0,0,0,0,0,0,0,0,0,0,0,0,0,0,0,0,0,0,0,0,0,0,0,0,0,0,0,0,0,0,0,0,0,
0,0,0,0,0,0,0,0,0,0,0,0,0,0,0,0,0,0,0,0,0,0,0,0,0,0,0,0,0,0,0,0,0,0,0,0,0,0,0,0,
0,0,0,0,0,0,0,0,0,0,0,0,0,0,0,0,0,0,0,0,0,0,0,0,0,0,0,0,0,0,0,0,0,0,0,0,0,0,0,0,
0,0,0,0,0,0,0,0,0,0,0,0,0,0,0,0,0,0,0,0,0,0,0,0,0,0,0,0,0,0,0,0,0,0,0,0,0,0,0,0,
0,0,0,0,0,0,0,0,0,0,0,0,0,0,0,0,0,0,0,0,0,0,0,0,0,0,0,0,0,0,0,0,0,0,0,0,0,0,0,0,
0,0,0,0,0,0,0,0,0,0,0,0,0,0,0,0,0,0,0,0,0,0,0,0,0,0,0,0,0,0,0,0,0,0,0,0,0,0,0,0,
0,0,0,0,0,0,0,0,0,0,0,0,0,0,0,0,0,0,0,0,0,0,0,0,0,0,0,0,0,0,0,0,0,0,0,0,0,0,0,0,
0,0,0,0,0,0,0,0,0,0,0,526,526,526,526,526,527,528,529,0,0,0,0,0,0,0,0,0,0,0,0,0,0,0,0,0,0,0,0,0,
0,0,0,0,0,0,0,0,0,0,0,541,541,541,541,541,542,543,544,570,571,572,0,0,0,0,0,0,0,0,0,0,0,0,0,0,0,0,0,0,
0,0,0,0,0,0,0,0,0,0,0,0,0,0,0,0,0,558,559,585,586,587,0,0,0,0,0,0,0,0,569,570,571,572,0,0,0,0,0,0,
0,0,0,0,0,0,0,0,0,0,0,0,0,0,0,0,0,573,574,600,601,602,0,0,0,0,0,0,0,0,584,585,586,587,0,0,0,0,0,0,
0,0,0,0,0,0,0,0,0,0,0,0,0,0,0,0,0,0,614,615,616,617,0,0,0,0,0,0,0,0,599,600,601,602,545,0,0,0,0,0,
0,0,0,0,0,0,0,0,0,0,0,0,0,0,0,0,0,0,0,0,0,0,0,0,0,0,0,0,0,0,614,615,616,617,560,545,0,0,0,0,
0,0,0,0,0,0,0,0,0,0,0,0,0,0,0,0,0,0,0,0,0,0,0,0,0,0,0,0,0,0,0,0,0,0,575,560,545,0,0,0,
0,0,0,0,0,0,0,0,0,0,0,0,0,0,0,0,0,0,0,0,0,0,0,0,0,0,0,0,0,0,0,0,0,0,0,575,560,0,0,0,
0,0,0,0,0,0,0,0,0,0,0,0,0,0,0,0,0,0,0,0,0,0,0,0,0,0,0,0,0,0,0,0,0,0,0,0,575,527,528,529,
0,0,0,0,0,0,0,0,0,0,0,0,0,0,0,0,0,0,0,0,0,0,0,0,0,0,0,0,0,0,0,0,0,0,0,0,0,0,543,544,
0,0,0,0,0,0,0,0,0,0,0,0,0,559,602,653,0,0,0,0,0,0,0,0,0,0,0,0,0,0,0,0,0,0,0,0,0,0,0,620,
0,0,0,0,0,0,0,0,0,0,0,0,0,574,617,668,0,0,0,0,0,0,0,0,0,0,0,0,0,0,0,0,0,0,0,0,0,0,0,0,
0,0,0,0,0,0,0,0,0,0,0,0,0,0,0,0,0,0,0,0,0,0,0,0,0,0,0,0,0,0,0,0,0,0,0,0,0,0,0,0,
0,0,0,0,0,0,0,0,0,0,0,0,0,0,0,544,0,0,0,0,0,0,0,0,0,0,0,0,0,0,0,0,0,0,0,0,0,0,0,0,
0,0,0,0,0,0,0,0,0,0,0,0,0,0,0,0,0,0,0,0,0,0,0,0,0,0,0,0,0,0,0,0,0,0,0,0,0,0,0,0,
0,0,0,0,0,0,0,0,0,0,0,0,0,0,0,0,0,0,0,0,0,0,0,0,0,0,0,0,0,0,0,0,0,0,0,0,0,0,0,0,
0,0,0,0,0,0,0,0,0,0,0,0,0,0,0,0,0,0,0,0,0,0,0,0,0,0,0,0,0,0,0,0,0,0,0,0,0,0,0,0,
0,0,0,0,0,0,0,0,0,0,0,0,0,0,0,0,0,0,0,0,0,0,0,0,0,0,0,0,0,0,0,0,0,0,0,0,0,0,0,0,
0,0,0,0,0,0,0,0,0,0,0,0,0,0,0,0,0,0,0,0,0,0,0,0,0,0,0,0,0,0,0,0,0,0,0,0,0,0,0,0,
0,0,0,0,0,0,0,0,0,0,0,0,0,0,0,0,0,0,0,0,0,0,0,0,0,0,0,0,0,0,0,0,0,0,0,0,0,0,0,0,
0,0,0,0,0,0,0,0,0,0,0,0,0,0,0,0,0,0,0,0,0,0,0,0,0,0,0,0,0,0,0,0,0,0,0,0,0,0,0,0,
0,0,0,0,0,0,0,0,0,0,0,0,0,0,0,0,0,0,0,0,0,0,0,0,0,0,0,0,0,0,0,0,0,0,0,0,0,0,0,0,
0,0,0,0,0,0,0,0,0,0,0,0,0,0,0,0,0,0,0,0,0,0,0,0,0,0,0,0,0,0,0,0,0,0,0,0,0,0,0,0,
0,0,0,0,0,0,0,0,0,0,0,0,0,0,0,0,0,0,0,0,0,0,0,0,0,0,0,0,0,0,0,0,0,0,0,0,0,0,0,0,
0,0,0,0,0,0,0,0,0,0,0,0,0,0,0,0,0,0,0,0,0,0,0,0,0,0,0,0,0,0,0,0,0,0,0,0,0,0,0,0,
0,0,0,0,0,0,0,0,0,0,0,0,0,0,0,0,0,0,0,0,0,0,0,0,0,0,0,0,0,0,0,0,0,0,0,0,0,0,0,0,
0,0,0,0,0,0,0,0,0,0,0,0,0,0,0,0,0,0,0,0,0,0,0,0,0,0,0,0,0,0,0,0,0,0,0,0,0,0,0,0,
0,0,0,0,0,0,0,0,0,0,0,0,0,0,0,0,0,0,0,0,0,0,0,0,0,0,0,0,0,0,0,0,0,0,0,0,0,0,0,0,
0,0,0,0,0,0,0,0,0,0,0,0,0,0,0,0,0,0,0,0,0,0,0,0,0,0,0,0,0,0,0,0,0,0,0,0,0,0,0,0,
0,0,0,0,0,0,0,0,0,0,0,0,0,0,0,0,0,0,0,0,0,0,0,0,0,0,0,0,0,0,0,0,0,0,0,0,0,0,0,0,
0,0,0,0,0,0,0,0,0,0,0,0,0,0,0,0,0,0,0,0,0,0,0,0,0,0,0,0,0,0,0,0,0,0,0,0,0,0,0,0,
0,0,0,0,0,0,0,0,0,0,0,0,0,0,0,0,0,0,0,0,0,0,0,0,0,0,0,0,0,0,0,0,0,0,0,0,0,0,0,0,
0,0,0,0,0,0,0,0,0,0,0,0,0,0,0,0,0,0,0,0,0,0,0,0,0,0,0,0,0,0,0,0,0,0,0,585,586,587,585,586,
0,0,0,0,0,0,0,0,0,0,0,0,0,0,0,0,0,0,0,0,0,0,0,0,0,0,0,0,0,0,0,0,0,0,0,600,601,602,600,601,
0,0,0,0,0,0,0,0,0,0,0,0,0,0,0,0,0,0,0,0,0,0,0,0,0,0,0,0,0,0,0,0,0,0,0,615,616,617,615,616,
0,0,0,0,0,0,0,0,0,0,0,0,0,0,0,0,0,0,0,0,0,0,0,0,0,0,0,0,0,0,0,0,0,0,574,0,0,0,0,0,
0,0,0,0,706,646,647,0,0,0,0,0,0,0,0,0,0,0,0,0,0,0,0,0,0,0,0,0,0,545,546,0,0,0,589,0,0,0,0,0,
0,0,0,0,656,661,662,0,0,0,0,0,0,0,0,0,0,0,0,0,0,0,0,0,0,0,0,0,0,560,561,0,0,0,0,0,0,0,0,0,
0,0,0,0,675,676,677,0,0,0,0,0,0,0,0,0,0,0,0,0,0,0,0,0,0,0,0,0,0,575,576,0,0,0,0,0,0,0,0,0,
0,0,0,0,0,0,0,0,0,0,0,0,0,0,0,0,0,0,0,0,0,0,0,0,0,0,0,0,0,0,0,0,0,0,0,0,0,0,0,0,
0,0,0,0,0,0,0,0,0,0,0,0,0,0,0,0,0,0,0,0,0,0,0,0,0,0,0,0,0,0,0,0,0,0,0,0,0,0,0,0,
0,0,0,0,0,0,0,0,0,0,0,0,0,0,0,0,0,0,0,0,0,0,0,0,0,0,0,0,0,0,0,0,0,0,0,0,0,0,0,0,
0,0,0,0,0,0,0,0,0,0,0,0,0,0,0,0,0,0,0,0,0,0,0,0,0,0,0,0,0,0,0,0,0,0,0,0,0,0,0,0,
0,0,0,0,0,0,0,0,0,0,0,0,0,0,0,0,0,0,0,0,0,0,0,0,0,0,0,0,0,0,0,0,0,0,0,0,0,0,0,0,
0,0,0,0,0,0,0,0,0,0,0,0,0,0,0,0,0,0,0,0,0,0,0,0,0,0,0,0,0,0,0,0,0,0,0,0,0,0,0,0,
0,0,0,0,0,0,0,0,0,0,0,0,0,0,0,0,0,0,0,0,0,0,0,0,0,0,0,0,0,0,0,0,0,0,0,0,0,0,0,0,
0,0,0,0,0,0,0,0,0,0,0,0,0,0,0,0,0,0,0,0,0,0,0,0,0,0,0,0,0,0,0,0,0,0,0,0,0,0,0,0,
0,0,0,0,0,0,0,0,0,0,0,0,0,0,0,0,0,0,0,0,0,0,0,0,0,0,0,0,0,0,0,0,0,0,0,0,0,0,0,0,
0,0,0,0,0,0,0,0,0,0,0,0,0,0,0,0,0,0,0,0,0,0,0,0,0,0,0,0,0,0,0,0,0,0,0,0,0,0,0,0,
0,0,0,0,0,0,0,0,0,0,0,0,0,0,0,0,0,0,0,0,0,0,0,0,0,0,0,0,0,0,0,0,0,0,0,0,0,0,0,0,
0,0,0,0,0,0,0,0,0,0,0,0,0,0,0,0,0,0,0,0,0,0,0,0,0,0,0,0,0,0,0,0,0,0,0,0,0,0,0,0,
0,0,0,0,0,0,0,0,0,0,0,0,0,0,0,0,0,0,0,0,0,0,0,0,0,0,0,0,0,0,0,0,0,0,0,0,0,0,0,0,
0,0,0,0,0,0,0,0,0,0,0,0,0,0,0,0,0,0,0,0,0,0,0,0,0,0,0,0,0,0,0,0,0,0,0,0,0,0,0,0,
0,0,0,0,0,0,0,0,0,0,0,0,0,0,0,0,0,0,0,0,0,0,0,0,0,0,0,0,0,0,0,0,0,0,0,0,0,0,0,0,
0,0,0,0,0,0,0,0,0,0,0,0,0,0,0,0,0,0,0,0,0,0,0,0,0,0,0,0,0,0,0,0,0,0,0,0,0,0,0,0,
0,0,0,0,0,0,0,0,0,0,0,0,0,0,0,0,0,0,0,0,0,0,0,0,0,0,0,0,0,0,0,0,0,0,0,0,0,0,0,0,
0,0,0,0,0,0,0,0,0,0,0,0,0,0,0,0,0,0,0,0,0,0,0,0,0,0,0,0,0,0,0,0,0,0,0,0,0,0,0,0,
0,0,0,0,0,0,0,0,0,0,0,0,0,0,0,0,0,0,0,0,0,0,0,0,0,0,0,0,0,0,0,0,0,0,0,0,0,0,0,0,
0,0,0,0,0,0,0,0,0,0,0,0,0,0,0,0,0,0,0,0,0,0,0,0,0,0,0,0,0,0,0,0,0,0,0,0,0,0,0,0,
0,0,0,0,0,0,0,0,0,0,0,0,0,0,0,0,0,0,0,0,0,0,0,0,0,0,0,0,0,0,0,0,0,0,0,0,0,0,0,0,
0,0,0,0,0,0,0,0,0,0,0,0,0,0,0,0,0,0,0,0,0,0,0,0,0,0,0,0,0,0,0,0,0,0,0,0,0,0,0,0,
0,0,0,0,0,0,0,0,0,0,0,0,0,0,0,0,0,0,0,0,0,0,0,0,0,0,0,0,0,0,0,0,0,0,0,0,0,0,0,0,
0,0,0,0,0,0,0,0,0,0,0,0,0,0,0,0,0,0,0,0,0,0,0,0,0,0,0,0,0,0,0,0,0,0,0,0,0,0,0,0,
0,0,0,0,0,0,0,0,0,0,0,0,0,0,0,0,0,0,0,0,0,0,0,0,0,0,0,0,0,0,0,0,0,0,0,0,0,0,0,0,
0,0,0,0,0,0,0,0,0,0,0,0,0,0,0,0,0,0,0,0,0,0,0,0,0,0,0,0,0,0,0,0,0,0,0,0,0,0,0,0,
0,0,0,0,0,0,0,0,0,0,0,0,0,0,0,0,0,0,0,0,0,0,0,0,0,0,0,0,0,0,0,0,0,0,0,0,0,0,0,0,
0,0,0,0,0,0,0,0,0,0,0,0,0,0,0,0,0,0,0,0,0,0,0,0,0,0,0,0,0,0,0,0,0,0,0,0,0,0,0,0,
0,0,0,0,0,0,0,0,0,0,0,0,0,0,0,0,0,0,0,0,0,0,0,0,0,0,0,0,0,0,0,0,0,0,0,0,0,0,0,0
</data>
 </layer>
 <layer id="9" name="hilldetails" width="40" height="140">
  <data encoding="csv">
0,0,0,0,0,0,0,0,0,0,0,0,0,0,0,0,0,0,0,0,0,0,0,0,0,0,0,0,0,0,0,0,0,0,0,0,0,0,0,0,
0,0,0,0,0,0,0,0,0,0,0,0,0,0,0,0,0,0,0,0,0,0,0,0,0,0,0,0,0,0,0,0,0,0,0,0,0,0,0,0,
0,0,0,0,0,0,0,0,0,0,0,0,0,0,0,0,0,0,0,0,0,0,0,0,0,0,0,0,0,0,0,0,0,0,0,0,0,0,0,0,
0,0,0,0,0,0,0,0,0,0,0,0,0,0,0,0,0,0,0,0,0,0,0,0,0,0,0,0,0,0,0,0,0,0,0,0,0,0,0,0,
0,0,0,0,0,0,0,0,0,0,0,0,0,0,0,0,0,0,0,0,0,0,0,0,0,0,0,0,0,0,0,0,0,0,0,0,0,0,0,0,
0,0,0,0,0,0,0,0,0,0,0,0,0,0,0,0,0,0,0,0,0,0,0,0,0,0,0,0,0,0,0,0,0,0,0,0,0,0,0,0,
0,0,0,0,0,0,0,0,0,0,0,0,0,0,0,0,0,0,0,0,0,0,0,0,0,0,0,0,0,0,0,0,0,0,0,0,0,0,0,0,
0,0,0,0,0,0,0,0,0,0,0,0,0,0,0,0,0,0,0,0,0,0,0,0,0,0,0,0,0,0,0,0,0,0,0,0,0,0,0,0,
0,0,0,0,0,0,0,0,0,0,0,0,0,0,0,0,0,0,0,0,0,0,0,0,0,0,0,0,0,0,0,0,0,0,0,0,0,0,0,0,
0,0,0,0,0,0,0,0,0,0,0,0,0,0,0,0,0,0,0,0,0,0,0,0,0,0,0,0,0,0,0,0,0,0,0,0,0,0,0,0,
0,0,0,0,0,0,0,0,0,0,0,0,0,0,0,0,0,0,0,0,0,0,0,0,0,0,0,0,0,0,0,0,0,0,0,0,0,0,0,0,
0,0,0,0,0,0,0,0,0,0,0,0,0,0,0,0,0,0,0,0,0,0,0,0,0,0,0,0,0,0,0,0,0,0,0,0,0,0,0,0,
0,0,0,0,0,0,0,0,0,0,0,0,0,0,0,0,0,0,0,0,0,0,0,0,0,0,0,0,0,0,0,0,0,0,0,0,0,0,0,0,
0,0,0,0,0,0,0,0,0,0,0,0,0,0,0,0,0,0,0,0,0,0,0,0,0,0,0,0,0,0,0,0,0,0,0,0,0,0,0,0,
0,0,0,0,0,0,0,0,0,0,0,0,0,0,0,0,0,0,0,0,0,0,0,0,0,0,0,0,0,0,0,0,0,0,0,0,0,0,0,0,
0,0,0,0,0,0,0,0,0,0,0,0,0,0,0,0,0,0,0,0,0,0,0,0,0,0,0,0,0,0,0,0,0,0,0,0,0,0,0,0,
0,0,0,0,0,0,0,0,0,0,0,0,0,0,0,0,0,0,0,0,0,0,0,0,0,0,0,0,0,0,0,0,0,0,0,0,0,0,0,0,
0,0,0,0,0,0,0,0,0,0,0,0,0,0,0,0,0,0,0,0,0,0,0,0,0,0,0,0,0,0,0,0,0,0,0,0,0,0,0,0,
0,0,0,0,0,0,0,0,0,0,0,0,0,0,0,0,0,0,0,0,0,0,0,0,0,0,0,0,0,0,0,0,0,0,0,0,0,0,0,0,
0,0,0,0,0,0,0,0,0,0,0,0,0,0,0,0,0,0,0,0,0,0,0,0,0,0,0,0,0,0,0,0,0,0,0,0,0,0,0,0,
0,0,0,0,0,0,0,0,0,0,0,0,0,0,0,0,0,0,0,0,0,0,0,0,0,0,0,0,0,0,0,0,0,0,0,0,0,0,0,0,
0,0,0,0,0,0,0,0,0,0,0,0,0,0,0,0,0,0,0,0,0,0,0,0,0,0,0,0,0,0,0,0,0,0,0,0,0,0,0,0,
0,0,0,0,0,0,0,0,0,0,0,0,0,0,0,0,0,0,0,0,0,0,0,0,0,0,0,0,0,0,0,0,0,0,0,0,0,0,0,0,
0,0,0,0,0,0,0,0,0,0,0,0,0,0,0,0,0,0,0,0,0,0,0,0,0,0,0,0,0,0,0,0,0,0,0,0,0,0,0,0,
0,0,0,0,0,0,0,0,0,0,0,0,0,0,0,0,0,0,0,0,0,0,0,0,0,0,0,0,0,0,0,0,0,0,0,0,0,0,0,0,
0,0,0,0,0,0,0,0,0,0,0,0,0,0,0,0,0,0,0,0,0,0,0,0,0,0,0,0,0,0,0,0,0,0,0,0,0,0,0,0,
0,0,0,0,0,0,0,0,0,0,0,0,0,0,0,0,0,0,0,0,0,0,0,0,0,0,0,0,0,0,0,0,0,0,0,0,0,0,0,0,
0,0,0,0,0,0,0,0,0,0,0,0,0,0,0,0,0,0,0,0,0,0,0,0,0,0,0,0,0,0,0,0,0,0,0,0,0,0,0,0,
0,0,0,0,0,0,0,0,0,0,0,0,0,0,0,0,0,0,0,0,0,0,0,0,0,0,0,0,0,0,0,0,0,0,0,0,0,0,0,0,
0,0,0,0,0,0,0,0,0,0,0,0,0,0,0,0,0,0,0,0,0,0,0,0,0,0,0,0,0,0,0,0,0,0,0,0,0,0,0,0,
0,0,0,0,0,0,0,0,0,0,0,0,0,0,0,0,0,0,0,0,0,0,0,0,0,0,0,0,0,0,0,0,0,0,0,0,0,0,0,0,
0,0,0,0,0,0,0,0,0,0,0,0,0,0,0,0,0,0,0,0,0,0,0,0,0,0,0,0,0,0,0,0,0,0,0,0,0,0,0,0,
0,0,0,0,0,0,0,0,0,0,0,0,0,0,0,0,0,0,0,0,0,0,0,0,0,0,0,0,0,0,0,0,0,0,0,0,0,0,0,0,
0,0,0,0,0,0,0,0,0,0,0,0,0,0,0,0,0,0,0,0,0,0,0,0,0,0,0,0,0,0,0,0,0,0,0,0,0,0,0,0,
0,0,0,0,0,0,0,0,0,0,0,0,0,0,0,0,0,0,0,0,0,0,0,0,0,0,0,0,0,0,0,0,0,0,0,0,0,0,0,0,
0,0,0,0,0,0,0,0,0,0,0,0,0,0,0,0,0,0,0,0,0,0,0,0,0,0,0,0,0,0,0,0,0,0,0,0,0,0,0,0,
0,0,0,0,0,0,0,0,0,0,0,0,0,0,0,0,0,0,0,0,0,0,0,0,0,0,0,0,0,0,0,0,0,0,0,0,0,0,0,0,
0,0,0,0,0,0,0,0,0,0,0,0,0,0,0,0,0,0,0,0,0,0,0,0,0,0,0,0,0,0,0,0,0,0,0,0,0,0,0,0,
0,0,0,0,0,0,0,0,0,0,0,0,0,0,0,0,0,932,0,0,0,0,0,0,0,0,0,0,0,0,0,0,0,0,0,0,0,0,0,0,
0,0,0,0,0,0,0,0,0,0,0,0,0,0,0,0,0,0,0,0,0,0,0,0,0,0,0,0,0,0,0,0,0,0,0,0,0,0,0,0,
0,0,0,0,0,0,0,0,0,0,0,0,935,0,0,0,0,0,0,0,0,0,0,0,0,0,0,0,0,0,0,0,0,0,928,929,0,0,0,0,
0,0,0,0,0,0,0,0,0,0,0,0,0,0,0,0,0,0,0,0,1086,0,0,0,0,0,933,0,932,0,0,0,0,0,942,943,934,0,0,0,
0,0,0,0,0,0,0,0,0,0,0,0,0,0,0,0,0,0,0,0,0,0,0,0,0,2684355478,0,0,0,0,0,0,0,0,0,0,1075,0,2684355478,0,
0,0,0,0,0,0,0,2684355478,0,0,0,0,0,0,0,0,0,0,0,0,0,0,0,932,0,0,0,1080,0,0,0,0,0,935,0,0,0,1080,0,0,
0,0,0,0,0,932,0,0,0,0,0,0,0,933,0,0,0,0,0,0,0,0,1086,901,902,903,1075,0,0,0,0,0,0,0,0,1075,0,933,0,0,
0,0,0,0,0,1080,0,0,0,0,0,0,0,0,0,0,0,0,0,0,0,0,0,915,916,917,0,0,935,0,0,0,0,0,0,0,1086,0,0,0,
0,0,0,0,1075,0,0,0,0,0,0,0,0,0,0,0,0,0,0,0,0,0,0,0,930,931,0,0,0,0,0,0,0,934,0,928,929,932,0,934,
0,0,0,2684355478,0,0,0,0,0,0,0,0,0,0,0,0,0,0,0,0,0,0,0,0,0,932,0,0,0,1084,0,0,0,0,0,942,943,0,0,0,
932,0,935,0,0,0,0,0,933,0,1084,0,0,0,0,0,0,0,0,0,0,0,0,0,0,0,0,0,0,918,1083,0,0,0,935,0,0,0,0,0,
0,0,0,0,0,0,0,0,0,928,929,0,0,1083,0,0,0,0,0,0,0,0,0,0,0,0,0,0,940,941,0,0,0,0,0,0,0,0,0,0,
1086,0,0,0,0,0,0,0,0,942,943,0,0,0,0,0,0,0,0,0,0,0,0,0,0,0,0,0,954,955,956,0,0,0,0,1084,0,0,0,0,
0,928,929,0,0,0,0,0,0,0,0,0,1084,0,0,0,0,0,0,0,0,0,0,1084,0,0,0,0,968,969,970,0,0,0,0,0,0,0,0,0,
928,958,959,0,0,0,0,0,0,0,935,0,0,0,0,0,0,0,0,0,0,0,0,0,0,0,0,0,0,935,0,0,0,0,0,0,1083,0,0,932,
942,972,973,932,0,0,0,0,0,0,0,0,0,0,1086,0,934,0,0,0,0,0,0,0,0,0,0,0,0,0,0,0,0,0,0,932,0,1084,0,0,
0,0,0,0,2684355478,0,0,0,0,0,0,0,0,1075,0,0,0,0,0,0,0,0,0,0,0,0,0,0,0,0,0,0,0,0,0,0,0,0,0,0,
0,0,0,0,0,0,0,0,0,0,0,0,0,0,0,0,0,0,0,0,0,0,0,0,0,0,0,0,0,0,0,0,0,1075,0,0,0,0,0,918,
0,0,0,0,0,0,0,0,0,1086,0,0,0,0,0,0,0,0,0,0,0,0,0,0,0,0,0,0,0,0,0,0,0,0,0,935,0,0,0,0,
0,0,0,0,0,0,0,0,0,0,0,0,0,0,0,0,0,0,0,0,0,0,0,0,0,932,0,0,0,0,0,0,0,0,0,0,0,0,0,0,
0,928,929,0,0,0,0,0,0,0,0,935,0,0,0,0,0,1075,0,0,935,0,0,0,0,0,0,0,0,0,0,0,0,0,0,0,1086,0,0,1083,
0,942,943,0,935,0,0,0,0,0,0,0,0,0,0,0,0,0,0,0,0,0,0,0,0,0,0,0,0,0,0,0,0,0,0,0,0,0,0,0,
0,0,0,0,0,0,0,0,0,0,0,0,0,0,0,0,0,0,0,0,0,0,0,0,0,0,0,0,0,0,0,0,0,0,0,0,0,0,0,934,
0,1083,0,0,0,0,933,0,0,0,0,0,0,0,0,0,0,0,0,0,0,0,0,0,0,0,0,0,0,0,0,0,0,0,932,0,0,0,0,0,
0,0,0,0,0,0,0,0,0,0,0,0,935,0,0,0,0,0,0,0,0,0,0,0,0,0,0,0,0,0,0,0,0,0,0,0,0,1080,0,0,
2684355478,0,0,0,0,0,0,0,0,0,0,0,0,0,0,0,0,0,0,0,0,935,0,0,0,0,0,0,0,0,0,0,0,0,0,0,0,0,935,0,
0,0,0,0,0,0,0,0,0,1080,0,0,0,0,0,0,0,0,0,0,0,0,0,0,0,0,0,0,0,0,0,0,0,0,0,0,0,0,0,0,
0,0,0,0,0,0,0,0,0,0,0,0,0,0,0,0,0,0,0,0,0,0,0,0,0,0,0,0,0,0,0,0,0,0,0,0,0,1075,928,929,
0,0,0,0,0,0,1075,0,0,0,0,0,0,0,0,0,0,0,0,0,0,0,0,0,0,0,0,0,0,0,0,928,929,0,0,0,0,0,942,943,
0,932,1086,0,0,0,0,0,0,0,0,0,0,0,0,0,0,0,0,0,0,0,0,0,0,0,0,0,0,0,0,942,943,0,0,0,0,0,0,0,
929,0,935,0,0,0,0,0,0,0,0,0,0,0,0,0,0,0,0,0,0,0,0,1086,0,0,0,0,0,0,0,0,0,0,0,0,0,0,0,0,
943,933,0,0,0,1080,0,0,0,0,0,0,0,0,0,0,0,0,0,0,0,0,0,0,0,0,0,0,0,0,0,0,0,0,0,0,0,932,0,0,
0,0,0,0,0,0,0,0,0,0,0,0,935,0,1080,0,0,928,929,0,0,0,0,0,0,0,0,0,0,0,0,0,0,0,928,929,0,0,0,0,
0,0,0,0,0,0,0,0,0,0,0,0,0,0,0,0,0,942,943,0,0,0,0,0,0,0,0,0,0,0,0,0,0,0,942,943,0,0,0,0,
934,0,1084,0,0,0,0,0,0,0,0,0,0,0,0,0,0,0,0,0,0,0,0,0,0,0,0,1075,0,935,0,0,0,0,0,0,0,0,0,0,
0,0,0,1086,0,0,0,0,0,0,0,0,0,1086,0,0,0,0,0,0,0,0,935,0,0,0,0,0,0,0,0,0,0,0,0,0,0,0,2684355478,0,
0,0,0,0,0,932,0,0,0,0,0,0,0,0,0,0,1075,2684355478,0,0,0,0,0,0,1080,0,0,0,0,0,0,0,0,935,0,0,0,0,0,0,
0,0,935,0,1075,0,0,0,0,0,1080,0,0,0,0,0,0,0,0,0,0,0,0,0,0,0,0,0,0,0,0,2684355478,0,0,932,928,929,0,0,0,
0,0,0,0,0,0,0,0,0,0,0,0,0,0,0,933,0,0,0,0,0,0,0,0,0,0,0,0,0,0,0,0,0,0,0,942,943,0,0,0,
0,1075,0,0,0,0,0,0,0,0,0,0,0,0,0,0,0,935,0,0,0,1083,934,0,0,1086,932,0,0,0,0,0,0,0,0,0,0,0,0,934,
932,0,0,0,0,1080,0,0,0,0,0,0,0,0,0,0,0,0,0,0,1075,0,0,1084,1080,0,0,0,0,0,0,0,0,0,0,0,0,0,935,0,
0,0,0,0,0,902,903,0,0,0,0,0,0,0,0,1083,0,0,0,0,932,0,0,0,0,0,0,0,0,0,0,0,0,0,0,0,0,0,0,0,
0,0,0,0,0,916,917,0,0,0,935,0,0,0,0,0,0,933,0,0,0,0,0,2684355478,0,0,0,0,0,0,0,0,0,0,0,0,0,0,0,0,
0,0,0,0,0,942,943,0,0,0,0,0,0,0,0,0,0,0,0,0,0,928,929,0,1075,0,0,0,0,935,0,0,0,0,1080,932,928,929,0,0,
0,0,0,0,0,0,0,0,0,0,0,0,0,0,0,0,0,0,0,0,0,942,943,0,0,0,0,0,1080,0,932,0,0,0,0,0,942,943,0,0,
0,0,0,0,0,0,0,0,0,0,0,0,0,0,0,0,1080,0,0,0,0,0,0,0,0,0,0,0,0,0,0,0,0,0,0,0,0,0,0,0,
0,0,0,0,0,0,935,0,0,0,0,0,0,0,0,0,0,0,0,0,0,0,0,0,0,0,0,0,928,929,0,0,0,0,0,0,1084,0,0,2684355478,
0,935,0,0,0,0,0,0,0,0,0,0,0,1086,0,0,0,0,0,0,0,0,0,0,0,0,0,0,942,943,0,0,0,0,0,0,934,0,0,0,
0,0,1075,0,0,0,0,0,0,0,0,0,0,0,0,0,0,0,0,0,0,0,0,0,0,0,0,935,0,2684355478,0,0,0,0,0,0,0,1083,1084,934,
932,0,0,0,0,2684355478,0,0,0,0,0,0,0,0,0,0,0,0,0,0,0,0,0,0,0,0,0,0,0,0,0,0,0,0,0,1086,0,0,0,0,
0,1080,0,0,0,0,0,0,0,0,0,0,0,0,0,0,0,0,0,0,0,0,0,0,0,0,0,0,0,0,0,0,0,0,935,0,0,0,932,0,
1086,0,0,0,0,0,0,0,0,0,0,0,0,0,0,0,0,0,0,0,0,0,0,0,0,0,0,0,2147484581,0,1075,932,0,0,0,0,0,0,0,0,
0,0,0,0,0,0,0,0,935,0,0,1086,0,0,0,0,0,0,0,0,0,0,0,0,0,0,0,0,0,0,0,0,0,0,0,0,0,0,0,0,
0,935,0,0,0,0,0,0,0,0,0,0,0,0,0,0,0,0,0,0,0,0,0,0,0,0,0,0,0,0,0,0,0,0,0,1080,0,2684355478,1084,934,
0,0,0,0,0,0,0,0,1075,0,0,0,0,0,0,0,0,0,0,0,0,0,0,0,0,0,0,0,0,0,0,0,0,0,0,0,0,0,0,0,
0,0,0,0,0,932,0,0,0,0,0,0,0,0,0,0,0,0,0,0,0,0,0,0,0,0,0,0,0,0,0,0,0,0,0,0,1075,0,1083,2684355478,
1080,0,0,0,0,0,0,0,0,0,0,0,0,0,0,0,0,0,0,0,0,0,0,0,0,0,1075,0,0,2684355478,1080,0,0,0,0,0,928,929,0,0,
0,0,1075,0,0,0,0,1086,0,935,0,0,0,0,0,0,0,0,0,0,0,0,0,0,935,0,0,0,898,899,900,0,0,0,0,0,942,943,0,0,
0,2684355478,0,0,0,0,0,0,0,0,0,0,0,0,0,0,0,0,0,0,0,0,0,0,0,0,2147484581,944,958,913,914,935,0,0,0,0,0,0,1086,0,
0,0,0,0,0,0,0,0,0,0,1080,0,0,0,0,0,0,0,0,0,0,0,0,0,0,1080,898,958,913,927,0,0,0,0,0,0,0,0,0,1084,
0,0,0,0,0,0,0,0,0,935,0,0,932,0,0,0,0,0,2684355478,0,0,0,0,0,0,0,915,916,911,0,0,0,0,0,0,0,0,0,0,932,
0,0,0,0,0,0,0,0,0,0,2684355478,0,0,0,0,0,0,0,0,0,0,0,0,0,0,0,932,910,911,0,0,0,0,0,0,0,0,0,0,0,
0,0,0,0,0,0,0,0,0,0,0,0,0,0,0,0,0,0,1075,0,0,0,0,0,0,0,957,958,911,0,0,0,0,0,0,0,0,0,0,0,
0,0,0,0,0,0,0,0,0,0,0,0,0,0,0,0,0,0,0,0,0,0,0,0,0,0,968,969,927,0,0,0,0,0,0,0,932,0,0,0,
0,0,0,0,0,0,0,0,0,0,0,0,0,0,0,0,0,0,0,0,0,0,0,0,0,935,0,0,0,935,0,0,0,1075,0,0,0,0,0,0,
932,0,0,0,0,0,0,0,0,0,0,0,0,0,0,0,0,0,0,0,0,0,0,0,0,0,0,0,0,0,0,0,0,0,0,2684355478,0,0,0,0,
0,1086,0,0,0,0,0,0,0,0,0,0,0,0,0,0,0,0,0,0,0,0,0,0,0,0,0,0,0,0,0,0,0,0,0,0,0,0,2147484581,1080,
0,0,0,0,0,0,0,1080,0,0,0,0,0,0,0,0,0,0,0,0,0,2684355478,0,0,1086,0,0,0,0,0,0,0,0,0,0,0,0,0,0,0,
0,0,935,0,1075,0,0,0,0,0,0,0,0,0,0,0,0,935,0,0,0,0,0,0,0,0,0,0,0,0,0,0,0,0,0,0,0,0,0,0,
0,2684355478,0,0,0,0,0,0,0,0,0,1086,0,0,0,0,0,0,0,0,0,0,0,1075,0,0,0,0,0,0,1080,0,0,0,0,2684355478,0,1084,0,0,
0,0,0,0,0,935,0,0,1080,0,0,0,2684355478,0,0,0,0,0,932,0,0,0,0,0,0,932,0,0,0,0,935,0,932,0,0,0,0,0,0,0,
0,0,0,0,0,0,0,0,0,0,0,0,0,0,0,0,0,0,0,0,0,0,2147484581,0,0,0,0,0,0,0,0,0,0,0,0,0,1083,0,2684355478,0,
932,0,0,2147484581,0,0,0,0,0,0,0,0,0,0,0,0,0,0,0,928,929,0,0,0,0,0,0,0,0,0,0,0,0,0,0,0,0,0,0,0,
0,0,0,0,0,932,0,0,0,0,0,0,0,0,0,0,0,0,0,942,943,0,0,0,0,0,0,0,0,0,0,0,0,0,1083,934,0,0,0,0,
0,0,0,0,0,0,1084,0,1086,0,932,0,0,0,0,0,0,0,0,0,0,0,0,0,0,0,0,0,0,0,0,0,0,0,0,0,0,0,1083,934,
1084,934,0,1083,934,0,0,0,0,0,0,0,0,0,0,0,0,0,0,0,0,0,0,0,0,0,0,0,0,0,0,0,0,2684355478,1084,0,0,0,0,1084,
0,0,0,935,0,0,0,0,0,0,0,0,0,0,0,0,0,928,929,0,0,0,0,0,0,0,0,0,0,0,0,0,0,0,0,0,0,0,0,0,
0,0,0,2684355478,0,0,0,0,0,0,0,0,0,0,1086,0,0,942,943,2684355478,0,0,0,0,0,0,0,0,0,935,0,0,0,0,0,0,0,0,0,0,
0,0,0,928,929,932,0,0,0,0,0,1075,0,2684355478,0,0,0,0,0,0,0,0,0,0,0,0,0,0,0,0,0,0,1080,0,0,2147484581,0,0,0,0,
0,0,0,942,943,1075,0,0,0,0,0,0,0,0,935,0,0,0,0,0,0,0,0,0,0,0,0,0,0,0,0,0,0,1075,0,0,0,932,0,0,
0,0,0,0,0,0,0,0,0,0,0,0,0,0,0,0,0,0,0,0,0,0,0,0,0,0,0,0,0,0,0,0,0,0,0,0,0,0,0,0,
1080,0,0,0,0,0,0,0,0,0,0,0,0,0,0,0,0,0,0,0,0,0,0,0,932,0,0,0,0,0,0,1086,0,0,0,0,0,0,0,0,
0,935,0,0,0,0,0,0,0,0,0,0,0,0,0,0,0,0,0,0,0,0,0,0,0,0,0,0,0,0,935,0,0,0,0,0,0,0,0,0,
0,0,0,0,0,0,0,0,0,0,0,0,0,0,0,0,0,0,0,0,0,0,0,0,0,0,0,0,0,0,0,0,0,0,0,0,0,0,0,0,
0,0,0,0,0,0,0,0,0,932,0,0,0,0,0,0,0,0,0,0,0,0,0,0,0,0,0,0,0,0,0,0,0,0,0,0,0,0,0,0,
0,0,0,0,0,0,0,0,0,0,0,0,0,0,0,0,0,0,0,0,0,0,0,0,0,0,0,0,0,0,0,0,0,1075,0,2684355478,0,0,0,0,
0,0,0,0,0,0,0,0,0,0,0,0,0,0,0,0,0,0,0,0,0,2147484581,0,0,0,0,0,0,0,0,0,0,0,1086,0,0,0,0,0,0,
0,1075,0,0,0,0,0,0,0,0,0,935,0,0,0,0,0,0,0,0,0,0,0,0,0,0,0,0,0,0,0,0,0,0,932,928,929,0,935,0,
0,0,0,1086,0,0,0,0,0,0,0,0,0,0,0,0,0,0,932,0,0,0,0,0,0,2684355478,0,0,0,935,0,0,0,0,0,942,943,0,0,0,
2147484581,0,0,0,0,0,0,0,0,0,0,0,1086,0,0,0,0,0,0,0,0,898,899,900,0,0,0,0,0,0,0,0,0,0,0,0,0,1080,0,1086,
0,0,0,0,935,0,0,0,0,0,0,0,0,0,0,0,0,0,0,0,0,912,913,914,0,0,0,0,0,0,0,0,932,0,0,0,0,0,0,2684355478,
0,0,0,0,0,0,1080,0,2684355478,0,0,0,0,0,0,0,0,0,0,0,928,958,973,0,0,0,0,0,0,0,0,0,0,0,0,0,0,0,0,0,
0,0,0,0,0,0,0,0,0,0,0,0,0,0,0,0,0,0,0,940,958,913,0,0,0,0,0,0,905,0,0,0,0,0,0,0,2147484581,0,0,0,
0,0,0,0,0,0,0,0,0,0,0,0,0,0,0,0,0,0,0,954,913,973,0,0,0,0,0,0,919,0,0,0,0,0,0,0,0,0,0,0,
0,0,0,0,0,0,0,0,0,0,0,0,0,0,0,0,0,0,0,968,973,1080,0,0,0,0,0,0,0,0,0,0,0,0,0,0,0,0,0,0,
0,0,0,0,0,0,0,0,0,0,0,0,0,0,0,2684355478,0,0,0,0,0,0,0,0,0,0,0,0,0,0,0,0,0,0,0,1080,0,0,0,1075,
0,0,0,0,0,0,0,0,0,0,0,0,0,1080,0,0,0,0,0,0,0,0,0,0,0,0,0,0,0,0,0,0,0,0,0,0,0,0,0,0,
0,0,0,0,0,0,0,0,0,0,0,0,0,0,0,0,0,0,0,0,0,932,0,0,0,1086,0,0,0,0,0,0,0,0,0,1086,0,0,935,0,
0,0,0,0,0,0,0,0,0,0,0,0,935,0,1075,0,0,0,0,0,1080,0,0,0,0,0,0,0,0,0,0,935,0,0,0,0,0,0,0,1080,
0,0,0,0,0,0,0,0,0,0,0,0,0,0,0,0,0,0,2684355478,928,929,0,0,935,0,0,928,929,0,0,0,0,0,0,932,0,928,929,0,0,
0,0,0,0,0,935,0,0,0,0,0,0,0,0,932,0,0,0,0,942,943,0,0,0,1075,0,942,943,0,0,0,0,0,0,0,0,942,943,0,0,
0,0,0,0,0,0,932,0,0,0,0,0,0,0,1086,2147484581,0,0,0,0,0,2147484581,0,0,0,2684355478,0,0,0,0,0,0,0,0,1080,0,2684355478,0,0,0
</data>
 </layer>
 <layer id="14" name="trees" width="40" height="140">
  <data encoding="csv">
0,0,0,0,0,0,0,0,0,0,0,0,0,0,0,0,0,0,0,0,0,0,0,0,0,0,0,0,0,0,0,0,0,0,0,0,0,0,0,0,
0,0,0,0,0,0,0,0,0,0,0,0,0,0,0,0,0,0,0,0,0,0,0,0,0,0,0,0,0,0,0,0,0,0,0,0,0,0,0,0,
0,0,0,0,0,0,0,0,0,0,0,0,0,0,0,0,0,0,0,0,0,0,0,0,0,0,0,0,0,0,0,0,0,0,0,0,0,0,0,0,
0,0,0,0,0,0,0,0,0,0,0,0,0,0,0,0,0,0,0,0,0,0,0,0,0,0,0,0,0,0,0,0,0,0,0,0,0,0,0,0,
0,0,0,0,0,0,0,0,0,0,0,0,0,0,0,0,0,0,0,0,0,0,0,0,0,0,0,0,0,0,0,0,0,0,0,0,0,0,0,0,
0,0,0,0,0,0,0,0,0,0,0,0,0,0,0,0,0,0,0,0,0,0,0,0,0,0,0,0,0,0,0,0,0,0,0,0,0,0,0,0,
0,0,0,0,0,0,0,0,0,0,0,0,0,0,0,0,0,0,0,0,0,0,0,0,0,0,0,0,0,0,0,0,0,0,0,0,0,0,0,0,
0,0,0,0,0,0,0,0,0,0,0,0,0,0,0,0,0,0,0,0,0,0,0,0,0,0,0,0,0,0,0,0,0,0,0,0,0,0,0,0,
0,0,0,0,0,0,0,0,0,0,0,0,0,0,0,0,0,0,0,0,0,0,0,0,0,0,0,0,0,0,0,0,0,0,0,0,0,0,0,0,
0,0,0,0,0,0,0,0,0,0,0,0,0,0,0,0,0,0,0,0,0,0,0,0,0,0,0,0,0,0,0,0,0,0,0,0,0,0,0,0,
0,0,0,0,0,0,0,0,0,0,0,0,0,0,0,0,0,0,0,0,0,0,0,0,0,0,0,0,0,0,0,0,0,0,0,0,0,0,0,0,
0,0,0,0,0,0,0,0,0,0,0,0,0,0,0,0,0,0,0,0,0,0,0,0,0,0,0,0,0,0,0,0,0,0,0,0,0,0,0,0,
0,0,0,0,0,0,0,0,0,0,0,0,0,0,0,0,0,0,0,0,0,0,0,0,0,0,0,0,0,0,0,0,0,0,0,0,0,0,0,0,
0,0,0,0,0,0,0,0,0,0,0,0,0,0,0,0,0,0,0,0,0,0,0,0,0,0,0,0,0,0,0,0,0,0,0,0,0,0,0,0,
0,0,0,0,0,0,0,0,0,0,0,0,0,0,0,0,0,0,0,0,0,0,0,0,0,0,0,0,0,0,0,0,0,0,0,0,0,0,0,0,
0,0,0,0,0,0,0,0,0,0,0,0,0,0,0,0,0,0,0,0,0,0,0,0,0,0,0,0,0,0,0,0,0,0,0,0,0,0,0,0,
0,0,0,0,0,0,0,0,0,0,0,0,0,0,0,0,0,0,0,0,0,0,0,0,0,0,0,0,0,0,0,0,0,0,0,0,0,0,0,0,
0,0,0,0,0,0,0,0,0,0,0,0,0,0,0,0,0,0,0,0,0,0,0,0,0,0,0,0,0,0,0,0,0,0,0,0,0,0,0,0,
0,0,0,0,0,0,0,0,0,0,0,0,0,0,0,0,0,0,0,0,0,0,0,0,0,0,0,0,0,0,0,0,0,0,0,0,0,0,0,0,
0,0,0,0,0,0,0,0,0,0,0,0,0,0,0,0,0,0,0,0,0,0,0,0,0,0,0,0,0,0,0,0,0,0,0,0,0,0,0,0,
0,0,0,0,0,0,0,0,0,0,0,0,0,0,0,0,0,0,0,0,0,0,0,0,0,0,0,0,0,0,0,0,0,0,0,0,0,0,0,0,
0,0,0,0,0,0,0,0,0,0,0,0,0,0,0,0,0,0,0,0,0,0,0,0,0,0,0,0,0,0,0,0,0,0,0,0,0,0,0,0,
0,0,0,0,0,0,0,0,0,0,0,0,0,0,0,0,0,0,0,0,0,0,0,0,0,0,0,0,0,0,0,0,0,0,0,0,0,0,0,0,
0,0,0,0,0,0,0,0,0,0,0,0,0,0,0,0,0,0,0,0,0,0,0,0,0,0,0,0,0,0,0,0,0,0,0,0,0,0,0,0,
0,0,0,0,0,0,0,0,0,0,0,0,0,0,0,0,0,0,0,0,0,0,0,0,0,0,0,0,0,0,0,0,0,0,0,0,0,0,0,0,
0,0,0,0,0,0,0,0,0,0,0,0,0,0,0,0,0,0,0,0,0,0,0,0,0,0,0,0,0,0,0,0,0,0,0,0,0,0,0,0,
0,0,0,0,0,0,0,0,0,0,0,0,0,0,0,0,0,0,0,0,0,0,0,0,0,0,0,0,0,0,0,0,0,0,0,0,0,0,0,0,
0,0,0,0,0,0,0,0,0,0,0,0,0,0,0,0,0,0,0,0,0,0,0,0,0,0,0,0,0,0,0,0,0,0,0,0,0,0,0,0,
0,0,0,0,0,0,0,0,0,0,0,0,0,0,0,0,0,0,0,0,0,0,0,0,0,0,0,0,0,0,0,0,0,0,0,0,0,0,0,0,
0,0,0,0,0,0,0,0,0,0,0,0,0,0,0,0,0,0,0,0,0,0,0,0,0,0,0,0,0,0,0,0,0,0,0,0,0,0,0,0,
0,0,0,0,0,0,0,0,0,0,0,0,0,0,0,0,0,0,0,0,0,0,0,0,0,0,0,0,0,0,0,0,0,0,0,0,0,0,0,0,
0,0,0,0,0,0,0,0,0,0,0,0,0,0,0,0,0,0,0,0,0,0,0,0,0,0,0,0,0,0,0,0,0,0,0,0,0,0,0,0,
0,0,0,0,0,0,0,0,0,0,0,0,0,0,0,0,0,0,0,0,0,0,0,0,0,0,0,0,0,0,0,0,0,0,0,0,0,0,0,0,
0,0,0,0,0,0,0,0,0,0,0,0,0,0,0,0,0,0,0,0,0,0,0,0,0,0,0,0,0,0,0,0,0,0,0,0,0,0,0,0,
0,0,0,0,0,0,0,0,0,0,0,0,0,0,0,0,0,0,0,0,0,0,0,0,0,0,0,0,0,0,0,0,0,0,0,0,0,0,0,0,
0,0,0,0,0,0,0,0,0,0,0,0,0,0,0,0,0,0,0,0,0,0,0,0,0,0,0,0,0,0,0,0,0,0,0,0,0,0,0,0,
0,0,0,0,0,0,0,0,0,0,0,0,0,0,0,0,0,0,0,0,0,0,0,0,0,0,0,0,0,0,0,0,0,0,0,0,0,0,0,0,
0,0,0,0,0,0,0,0,0,0,0,0,0,0,0,0,0,0,0,0,0,0,0,0,0,0,0,0,0,0,0,0,0,0,0,0,0,0,0,0,
0,0,0,0,0,0,0,0,0,0,0,0,0,0,0,0,0,0,0,0,0,0,0,0,0,0,0,0,0,0,0,0,0,0,0,0,0,0,0,0,
0,0,0,0,0,0,0,0,0,0,0,0,0,0,0,0,0,0,0,0,0,0,0,0,0,0,0,0,0,0,0,0,0,0,0,0,0,0,0,0,
0,0,0,0,0,0,0,0,0,0,0,0,0,0,0,0,0,0,0,0,0,0,0,0,0,0,0,0,0,0,0,0,0,0,0,0,0,0,0,0,
0,0,0,0,0,0,0,0,0,0,0,0,0,0,0,0,0,0,0,0,0,0,0,0,0,0,0,0,0,0,0,0,0,0,0,0,0,0,0,0,
0,0,0,0,0,0,0,0,0,0,0,0,0,0,0,0,0,0,0,0,0,0,0,0,0,0,0,0,0,0,0,0,0,0,0,0,0,0,0,0,
0,0,0,0,0,0,0,0,0,0,0,0,0,0,0,0,0,0,0,0,0,0,0,0,0,0,0,0,0,0,0,0,0,0,0,0,0,0,0,0,
0,0,0,0,0,0,0,0,0,0,0,0,0,0,0,0,0,0,0,0,0,0,0,0,0,0,0,0,0,0,0,0,0,0,0,0,0,0,0,0,
0,0,0,0,0,0,0,0,0,0,0,0,0,0,0,0,0,0,0,0,0,0,0,0,0,0,0,0,0,0,0,0,0,0,0,0,0,0,0,0,
0,0,0,0,0,0,0,0,0,0,0,0,0,0,0,0,0,0,0,0,0,0,0,0,0,0,0,0,0,0,0,0,0,0,0,0,0,0,0,0,
0,0,0,0,0,0,0,0,0,0,0,0,0,0,0,0,0,0,0,0,0,0,0,0,0,0,0,0,0,0,0,0,0,0,0,0,0,0,0,0,
0,0,0,0,0,0,0,0,0,0,0,0,0,0,0,0,0,0,0,0,0,0,0,0,0,0,0,0,0,0,0,0,0,0,0,0,0,0,0,0,
0,0,0,0,0,0,0,0,0,0,0,0,0,0,0,0,0,0,0,0,0,0,0,0,0,0,0,0,0,0,0,0,0,0,0,0,0,0,0,0,
0,0,0,0,0,0,0,0,0,0,0,0,0,0,0,0,0,0,0,0,0,0,0,0,0,0,0,0,0,0,0,0,0,0,0,0,0,0,0,0,
0,0,0,0,0,0,0,0,0,0,0,0,0,0,0,0,0,0,0,0,0,0,0,0,0,0,0,0,0,0,0,0,0,0,0,0,0,0,0,0,
0,0,0,0,0,0,0,0,0,0,0,0,0,0,0,0,0,0,0,0,0,0,0,0,0,0,0,0,0,0,0,0,0,0,0,0,0,0,0,0,
0,0,0,0,0,0,0,0,0,0,0,0,0,0,0,0,0,0,0,0,0,0,0,0,0,0,0,0,0,0,0,0,0,0,0,0,0,0,0,0,
0,0,0,0,0,0,0,0,0,0,0,0,0,0,0,0,0,0,0,0,0,0,0,0,0,0,0,0,0,0,0,0,0,0,0,0,0,0,0,0,
0,0,0,0,0,0,0,0,0,0,0,0,0,0,0,0,0,0,0,0,0,0,0,0,0,0,0,0,0,0,0,0,0,0,0,0,0,0,0,0,
0,0,0,0,0,0,0,0,0,0,0,0,0,0,0,0,0,0,0,0,0,0,0,0,0,0,0,0,0,0,0,0,0,0,0,0,0,0,0,0,
0,0,0,0,0,0,0,0,0,0,0,0,0,0,0,0,0,0,0,0,0,0,0,0,0,0,0,0,0,0,0,0,0,0,0,0,0,0,0,0,
0,0,0,0,0,0,0,0,0,0,0,0,0,0,0,0,0,0,0,0,0,0,0,0,0,0,0,0,0,0,0,0,0,0,0,0,0,0,0,0,
0,0,0,0,0,0,0,0,0,0,0,0,0,0,0,0,0,0,0,0,0,0,0,0,0,0,0,0,0,0,0,0,0,0,0,0,0,0,0,0,
0,0,0,0,0,0,0,0,0,0,0,0,0,0,0,0,0,0,0,0,0,0,0,0,0,0,0,0,0,0,0,0,0,0,0,0,0,0,0,0,
0,0,0,0,0,0,0,0,0,0,0,0,0,0,0,0,0,0,0,0,0,0,0,0,0,0,0,0,0,0,0,0,0,0,0,0,0,0,0,0,
0,0,0,0,0,0,0,0,0,0,0,0,0,0,0,0,0,0,0,0,0,0,0,0,0,0,0,0,0,0,0,0,0,0,0,0,0,0,0,0,
0,0,0,0,0,0,0,0,0,0,0,0,0,0,0,0,0,0,0,0,0,0,0,0,0,0,0,0,0,0,0,0,0,0,0,0,0,0,0,0,
0,0,0,0,0,0,0,0,0,0,0,0,0,0,0,0,0,0,0,0,0,0,0,0,0,0,0,0,0,0,0,0,0,0,0,0,0,0,0,0,
0,0,0,0,0,0,0,0,0,0,0,0,0,0,0,0,0,0,0,0,0,0,0,0,0,0,0,0,0,0,0,0,0,0,0,0,0,0,0,0,
0,0,0,0,0,0,0,0,0,0,0,0,0,0,0,0,0,0,0,0,0,0,0,0,0,0,0,0,0,0,0,0,0,0,0,0,0,0,0,0,
0,0,0,0,0,0,0,0,0,0,0,0,0,0,0,0,0,0,0,0,0,0,0,0,0,0,0,0,0,0,0,0,0,0,0,0,0,0,0,0,
0,0,0,0,0,0,0,0,0,0,0,0,0,0,0,0,0,0,0,0,0,0,0,0,0,0,0,0,0,0,0,0,0,0,0,0,0,0,0,0,
0,0,0,0,0,0,0,0,0,0,0,0,0,0,0,0,0,0,0,0,0,0,0,0,0,0,0,0,0,0,0,0,0,0,0,0,0,0,0,0,
0,0,0,0,0,0,0,0,0,0,0,0,0,0,0,0,0,0,0,0,0,0,0,0,0,0,0,0,0,0,0,0,0,0,0,0,0,0,0,0,
0,0,0,0,0,0,0,0,0,0,0,0,0,0,0,0,0,0,0,0,0,0,0,0,0,0,0,0,0,0,0,0,0,0,0,0,0,0,0,0,
0,0,0,0,0,0,0,0,0,0,0,0,0,0,0,0,0,0,0,0,0,0,0,0,0,0,0,0,0,0,0,0,0,0,0,0,0,0,0,0,
0,0,0,0,0,0,0,0,0,0,0,0,0,0,0,0,0,0,0,0,0,0,0,0,0,0,0,0,0,0,0,0,0,0,0,0,0,0,0,0,
0,0,0,0,0,0,0,0,0,0,0,0,0,0,0,0,0,0,0,0,0,0,0,0,0,0,0,0,0,0,0,0,0,0,0,0,0,0,0,0,
0,0,0,0,0,0,0,0,0,0,0,0,0,0,0,0,0,0,0,0,0,0,0,0,0,0,0,0,0,0,0,0,0,0,0,0,0,0,0,0,
0,0,0,0,0,0,0,0,0,0,0,0,0,0,0,0,0,0,0,0,0,0,0,0,0,0,0,0,0,0,0,0,0,0,0,0,0,0,0,0,
0,0,0,0,0,0,0,0,0,0,0,0,0,0,0,0,0,0,0,0,0,0,0,0,0,0,0,0,0,0,0,0,0,0,0,0,0,0,0,0,
0,0,0,0,0,0,0,0,0,0,0,0,0,0,0,0,0,0,0,0,0,0,0,0,0,0,0,0,0,0,0,0,0,0,0,0,0,0,0,0,
0,0,0,0,0,0,0,0,0,0,0,0,0,0,0,0,0,0,0,0,0,0,0,0,0,0,0,0,0,0,0,0,0,0,0,0,0,0,0,0,
0,0,0,0,0,0,0,0,0,0,0,0,0,0,0,0,0,0,0,0,0,0,0,0,0,0,0,0,0,0,0,0,0,0,0,0,0,0,0,0,
0,0,0,0,0,0,0,0,0,0,0,0,0,0,0,0,0,0,0,0,0,0,0,0,0,0,0,0,0,0,0,0,0,0,0,0,0,0,0,0,
0,0,0,0,0,0,0,0,0,0,0,0,0,0,0,0,0,0,0,0,0,0,0,0,0,0,0,0,0,0,0,0,0,0,0,0,0,0,0,0,
0,0,0,0,0,0,0,0,0,0,0,0,0,0,0,0,0,0,0,0,0,0,0,0,0,0,0,0,0,0,0,0,0,0,0,0,0,0,0,0,
0,0,0,0,0,0,0,0,0,0,0,0,0,0,0,0,0,0,0,0,0,0,0,0,0,0,0,0,0,0,0,0,0,0,0,0,0,0,0,0,
0,0,0,0,0,0,0,0,0,0,0,0,0,0,0,0,0,0,0,0,0,0,0,0,0,0,0,0,0,0,0,0,0,0,0,0,0,0,0,0,
0,0,0,0,0,0,0,0,0,0,0,0,0,0,0,0,0,0,0,0,0,0,0,0,0,0,0,0,0,0,0,0,0,0,0,0,0,0,0,0,
0,0,0,0,0,0,0,0,0,0,0,0,0,0,0,0,0,0,0,0,0,0,0,0,0,0,0,0,0,0,0,0,0,0,0,0,0,0,0,0,
0,0,0,0,0,0,0,0,0,0,0,0,0,0,0,0,0,0,0,0,0,0,0,0,0,0,0,0,0,0,0,0,0,0,0,0,0,0,0,0,
0,0,0,0,0,0,0,0,0,0,0,0,0,0,0,0,0,0,0,0,0,0,0,0,0,0,0,0,0,0,0,0,0,0,0,0,0,0,0,0,
0,0,0,0,0,0,0,0,0,0,0,0,0,0,0,0,0,0,0,0,0,0,0,0,0,0,0,0,0,0,0,0,0,0,0,0,0,0,0,0,
0,0,0,0,0,0,0,0,0,0,0,0,0,0,0,0,0,0,0,0,0,0,0,0,0,0,0,0,0,0,0,0,0,0,0,0,0,0,0,0,
0,0,0,0,0,0,0,0,0,0,0,0,0,0,0,0,0,0,0,0,0,0,0,0,0,0,0,0,0,0,0,0,0,0,0,0,0,0,0,0,
0,0,0,0,0,0,0,0,0,0,0,0,0,0,0,0,0,0,0,0,0,0,0,0,0,0,0,0,0,0,0,0,0,0,0,0,0,0,0,0,
0,0,0,0,0,0,0,0,0,0,0,0,0,0,0,0,0,0,0,0,0,0,0,0,0,0,0,0,0,0,0,0,0,0,0,0,0,0,0,0,
0,0,0,0,0,0,0,0,0,0,0,0,0,0,0,0,0,0,0,0,0,0,0,0,0,0,0,0,0,0,0,0,0,0,0,0,0,0,0,0,
0,0,0,0,0,0,0,0,0,0,0,0,0,0,0,0,0,0,0,0,0,0,0,0,0,0,0,0,0,0,0,0,0,0,0,0,0,0,0,0,
920,0,0,0,0,0,0,0,0,0,0,0,0,0,0,0,0,0,0,0,0,0,0,0,0,0,0,0,0,0,0,0,0,0,0,0,0,0,0,0,
0,0,0,0,0,0,0,0,0,0,0,0,0,0,0,0,0,0,0,0,0,0,0,0,0,0,0,0,0,0,0,0,0,0,0,0,0,0,0,0,
0,0,0,0,0,0,0,0,0,0,0,0,0,0,0,0,0,0,0,0,0,0,0,0,0,0,0,0,0,0,0,0,0,0,0,0,0,0,0,0,
0,0,0,0,0,0,0,0,0,0,0,0,0,0,0,0,0,0,0,0,0,0,763,764,0,0,0,0,0,0,0,0,0,0,0,0,0,0,0,0,
0,0,0,0,0,0,0,0,0,0,0,0,0,0,0,0,0,0,0,0,0,0,781,782,0,0,0,0,0,0,0,0,0,0,0,0,0,0,0,0,
0,0,0,0,0,0,0,0,0,0,0,0,0,0,0,0,0,0,0,0,0,0,799,800,0,0,0,0,0,0,0,0,0,0,0,0,0,0,0,0,
0,920,0,0,0,0,0,0,0,0,0,0,0,0,0,0,0,0,0,0,0,0,0,0,0,0,0,0,0,0,0,0,0,0,0,0,0,0,0,0,
0,0,0,0,0,0,920,0,0,0,0,0,0,0,0,0,0,0,0,0,0,0,0,0,0,0,0,0,0,0,0,0,0,0,0,0,0,0,0,0,
0,0,0,0,0,0,0,0,0,0,0,0,0,0,0,0,0,0,0,0,0,0,0,0,0,0,0,0,0,0,0,0,0,0,0,0,0,0,0,0,
0,0,0,0,0,0,0,0,0,0,0,0,0,0,0,0,0,0,0,0,0,0,0,0,0,0,0,0,0,0,0,0,0,0,0,0,0,0,0,0,
0,0,0,0,0,0,0,0,0,0,0,0,0,0,0,0,0,0,0,0,0,0,0,0,0,920,0,0,0,0,0,0,0,0,0,0,0,0,0,0,
0,0,0,0,0,0,0,0,0,0,0,0,0,0,0,0,0,0,0,0,0,0,0,0,0,0,0,0,0,0,0,0,0,0,0,0,0,0,0,0,
920,0,0,0,0,0,0,0,0,0,0,0,0,0,0,0,0,0,0,0,0,0,0,0,0,0,0,0,0,0,0,0,0,0,0,0,0,0,0,0,
0,0,0,0,0,0,0,0,0,0,0,0,0,0,0,0,0,0,0,0,0,0,0,0,0,0,0,0,0,0,0,0,0,0,0,0,0,0,0,0,
0,0,0,0,0,0,0,0,0,0,0,0,0,0,0,0,0,0,0,0,0,0,0,0,0,0,0,0,0,0,0,0,0,0,0,0,0,0,0,0,
0,0,0,0,0,0,0,0,0,0,0,0,0,0,0,0,0,0,0,0,0,0,0,0,0,0,0,0,0,0,0,0,0,0,0,0,0,0,0,0,
0,0,0,0,0,0,0,0,0,0,0,0,0,0,0,0,0,0,0,0,0,0,0,0,0,0,0,0,0,0,0,0,0,0,0,0,0,0,0,0,
0,0,0,0,0,0,0,0,0,0,0,0,0,0,0,0,0,0,0,0,0,0,0,0,0,0,0,0,0,0,0,0,0,0,0,0,0,0,0,0,
0,0,0,0,920,0,0,0,0,0,0,0,0,0,0,0,0,0,0,0,0,0,0,0,0,0,0,0,0,0,0,0,0,0,0,0,0,0,0,0,
0,0,0,0,0,0,0,0,0,0,0,0,0,0,0,0,0,0,0,0,0,0,0,0,0,0,0,0,0,0,0,0,0,0,0,0,0,0,0,0,
0,0,898,899,900,0,0,0,0,0,0,0,0,0,0,0,0,0,0,0,0,0,0,0,0,0,0,0,0,0,0,0,920,0,0,0,0,0,0,0,
0,0,912,913,914,0,0,0,0,0,0,0,0,0,0,0,0,0,0,0,0,0,0,0,920,0,0,0,0,0,0,0,0,0,0,0,0,0,0,0,
0,0,926,927,0,0,0,0,0,0,0,0,0,0,0,0,0,0,0,0,0,0,0,0,0,0,0,0,0,0,0,0,0,0,0,0,0,0,0,0,
0,0,0,0,0,0,0,0,0,0,0,0,0,0,0,0,0,0,0,0,0,0,0,0,0,0,0,0,0,0,0,0,0,0,0,0,0,0,0,0,
0,0,0,0,0,0,0,0,0,0,0,0,0,0,0,0,0,0,0,0,0,0,0,0,0,0,0,0,0,0,0,0,0,0,0,0,0,0,0,0,
0,0,0,0,0,0,0,0,0,0,0,0,0,0,0,0,0,0,0,0,0,0,0,0,0,0,0,0,0,0,0,0,0,0,0,0,0,0,0,0,
0,0,0,0,0,0,0,0,0,0,0,0,0,0,0,0,0,0,0,0,0,0,0,0,0,0,0,0,0,0,0,0,0,0,0,0,0,0,0,0,
0,0,0,0,0,0,0,0,0,0,0,0,0,0,0,0,0,0,0,0,0,0,0,0,0,920,0,0,0,0,0,0,0,0,0,0,0,0,0,0,
0,0,0,0,0,920,0,0,0,0,0,0,0,0,0,0,0,0,0,0,0,0,0,0,0,0,0,0,0,0,0,0,0,0,0,0,0,0,0,0,
0,920,0,0,0,0,0,0,0,0,0,0,0,0,0,0,0,0,0,0,0,0,0,0,0,0,0,0,0,0,0,0,0,0,0,0,0,0,0,0,
0,0,0,0,0,0,0,0,0,0,0,0,0,0,0,0,920,0,0,0,0,0,0,0,0,0,0,0,0,0,0,0,0,0,0,0,0,0,0,0,
0,0,0,0,0,0,0,0,0,0,0,0,0,0,0,0,0,0,0,0,0,0,0,0,0,0,0,0,0,0,0,0,0,0,0,0,0,0,0,0,
0,0,0,0,0,0,0,0,0,0,0,0,0,0,0,0,0,0,0,0,0,0,0,0,0,0,0,0,0,0,0,0,0,0,0,0,0,0,0,0,
0,0,0,0,0,0,0,0,0,0,0,0,0,0,0,0,0,0,0,0,0,0,0,0,0,0,0,0,0,0,0,0,0,0,0,0,0,0,0,0,
0,0,0,0,0,0,0,0,0,920,0,0,0,0,0,0,0,0,0,0,0,0,0,0,0,0,0,0,0,0,0,0,0,0,0,920,0,0,0,0,
0,0,0,0,0,0,0,0,0,0,0,0,0,0,0,0,0,0,0,0,0,0,0,0,0,0,0,0,0,0,0,0,0,0,0,0,0,0,0,0,
0,0,0,0,0,0,0,0,0,0,0,0,0,0,0,0,0,0,0,0,0,0,0,0,0,0,0,0,0,0,0,0,0,0,0,0,0,0,0,0,
0,0,0,0,0,0,0,0,0,0,0,0,920,0,0,0,0,0,0,0,0,0,0,0,0,0,0,0,0,0,0,0,0,0,0,0,0,0,0,0,
0,0,0,0,0,0,0,0,0,0,0,0,0,0,0,0,0,0,0,0,0,0,0,0,0,0,0,0,0,0,0,0,0,0,0,0,0,0,0,0,
0,0,0,0,0,0,0,0,0,0,0,0,0,0,0,0,0,0,0,920,0,0,0,0,0,0,0,0,0,0,0,0,0,0,0,0,0,0,0,0,
0,0,0,0,0,0,0,0,0,0,0,0,0,0,0,0,0,0,0,0,0,0,0,0,0,0,0,0,0,0,0,0,0,0,0,0,0,0,0,920,
0,0,0,0,0,0,0,0,0,0,0,0,0,0,0,0,920,0,0,0,0,0,0,0,0,0,0,0,0,0,0,0,0,0,0,0,0,0,0,0,
0,0,0,0,0,0,0,0,0,0,0,0,0,0,0,0,0,0,0,0,0,0,0,0,0,0,0,0,0,920,0,0,0,0,0,0,0,0,0,0
</data>
 </layer>
 <objectgroup id="16" name="buildings">
  <object id="13" gid="846" x="766" y="4261" width="169" height="165"/>
  <object id="25" gid="853" x="11.3335" y="2675.67" width="186.333" height="192"/>
  <object id="28" gid="849" x="770" y="3717" width="136" height="168"/>
  <object id="32" gid="850" x="71.3333" y="3275" width="242.333" height="219.333"/>
  <object id="33" gid="848" x="393" y="2237" width="163" height="200"/>
  <object id="34" gid="852" x="302.333" y="841.545" width="302" height="293"/>
  <object id="179" gid="851" x="32.8333" y="2031.17" width="161.667" height="175.167"/>
  <object id="708" gid="855" x="376.333" y="1578.67" width="265" height="300"/>
  <object id="709" gid="858" x="373.697" y="1540.64" width="23.1818" height="23.6364"/>
  <object id="710" gid="856" x="612.5" y="1571.5" width="89" height="118"/>
  <object id="715" gid="860" x="324.667" y="1646.67" width="66" height="64"/>
  <object id="716" gid="857" x="592" y="1560.33" width="82" height="82"/>
  <object id="719" gid="861" x="788.667" y="1655.67" width="36.6667" height="40.3333"/>
  <object id="720" gid="861" x="767" y="1653.83" width="36.6667" height="40.3333"/>
  <object id="723" gid="862" x="753.667" y="1642.33" width="44.6667" height="53"/>
  <object id="726" gid="859" x="353.667" y="1524.67" width="63.3333" height="69.6667"/>
  <object id="727" gid="857" x="307" y="1511" width="82" height="82"/>
  <object id="729" gid="863" x="352" y="1463.33" width="34" height="46"/>
  <object id="735" gid="856" x="876.833" y="3703" width="56.3333" height="87.3333"/>
  <object id="738" gid="2147484508" x="305" y="1525.33" width="50.6667" height="50"/>
  <object id="740" gid="863" x="700.667" y="1721.33" width="30.6667" height="43.3333"/>
  <object id="741" gid="859" x="672.333" y="1707.17" width="63.3333" height="69.6667"/>
  <object id="743" gid="873" x="728.5" y="1670" width="68" height="73.5"/>
  <object id="744" gid="875" x="614" y="1687.5" width="81.5" height="74.5"/>
  <object id="746" gid="876" x="327" y="1468.5" width="57.5" height="73.5"/>
  <object id="747" gid="877" x="831" y="1545.67" width="102" height="44"/>
  <object id="750" gid="880" x="560" y="1580.5" width="18" height="31"/>
  <object id="751" gid="881" x="392.5" y="1546.5" width="18" height="32"/>
  <object id="756" gid="881" x="154.5" y="1952" width="18" height="32"/>
  <object id="760" gid="880" x="136" y="2013.5" width="18" height="31"/>
  <object id="762" gid="880" x="75.5" y="1932.5" width="18" height="31"/>
  <object id="771" gid="879" x="650" y="1690.5" width="24" height="24"/>
  <object id="772" gid="868" x="576.5" y="1581.5" width="36" height="53"/>
  <object id="781" gid="881" x="719.667" y="3654" width="18" height="32"/>
 </objectgroup>
 <objectgroup id="10" name="object_trees">
  <object id="73" gid="841" x="675" y="4295" width="150" height="175"/>
  <object id="74" gid="843" x="1141" y="3965" width="84" height="91"/>
  <object id="75" gid="837" x="562" y="4041" width="108" height="125"/>
  <object id="76" gid="835" x="323" y="4297" width="124" height="148"/>
  <object id="77" gid="836" x="865" y="4435" width="140" height="169"/>
  <object id="78" gid="838" x="51" y="4027" width="131" height="151"/>
  <object id="79" gid="840" x="132" y="4538" width="77" height="98"/>
  <object id="80" gid="840" x="1157.17" y="4284.67" width="77" height="98"/>
  <object id="81" gid="842" x="284" y="4238" width="123" height="140"/>
  <object id="82" gid="839" x="796.333" y="4078.33" width="115" height="134"/>
  <object id="85" gid="842" x="1173.83" y="4531" width="123" height="140"/>
  <object id="92" gid="838" x="472.167" y="4420.5" width="166" height="189"/>
  <object id="94" gid="837" x="1022" y="4141.5" width="127" height="141"/>
  <object id="107" gid="843" x="640.667" y="3625.83" width="84" height="91"/>
  <object id="108" gid="839" x="1214.5" y="3786.33" width="115" height="134"/>
  <object id="109" gid="836" x="-23.3333" y="3822.17" width="140" height="169"/>
  <object id="110" gid="841" x="930" y="3705.5" width="150" height="175"/>
  <object id="111" gid="837" x="463.333" y="3745.5" width="108" height="125"/>
  <object id="112" gid="840" x="669.5" y="3787" width="77" height="98"/>
  <object id="113" gid="842" x="369.167" y="3608.67" width="123" height="140"/>
  <object id="114" gid="837" x="907.333" y="3828.17" width="77.3333" height="86.3333"/>
  <object id="125" gid="841" x="6.83333" y="3334.67" width="183" height="212.5"/>
  <object id="126" gid="837" x="112" y="3366.17" width="108" height="125"/>
  <object id="127" gid="838" x="1162.5" y="3316.5" width="131" height="151"/>
  <object id="128" gid="842" x="688.5" y="2836" width="123" height="140"/>
  <object id="129" gid="840" x="751.5" y="2909.5" width="77" height="98"/>
  <object id="130" gid="836" x="376" y="3115.5" width="140" height="169"/>
  <object id="131" gid="839" x="535.5" y="3393" width="115" height="134"/>
  <object id="132" gid="841" x="1013" y="3171.5" width="146" height="160"/>
  <object id="133" gid="839" x="810" y="3495" width="115" height="134"/>
  <object id="134" gid="835" x="567.333" y="3448.67" width="124" height="148"/>
  <object id="135" gid="836" x="-96" y="2723.5" width="140" height="169"/>
  <object id="136" gid="839" x="183.833" y="2887.67" width="115" height="134"/>
  <object id="137" gid="842" x="90.5" y="2942" width="123" height="140"/>
  <object id="138" gid="840" x="356.167" y="3087" width="77" height="98"/>
  <object id="139" gid="836" x="693.667" y="3050.83" width="116" height="124.333"/>
  <object id="140" gid="835" x="568" y="2697" width="124" height="148"/>
  <object id="141" gid="837" x="855" y="2516.17" width="90" height="99"/>
  <object id="142" gid="840" x="292.5" y="2385" width="77" height="98"/>
  <object id="143" gid="843" x="106.667" y="2375.17" width="84" height="91"/>
  <object id="144" gid="842" x="984.5" y="2597" width="123" height="140"/>
  <object id="145" gid="835" x="1168.67" y="2680.67" width="124" height="148"/>
  <object id="146" gid="839" x="1021.17" y="2799.67" width="115" height="134"/>
  <object id="147" gid="837" x="944.667" y="2774.83" width="108" height="125"/>
  <object id="169" gid="841" x="-99.2424" y="3267.05" width="150" height="175"/>
  <object id="170" gid="842" x="1235.83" y="2637.03" width="123" height="140"/>
  <object id="171" gid="835" x="-77.1515" y="3495.7" width="124" height="148"/>
  <object id="172" gid="842" x="823.348" y="4548.18" width="123" height="140"/>
  <object id="173" gid="835" x="516.788" y="4538.12" width="124" height="148"/>
  <object id="174" gid="842" x="1229.53" y="4258.61" width="123" height="140"/>
  <object id="175" gid="837" x="342" y="2244.17" width="108" height="125"/>
  <object id="176" gid="836" x="50" y="2155.5" width="140" height="169"/>
  <object id="177" gid="840" x="-38.5" y="2181.67" width="77" height="98"/>
  <object id="178" gid="841" x="-68.3333" y="1934.5" width="150" height="175"/>
  <object id="180" gid="837" x="-84.6667" y="2053.5" width="108" height="125"/>
  <object id="181" gid="843" x="551.697" y="1999.02" width="84" height="91"/>
  <object id="182" gid="839" x="137.167" y="1791.67" width="115" height="134"/>
  <object id="183" gid="836" x="579.333" y="2386.17" width="140" height="169"/>
  <object id="184" gid="842" x="833.5" y="1897" width="123" height="140"/>
  <object id="185" gid="838" x="659.5" y="2151.5" width="131" height="151"/>
  <object id="186" gid="835" x="1214.67" y="2258" width="124" height="148"/>
  <object id="187" gid="838" x="1124.5" y="2377.5" width="131" height="151"/>
  <object id="188" gid="842" x="0" y="1524.5" width="123" height="140"/>
  <object id="189" gid="843" x="1149" y="2519.5" width="84" height="91"/>
  <object id="190" gid="837" x="1006" y="2342.5" width="108" height="125"/>
  <object id="191" gid="839" x="809.5" y="1687" width="115" height="134"/>
  <object id="192" gid="841" x="985" y="1370.5" width="150" height="175"/>
  <object id="193" gid="835" x="407.333" y="1270.67" width="124" height="148"/>
  <object id="194" gid="838" x="649.167" y="1377.83" width="131" height="151"/>
  <object id="195" gid="837" x="996" y="1765.5" width="108" height="125"/>
  <object id="196" gid="836" x="906" y="1451.5" width="140" height="169"/>
  <object id="197" gid="840" x="1143.5" y="1591" width="77" height="98"/>
  <object id="198" gid="843" x="748" y="1334.5" width="84" height="91"/>
 </objectgroup>
 <objectgroup id="11" name="interaction">
  <object id="16" name="AIN" gid="891" x="521.833" y="2882.67" width="38.5" height="44"/>
  <object id="17" name="SNB" gid="2147484539" x="633" y="2784.67" width="37.3333" height="38.6667"/>
  <object id="18" name="AON" gid="2147484539" x="801.667" y="2922.83" width="37.3333" height="36.6667"/>
  <object id="19" name="SWM" gid="2147484539" x="604.833" y="3109" width="38.6667" height="40.6667"/>
  <object id="21" name="1TINk" gid="893" x="945" y="4218.67" width="40.6667" height="36"/>
  <object id="22" name="klaswissel" gid="892" x="187" y="3932.67" width="33.3333" height="35.3333"/>
  <object id="29" name="1TINe" gid="893" x="727.667" y="3664.67" width="40.6667" height="36"/>
  <object id="30" name="2TINf" gid="893" x="344.333" y="3292.83" width="40.6667" height="36"/>
  <object id="31" name="Smart-ICT" gid="893" x="674.333" y="1730.67" width="40.6667" height="36"/>
  <object id="35" name="2AIN" gid="893" x="164.25" y="2667" width="40.6667" height="36"/>
  <object id="36" name="3AIN" gid="893" x="542.409" y="2219.39" width="40.6667" height="36"/>
  <object id="37" name="Sharp sea" gid="892" x="493.667" y="1992.67" width="36.6667" height="40"/>
  <object id="38" name="3AIN_2" gid="893" x="579" y="871.333" width="40.6667" height="36"/>
  <object id="702" name="tim" gid="1072" x="529.955" y="1600.91" width="35.5" height="71"/>
 </objectgroup>
 <objectgroup id="18" name="Spawns">
  <object id="794" name="Player" x="845" y="4285"/>
 </objectgroup>
 <objectgroup id="17" name="collision">
  <object id="44" x="775" y="4176" width="147" height="67"/>
  <object id="45" x="776" y="3628" width="118" height="70"/>
  <object id="46" x="86" y="3169" width="210" height="88"/>
  <object id="47" x="31" y="2590" width="132" height="75"/>
  <object id="48" x="407" y="2130" width="135" height="94"/>
  <object id="55" x="315" y="707" width="276" height="121"/>
  <object id="65" x="1.33333" y="2239.33" width="206.667" height="60.6667"/>
  <object id="66" x="1144" y="2305" width="136" height="148"/>
  <object id="67" x="1194" y="2179" width="87" height="126"/>
  <object id="68" x="1171" y="2209" width="24" height="99"/>
  <object id="69" x="0" y="1516" width="30" height="159"/>
  <object id="70" x="30" y="1543" width="21" height="103"/>
  <object id="95" x="518.667" y="4370.67" width="66" height="44"/>
  <object id="96" x="716.667" y="4244" width="54.6667" height="37.3333"/>
  <object id="97" x="358.667" y="4250" width="57.3333" height="39.3333"/>
  <object id="98" x="320" y="4195.33" width="44" height="40.6667"/>
  <object id="99" x="80" y="3981.33" width="64" height="37.3333"/>
  <object id="100" x="593.333" y="4001.33" width="46.6667" height="30.6667"/>
  <object id="101" x="825.333" y="4037.33" width="53.3333" height="36"/>
  <object id="102" x="1052" y="4093.33" width="61.3333" height="42.6667"/>
  <object id="103" x="1161.33" y="3933.33" width="46.6667" height="32"/>
  <object id="104" x="1165.33" y="4248" width="52" height="32"/>
  <object id="105" x="904" y="4384" width="68" height="48"/>
  <object id="115" x="20" y="3769.33" width="62.6667" height="42.6667"/>
  <object id="116" x="492" y="3704" width="49.3333" height="32"/>
  <object id="117" x="400" y="3561.33" width="53.3333" height="34.6667"/>
  <object id="118" x="661.333" y="3586.67" width="44" height="29.3333"/>
  <object id="119" x="685.333" y="3750.67" width="41.3333" height="29.3333"/>
  <object id="120" x="926.667" y="3794.67" width="32" height="24"/>
  <object id="121" x="964" y="3650.67" width="68" height="44"/>
  <object id="122" x="1240" y="3746.67" width="38.6667" height="30.6667"/>
  <object id="148" x="137.333" y="3310.67" width="54.6667" height="41.3333"/>
  <object id="149" x="54.6667" y="3257.33" width="71.8333" height="74.3333"/>
  <object id="150" x="600" y="3398.67" width="57.3333" height="41.3333"/>
  <object id="151" x="564" y="3348" width="58.6667" height="49.3333"/>
  <object id="152" x="837.333" y="3448" width="54.6667" height="44"/>
  <object id="153" x="1189.33" y="3264" width="68" height="50.6667"/>
  <object id="154" x="1044" y="3117.33" width="70.6667" height="53.3333"/>
  <object id="155" x="722.667" y="2998.67" width="61.3333" height="46.6667"/>
  <object id="156" x="417.333" y="3068" width="64" height="42.6667"/>
  <object id="157" x="365.333" y="3045.33" width="46.6667" height="34.6667"/>
  <object id="158" x="114.667" y="2889.33" width="58.6667" height="46.6667"/>
  <object id="159" x="206.667" y="2841.33" width="56" height="41.3333"/>
  <object id="160" x="-10.6667" y="2664" width="45.3333" height="57.3333"/>
  <object id="161" x="760" y="2870.67" width="48" height="26.6667"/>
  <object id="162" x="720" y="2789.33" width="49.3333" height="41.3333"/>
  <object id="163" x="608" y="2653.33" width="49.3333" height="38.6667"/>
  <object id="166" x="872" y="2478.67" width="46.6667" height="29.3333"/>
  <object id="167" x="308" y="2346.67" width="44" height="29.3333"/>
  <object id="168" x="128" y="2337.33" width="41.3333" height="32"/>
  <object id="199" x="616" y="2329.33" width="77.3333" height="50.6667"/>
  <object id="200" x="360" y="2198.67" width="74.6667" height="38.6667"/>
  <object id="201" x="85.3333" y="2108" width="77.3333" height="36"/>
  <object id="202" x="-17.3333" y="2145.33" width="41.3333" height="37.3333"/>
  <object id="203" x="153.333" y="1746.67" width="72" height="44"/>
  <object id="204" x="862.667" y="1844" width="62.6667" height="49.3333"/>
  <object id="205" x="1030.67" y="2282.67" width="49.3333" height="52"/>
  <object id="206" x="1164" y="2477.33" width="50.6667" height="34.6667"/>
  <object id="207" x="1018.67" y="1717.33" width="66.6667" height="49.3333"/>
  <object id="208" x="841.333" y="1644" width="53.3333" height="37.3333"/>
  <object id="209" x="1158.67" y="1558.67" width="46.6667" height="29.3333"/>
  <object id="210" x="950.667" y="1398.67" width="62.6667" height="49.3333"/>
  <object id="211" x="1024" y="1318.67" width="61.3333" height="48"/>
  <object id="212" x="682.667" y="1334.67" width="66.6667" height="37.3333"/>
  <object id="213" x="772" y="1302.67" width="36" height="29.3333"/>
  <object id="214" x="26.6667" y="1476" width="66.6667" height="44"/>
  <object id="215" x="442.667" y="1218.67" width="57.3333" height="45.3333"/>
  <object id="218" x="620" y="4180" width="34.6666" height="56"/>
  <object id="219" x="659.333" y="4139.33" width="36" height="52.6667"/>
  <object id="220" x="688.667" y="4082" width="50.6667" height="49.3333"/>
  <object id="221" x="844.333" y="4405" width="33.3333" height="30.6667"/>
  <object id="222" x="1167.67" y="4401.67" width="35" height="35.6667"/>
  <object id="223" x="620.333" y="4405.33" width="34" height="31.3333"/>
  <object id="224" x="1130" y="4003" width="42" height="54"/>
  <object id="225" x="112.333" y="3729.67" width="27" height="31.3333"/>
  <object id="226" x="67" y="3770" width="50" height="65"/>
  <object id="227" x="554" y="3670" width="41.3333" height="34"/>
  <object id="228" x="620.333" y="3524.33" width="35.6667" height="41.6667"/>
  <object id="229" x="842.333" y="3216" width="75.3333" height="33.6667"/>
  <object id="230" x="847" y="3119.33" width="17.6667" height="34"/>
  <object id="231" x="873.333" y="3093.67" width="36" height="111.667"/>
  <object id="232" x="910.333" y="3059" width="58.3333" height="31.3333"/>
  <object id="233" x="916" y="3083" width="25.6667" height="36.3333"/>
  <object id="234" x="1160" y="3012" width="45" height="52"/>
  <object id="235" x="163" y="2554.33" width="40.3333" height="46.6667"/>
  <object id="236" x="679" y="2597.33" width="38.6667" height="43.3333"/>
  <object id="237" x="544" y="2246.67" width="52" height="54.6667"/>
  <object id="238" x="996" y="2125.33" width="50.6667" height="46.6667"/>
  <object id="239" x="1216" y="2085.33" width="52" height="48"/>
  <object id="240" x="1081.33" y="2245.33" width="70.6667" height="66.6667"/>
  <object id="241" x="1102.67" y="2409.33" width="62.6667" height="56"/>
  <object id="242" x="300.5" y="1590" width="32.5" height="31.5"/>
  <object id="243" x="2" y="1634" width="63" height="70.3333"/>
  <object id="244" x="908.667" y="1616.67" width="62.6667" height="29.6667"/>
  <object id="245" x="903.667" y="1589" width="44" height="35"/>
  <object id="246" x="1132" y="1493" width="39" height="24"/>
  <object id="247" x="780.667" y="1424.33" width="32.6667" height="62.6667"/>
  <object id="248" x="1093.33" y="1284" width="48" height="46.6667"/>
  <object id="253" x="0.666667" y="1410" width="82.6667" height="59.3333"/>
  <object id="254" x="128" y="1346.67" width="92" height="51.3333"/>
  <object id="255" x="104.667" y="1355.33" width="24" height="58.6667"/>
  <object id="256" x="81.3333" y="1382" width="22" height="64"/>
  <object id="259" x="214.667" y="1325.33" width="22.6667" height="49.3333"/>
  <object id="260" x="234" y="1297.33" width="23.3333" height="49.3333"/>
  <object id="261" x="256.667" y="1279.33" width="90.6667" height="56"/>
  <object id="262" x="345.333" y="1238" width="22" height="74"/>
  <object id="263" x="368" y="1213.33" width="18" height="66.6667"/>
  <object id="264" x="385.333" y="1194.67" width="28.6667" height="51.3333"/>
  <object id="265" x="414" y="1171.33" width="24" height="50.6667"/>
  <object id="266" x="434.667" y="1156" width="118" height="46"/>
  <object id="267" x="552" y="1179.33" width="46.6667" height="61.3333"/>
  <object id="268" x="593.333" y="1145.33" width="30" height="62"/>
  <object id="269" x="696" y="1153.33" width="24.6667" height="57.3333"/>
  <object id="270" x="717.333" y="1174" width="31.3333" height="60"/>
  <object id="271" x="746" y="1207.33" width="30" height="68"/>
  <object id="272" x="776" y="1225.33" width="54.6667" height="54"/>
  <object id="273" x="815.333" y="1192" width="46.6667" height="33.3333"/>
  <object id="274" x="830" y="1222.67" width="34.6667" height="75.3333"/>
  <object id="275" x="867.333" y="1246" width="291.333" height="66.6667"/>
  <object id="276" x="1156.67" y="1260.67" width="30.6667" height="77.3333"/>
  <object id="277" x="1184.67" y="1284" width="62.6667" height="50.6667"/>
  <object id="278" x="1247.33" y="1293.33" width="36.6667" height="70.6667"/>
  <object id="287" x="0" y="1736" width="74" height="113.333"/>
  <object id="288" x="74" y="1771.33" width="72" height="107.333"/>
  <object id="289" x="141.333" y="1798.67" width="117.333" height="112.667"/>
  <object id="290" x="256" y="1810" width="24" height="135.333"/>
  <object id="291" x="278.667" y="1848" width="37.3333" height="188"/>
  <object id="292" x="315.333" y="1870.67" width="28" height="158.667"/>
  <object id="293" x="340.667" y="1902.67" width="34" height="108.667"/>
  <object id="294" x="374" y="1931.33" width="18.6667" height="73.3333"/>
  <object id="295" x="393.333" y="1914.67" width="23.3333" height="75.3333"/>
  <object id="296" x="418" y="1892" width="20" height="67.3333"/>
  <object id="297" x="438.667" y="1892" width="241.333" height="48.6667"/>
  <object id="298" x="500.667" y="1869.33" width="26.6667" height="23.3333"/>
  <object id="299" x="532.667" y="1936.67" width="150" height="28.6667"/>
  <object id="300" x="629.333" y="1961.33" width="54" height="43.3333"/>
  <object id="301" x="226" y="1962" width="51.3333" height="104.667"/>
  <object id="302" x="192.667" y="1997.33" width="34" height="81.3333"/>
  <object id="303" x="188.667" y="2076" width="19.3333" height="24"/>
  <object id="304" x="87.3333" y="2041.33" width="98.6667" height="60"/>
  <object id="305" x="67.3333" y="2048.67" width="20.6667" height="78"/>
  <object id="306" x="-3.33333" y="2054" width="66.6667" height="78"/>
  <object id="307" x="682" y="1864.67" width="25.3333" height="160.667"/>
  <object id="308" x="708" y="1862.67" width="124.667" height="54.6667"/>
  <object id="309" x="832" y="1877.33" width="17.3333" height="38"/>
  <object id="310" x="850" y="1894.67" width="105.333" height="55.3333"/>
  <object id="311" x="956" y="1904.67" width="26.6667" height="30.6667"/>
  <object id="312" x="918.667" y="1949.33" width="28.6667" height="35.3333"/>
  <object id="313" x="945.333" y="1965.33" width="114" height="52.6667"/>
  <object id="314" x="1058.67" y="1978" width="22" height="46.6667"/>
  <object id="315" x="1080.67" y="1998.67" width="28.6667" height="54.6667"/>
  <object id="316" x="1064" y="2030" width="16.6667" height="56.6667"/>
  <object id="317" x="1084" y="2042.67" width="14" height="22.6667"/>
  <object id="318" x="1021.33" y="2039.33" width="39.3333" height="60"/>
  <object id="319" x="1022.67" y="2100.67" width="20" height="24.6667"/>
  <object id="320" x="954.667" y="2084.67" width="70.6667" height="42.6667"/>
  <object id="321" x="965.333" y="2126" width="20" height="24.6667"/>
  <object id="322" x="860.667" y="2122" width="102.667" height="39.3333"/>
  <object id="323" x="827.333" y="2136.67" width="32.6667" height="37.3333"/>
  <object id="324" x="797.5" y="2173.5" width="48.5" height="22.5"/>
  <object id="325" x="773.5" y="2136" width="55" height="37"/>
  <object id="326" x="753" y="1987.5" width="18" height="175.5"/>
  <object id="327" x="701.5" y="2026" width="43" height="39.5"/>
  <object id="328" x="727" y="2063.5" width="31" height="38.5"/>
  <object id="329" x="690.5" y="2109.5" width="60.5" height="41"/>
  <object id="330" x="288.667" y="2477" width="29" height="49.6667"/>
  <object id="331" x="276.667" y="2355.83" width="17.5" height="152"/>
  <object id="333" x="313" y="2321" width="272.5" height="21"/>
  <object id="334" x="578.5" y="2329.5" width="24.5" height="110.5"/>
  <object id="335" x="413" y="2303.5" width="163" height="21.5"/>
  <object id="336" x="285" y="2245.5" width="101.5" height="50"/>
  <object id="338" x="598.5" y="2403.5" width="230" height="51"/>
  <object id="340" x="639.5" y="2476" width="49" height="21"/>
  <object id="341" x="672" y="2485.5" width="20" height="130.5"/>
  <object id="342" x="545.5" y="2590.5" width="128.5" height="59"/>
  <object id="343" x="524.5" y="2487.5" width="19" height="137"/>
  <object id="344" x="417" y="2462.5" width="59" height="55.5"/>
  <object id="345" x="474.5" y="2470" width="48.5" height="48.5"/>
  <object id="346" x="382" y="2475" width="33" height="56.5"/>
  <object id="347" x="829.5" y="2383.5" width="33" height="60"/>
  <object id="348" x="896.5" y="2336.5" width="76" height="49.5"/>
  <object id="350" x="971.5" y="2360.5" width="19" height="107"/>
  <object id="351" x="986.5" y="2430" width="105" height="56"/>
  <object id="353" x="1185" y="2542.5" width="76.5" height="34.5"/>
  <object id="354" x="1256.67" y="2542" width="24" height="101.333"/>
  <object id="355" x="424.5" y="2624" width="40.5" height="67.5"/>
  <object id="356" x="463.5" y="2640" width="28.5" height="53"/>
  <object id="357" x="492" y="2658" width="18" height="74.5"/>
  <object id="358" x="508" y="2693.5" width="100.5" height="55"/>
  <object id="359" x="608.5" y="2705" width="24" height="43.5"/>
  <object id="361" x="516" y="2761.5" width="59.5" height="48"/>
  <object id="363" x="487" y="2746" width="21" height="39.5"/>
  <object id="365" x="1044.67" y="2845.33" width="236.667" height="59.3333"/>
  <object id="366" x="1034" y="2801.33" width="30" height="81.3333"/>
  <object id="367" x="869.333" y="2787.33" width="165.333" height="52.6667"/>
  <object id="368" x="847.333" y="2764.67" width="24.6667" height="54"/>
  <object id="369" x="848" y="2710.67" width="12" height="70"/>
  <object id="371" x="894.667" y="2680" width="144.667" height="16.6667"/>
  <object id="372" x="1034" y="2613.33" width="22.6667" height="76.6667"/>
  <object id="373" x="979.333" y="2591.33" width="56.6667" height="57.3333"/>
  <object id="374" x="973.333" y="2556" width="21.3333" height="74.6667"/>
  <object id="376" x="1011.33" y="2526.67" width="90.6667" height="20.6667"/>
  <object id="378" x="1159.33" y="2584.67" width="106" height="45.3333"/>
  <object id="379" x="98.25" y="3451.25" width="25.5" height="43.5"/>
  <object id="380" x="74.5" y="3435.25" width="40.5" height="59.75"/>
  <object id="381" x="63.5" y="3483.25" width="39.75" height="27.5"/>
  <object id="382" x="43" y="3458.25" width="38.75" height="41.25"/>
  <object id="383" x="-1.5" y="3554.5" width="61" height="56.5"/>
  <object id="384" x="59.5" y="3535.5" width="35" height="55"/>
  <object id="385" x="95" y="3555.5" width="30.5" height="51"/>
  <object id="386" x="123" y="3521.5" width="22.5" height="50"/>
  <object id="387" x="141.5" y="3499" width="22" height="34.5"/>
  <object id="388" x="161" y="3497.5" width="59" height="47.5"/>
  <object id="389" x="209.5" y="3470.5" width="22.5" height="42.5"/>
  <object id="390" x="219.5" y="3488" width="20" height="49"/>
  <object id="391" x="235.5" y="3510.5" width="23.5" height="50.5"/>
  <object id="392" x="253.5" y="3530" width="64.5" height="47.5"/>
  <object id="393" x="309" y="3502.5" width="105.5" height="59.5"/>
  <object id="394" x="437.5" y="3459" width="27" height="59.5"/>
  <object id="395" x="412.5" y="3487.5" width="26" height="51"/>
  <object id="396" x="529" y="3460" width="28" height="46.5"/>
  <object id="397" x="558.5" y="3481.5" width="20.5" height="51"/>
  <object id="398" x="573.5" y="3494" width="64.5" height="51"/>
  <object id="399" x="631.5" y="3466.5" width="35" height="59"/>
  <object id="400" x="666.5" y="3501.5" width="25" height="42.5"/>
  <object id="401" x="687.5" y="3517" width="18" height="52.5"/>
  <object id="402" x="705" y="3526" width="59.5" height="49"/>
  <object id="403" x="765" y="3503.5" width="30.5" height="55"/>
  <object id="404" x="794" y="3519" width="130" height="56"/>
  <object id="405" x="902.5" y="3485.5" width="36" height="56"/>
  <object id="406" x="919.5" y="3468.5" width="26" height="38"/>
  <object id="407" x="935" y="3490.5" width="29.5" height="49"/>
  <object id="408" x="965.5" y="3491" width="15.5" height="42"/>
  <object id="409" x="979" y="3479" width="15.5" height="33"/>
  <object id="410" x="990" y="3458.5" width="15" height="38.5"/>
  <object id="411" x="1004.5" y="3481" width="15" height="45"/>
  <object id="412" x="1019.5" y="3492" width="63.5" height="51.5"/>
  <object id="413" x="1084.5" y="3468.5" width="21.5" height="48"/>
  <object id="414" x="1093.5" y="3428" width="16" height="49.5"/>
  <object id="415" x="1092.5" y="3395" width="28" height="50.5"/>
  <object id="416" x="1108.5" y="3373.5" width="13.5" height="20.5"/>
  <object id="417" x="1121.5" y="3363" width="160" height="55"/>
  <object id="418" x="958" y="3277" width="33" height="56"/>
  <object id="419" x="990.5" y="3303" width="23" height="51.5"/>
  <object id="420" x="1009.5" y="3327.5" width="21.5" height="51"/>
  <object id="421" x="1026" y="3344.5" width="24" height="61.5"/>
  <object id="422" x="963" y="3367.5" width="65" height="46"/>
  <object id="423" x="939" y="3381.5" width="29" height="25"/>
  <object id="424" x="919.5" y="3363.5" width="27" height="24.5"/>
  <object id="425" x="840" y="3351" width="84" height="33"/>
  <object id="427" x="808.5" y="3310.5" width="28.5" height="43"/>
  <object id="430" x="890.5" y="3304.5" width="68" height="50"/>
  <object id="431" x="348.667" y="4430.67" width="52.6667" height="49.3333"/>
  <object id="432" x="322.667" y="4342.67" width="47.3333" height="110"/>
  <object id="433" x="310.667" y="4304" width="31.3333" height="48"/>
  <object id="434" x="272" y="4237.33" width="38" height="87.3333"/>
  <object id="436" x="180" y="4170" width="92.6667" height="80"/>
  <object id="437" x="101.333" y="4225.33" width="83.3333" height="44"/>
  <object id="438" x="61.3333" y="4162.67" width="57.3333" height="102.667"/>
  <object id="439" x="112" y="4147.33" width="34.6667" height="30.6667"/>
  <object id="440" x="89.3333" y="4112" width="26" height="56.6667"/>
  <object id="441" x="0" y="4098.67" width="94" height="49.3333"/>
  <object id="443" x="178.667" y="3788.67" width="35.3333" height="107.333"/>
  <object id="444" x="143.333" y="3817.33" width="34.6667" height="124"/>
  <object id="445" x="81.3333" y="3850.67" width="62" height="120"/>
  <object id="446" x="7.33333" y="3880" width="79.3333" height="106.667"/>
  <object id="447" x="0" y="3846" width="18.6667" height="170.667"/>
  <object id="448" x="15.3333" y="3960.67" width="18" height="41.3333"/>
  <object id="449" x="298.667" y="3784.67" width="152.667" height="110"/>
  <object id="450" x="340" y="3892" width="115.333" height="94.6667"/>
  <object id="451" x="407.333" y="3986" width="54.6667" height="71.3333"/>
  <object id="452" x="392" y="3980" width="18.6667" height="20.6667"/>
  <object id="453" x="444" y="3800.67" width="24.6667" height="31.3333"/>
  <object id="454" x="440.667" y="3818.67" width="77.3333" height="228"/>
  <object id="455" x="441.333" y="4045.33" width="56.6667" height="36"/>
  <object id="456" x="494.667" y="4034" width="18" height="26.6667"/>
  <object id="457" x="502" y="3756" width="56" height="134.667"/>
  <object id="458" x="514.667" y="3886.67" width="42" height="165.333"/>
  <object id="459" x="554.667" y="3753.33" width="23.3333" height="275.333"/>
  <object id="461" x="561.333" y="3734" width="32" height="32"/>
  <object id="462" x="570.667" y="3718" width="74.6667" height="68"/>
  <object id="463" x="595.333" y="3736.67" width="64.6667" height="222"/>
  <object id="465" x="658.667" y="3850" width="220" height="104"/>
  <object id="466" x="657.333" y="3813.33" width="78.6667" height="53.3333"/>
  <object id="469" x="852" y="3786" width="64.6667" height="168"/>
  <object id="470" x="852" y="3940" width="79.3333" height="46.6667"/>
  <object id="475" x="1085.33" y="3783.33" width="128" height="145.333"/>
  <object id="476" x="959.333" y="3938" width="48" height="82"/>
  <object id="478" x="1212.67" y="3818" width="66.6667" height="114.667"/>
  <object id="481" x="387" y="2269.5" width="19.5" height="37"/>
  <object id="482" x="404.5" y="2278" width="17.5" height="43.5"/>
  <object id="483" x="287" y="2344.5" width="17" height="21"/>
  <object id="484" x="295" y="2327" width="22.5" height="24.5"/>
  <object id="485" x="618.5" y="2458.5" width="20" height="26"/>
  <object id="486" x="600" y="2449" width="23" height="22"/>
  <object id="487" x="861" y="2374.5" width="21" height="46.5"/>
  <object id="488" x="881.5" y="2355" width="16.5" height="43"/>
  <object id="490" x="1088.5" y="2448" width="21" height="47"/>
  <object id="491" x="1100.5" y="2460.5" width="24" height="57"/>
  <object id="492" x="1121" y="2485" width="22.5" height="42"/>
  <object id="493" x="1138.5" y="2500" width="18" height="45"/>
  <object id="494" x="1151.5" y="2511" width="22" height="53.5"/>
  <object id="495" x="1169" y="2527.5" width="21.5" height="45"/>
  <object id="496" x="1099.5" y="2529.5" width="18.5" height="25.5"/>
  <object id="497" x="1114" y="2544.5" width="14" height="21.5"/>
  <object id="498" x="1129" y="2557.5" width="12.5" height="19.5"/>
  <object id="499" x="1140" y="2563" width="13" height="21.5"/>
  <object id="500" x="1148.5" y="2573" width="39" height="23.5"/>
  <object id="502" x="989.5" y="2539.5" width="31" height="18.5"/>
  <object id="503" x="876.5" y="2684" width="18.5" height="26.5"/>
  <object id="504" x="859.5" y="2697" width="19" height="26"/>
  <object id="505" x="603.5" y="2747" width="22.5" height="17.5"/>
  <object id="506" x="593" y="2762" width="21.5" height="22"/>
  <object id="507" x="565" y="2773.5" width="29.5" height="27"/>
  <object id="508" x="497.5" y="2777.5" width="20.5" height="23"/>
  <object id="509" x="475" y="2718" width="26.5" height="31.5"/>
  <object id="510" x="456.5" y="2701" width="23" height="28"/>
  <object id="511" x="437" y="2677.5" width="28.5" height="36"/>
  <object id="512" x="861.5" y="3286.5" width="30" height="48"/>
  <object id="513" x="852.5" y="3273.5" width="19.5" height="45"/>
  <object id="514" x="834.5" y="3285" width="19" height="44.5"/>
  <object id="515" x="816" y="3349.5" width="28" height="30"/>
  <object id="516" x="577" y="3958.5" width="30" height="48"/>
  <object id="517" x="605" y="3945.5" width="37" height="38"/>
  <object id="518" x="633.5" y="3945" width="24.5" height="23"/>
  <object id="519" x="734" y="3823.5" width="21" height="25"/>
  <object id="520" x="657.5" y="3786.5" width="30" height="29"/>
  <object id="521" x="913.5" y="3850" width="24" height="29"/>
  <object id="522" x="925.5" y="3861" width="21" height="44"/>
  <object id="523" x="942" y="3876.5" width="23" height="33.5"/>
  <object id="524" x="960.5" y="3895" width="16.5" height="37"/>
  <object id="525" x="969.5" y="3919" width="28" height="29.5"/>
  <object id="526" x="928.5" y="3959" width="32.5" height="33"/>
  <object id="527" x="944" y="3987.5" width="18" height="20.5"/>
  <object id="528" x="998.5" y="3895.5" width="29.5" height="49.5"/>
  <object id="529" x="1013" y="3852" width="25.5" height="61.5"/>
  <object id="530" x="1039.5" y="3826" width="28" height="48"/>
  <object id="531" x="1064.5" y="3796.5" width="23.5" height="40"/>
  <object id="533" x="1044.5" y="3900.5" width="44" height="35"/>
  <object id="534" x="1032.5" y="3931" width="41" height="21"/>
  <object id="535" x="1021.5" y="3947.5" width="31.5" height="26"/>
  <object id="536" x="1010.5" y="3971" width="26.5" height="16"/>
  <object id="537" x="992" y="3981.5" width="31" height="22.5"/>
  <object id="538" x="1237" y="3929" width="33" height="24"/>
  <object id="539" x="1245.5" y="3948" width="33.5" height="21"/>
  <object id="540" x="1268" y="3966.5" width="22" height="19"/>
  <object id="541" x="1208.5" y="3792.5" width="25.5" height="27"/>
  <object id="544" x="199.636" y="4456.36" width="14.5455" height="14.1818"/>
  <object id="545" x="168" y="4424.91" width="14.5455" height="14.1818"/>
  <object id="547" x="492.727" y="4457.91" width="14.5455" height="14.1818"/>
  <object id="548" x="457.727" y="4424.91" width="14.5455" height="14.1818"/>
  <object id="549" x="391.727" y="4361.91" width="14.5455" height="14.1818"/>
  <object id="550" x="487.727" y="4263.91" width="14.5455" height="14.1818"/>
  <object id="551" x="264.727" y="4136.91" width="14.5455" height="14.1818"/>
  <object id="552" x="137.727" y="4104.91" width="14.5455" height="14.1818"/>
  <object id="553" x="13.7272" y="4075.91" width="14.5455" height="14.1818"/>
  <object id="554" x="360.727" y="4010.91" width="14.5455" height="14.1818"/>
  <object id="555" x="297.727" y="3912.91" width="14.5455" height="14.1818"/>
  <object id="556" x="584.545" y="4040.73" width="14.5455" height="14.1818"/>
  <object id="557" x="684.727" y="3978.24" width="14.5455" height="14.1818"/>
  <object id="558" x="807.394" y="4042.24" width="14.5455" height="14.1818"/>
  <object id="559" x="936.727" y="4041.58" width="14.5455" height="14.1818"/>
  <object id="560" x="744.727" y="4394.91" width="14.5455" height="14.1818"/>
  <object id="561" x="808.727" y="4458.91" width="14.5455" height="14.1818"/>
  <object id="562" x="684.727" y="4457.58" width="14.5455" height="14.1818"/>
  <object id="563" x="680.727" y="4330.24" width="14.5455" height="14.1818"/>
  <object id="564" x="1000.73" y="4361.58" width="14.5455" height="14.1818"/>
  <object id="565" x="1097.39" y="4392.91" width="14.5455" height="14.1818"/>
  <object id="566" x="1161.39" y="4456.91" width="14.5455" height="14.1818"/>
  <object id="567" x="1225.39" y="4332.24" width="14.5455" height="14.1818"/>
  <object id="568" x="1163.39" y="4171.58" width="14.5455" height="14.1818"/>
  <object id="569" x="1257.39" y="4106.24" width="14.5455" height="14.1818"/>
  <object id="570" x="1225.39" y="4009.58" width="14.5455" height="14.1818"/>
  <object id="571" x="1127.39" y="3944.91" width="14.5455" height="14.1818"/>
  <object id="572" x="1096.73" y="4007.58" width="14.5455" height="14.1818"/>
  <object id="573" x="1034.06" y="4105.58" width="14.5455" height="14.1818"/>
  <object id="574" x="40.7272" y="3850.24" width="14.5455" height="14.1818"/>
  <object id="575" x="169.394" y="3720.91" width="14.5455" height="14.1818"/>
  <object id="576" x="104.727" y="3690.91" width="14.5455" height="14.1818"/>
  <object id="577" x="103.394" y="3658.24" width="14.5455" height="14.1818"/>
  <object id="578" x="136.061" y="3623.58" width="14.5455" height="14.1818"/>
  <object id="579" x="42.0606" y="3624.24" width="14.5455" height="14.1818"/>
  <object id="580" x="169.394" y="3561.58" width="14.5455" height="14.1818"/>
  <object id="581" x="329.394" y="3594.91" width="14.5455" height="14.1818"/>
  <object id="582" x="424.727" y="3723.58" width="14.5455" height="14.1818"/>
  <object id="583" x="460.061" y="3752.91" width="14.5455" height="14.1818"/>
  <object id="584" x="615.394" y="3689.58" width="14.5455" height="14.1818"/>
  <object id="585" x="777.394" y="3816.91" width="14.5455" height="14.1818"/>
  <object id="586" x="968.727" y="3850.24" width="14.5455" height="14.1818"/>
  <object id="587" x="938.727" y="3691.58" width="14.5455" height="14.1818"/>
  <object id="588" x="1133.39" y="3724.91" width="14.5455" height="14.1818"/>
  <object id="589" x="1192.06" y="3752.91" width="14.5455" height="14.1818"/>
  <object id="590" x="1062.73" y="3626.24" width="14.5455" height="14.1818"/>
  <object id="591" x="1130.06" y="3560.91" width="14.5455" height="14.1818"/>
  <object id="592" x="1256.73" y="3593.58" width="14.5455" height="14.1818"/>
  <object id="593" x="1223.39" y="3499.58" width="14.5455" height="14.1818"/>
  <object id="594" x="1128.06" y="3434.24" width="14.5455" height="14.1818"/>
  <object id="595" x="1032.73" y="3466.24" width="14.5455" height="14.1818"/>
  <object id="596" x="968.061" y="3465.58" width="14.5455" height="14.1818"/>
  <object id="597" x="809.394" y="3466.24" width="14.5455" height="14.1818"/>
  <object id="598" x="716.727" y="3500.91" width="14.5455" height="14.1818"/>
  <object id="599" x="678.061" y="3370.91" width="14.5455" height="14.1818"/>
  <object id="600" x="585.394" y="3463.58" width="14.5455" height="14.1818"/>
  <object id="601" x="551.394" y="3402.24" width="14.5455" height="14.1818"/>
  <object id="602" x="808.727" y="3272.91" width="14.5455" height="14.1818"/>
  <object id="603" x="936.727" y="3276.91" width="14.5455" height="14.1818"/>
  <object id="604" x="1126.73" y="3306.91" width="14.5455" height="14.1818"/>
  <object id="605" x="1226.73" y="3338.91" width="14.5455" height="14.1818"/>
  <object id="606" x="1160.73" y="3242.24" width="14.5455" height="14.1818"/>
  <object id="607" x="842.061" y="3175.58" width="14.5455" height="14.1818"/>
  <object id="608" x="1000.73" y="3082.24" width="14.5455" height="14.1818"/>
  <object id="609" x="1256.06" y="3145.58" width="14.5455" height="14.1818"/>
  <object id="610" x="1256.06" y="2986.24" width="14.5455" height="14.1818"/>
  <object id="611" x="935.394" y="3017.58" width="14.5455" height="14.1818"/>
  <object id="612" x="842.727" y="3082.24" width="14.5455" height="14.1818"/>
  <object id="613" x="776.061" y="3052.24" width="14.5455" height="14.1818"/>
  <object id="614" x="584.061" y="3147.58" width="14.5455" height="14.1818"/>
  <object id="615" x="394.727" y="3142.91" width="14.5455" height="14.1818"/>
  <object id="616" x="328.061" y="3180.91" width="14.5455" height="14.1818"/>
  <object id="617" x="294.061" y="3146.24" width="14.5455" height="14.1818"/>
  <object id="618" x="7.39392" y="3303.58" width="14.5455" height="14.1818"/>
  <object id="619" x="74.0606" y="3400.24" width="14.5455" height="14.1818"/>
  <object id="620" x="38.7272" y="3433.58" width="14.5455" height="14.1818"/>
  <object id="621" x="10.7272" y="3530.24" width="14.5455" height="14.1818"/>
  <object id="622" x="106.061" y="3531.58" width="14.5455" height="14.1818"/>
  <object id="623" x="169.394" y="3464.24" width="14.5455" height="14.1818"/>
  <object id="624" x="395.394" y="3466.24" width="14.5455" height="14.1818"/>
  <object id="625" x="296.061" y="3049.58" width="14.5455" height="14.1818"/>
  <object id="626" x="169.394" y="2984.24" width="14.5455" height="14.1818"/>
  <object id="627" x="41.3939" y="2920.91" width="14.5455" height="14.1818"/>
  <object id="628" x="266.061" y="2890.91" width="14.5455" height="14.1818"/>
  <object id="629" x="168.727" y="2793.58" width="14.5455" height="14.1818"/>
  <object id="630" x="5.39392" y="2792.91" width="14.5455" height="14.1818"/>
  <object id="631" x="44.7272" y="2730.24" width="14.5455" height="14.1818"/>
  <object id="632" x="200.727" y="2699.58" width="14.5455" height="14.1818"/>
  <object id="633" x="330.727" y="2569.58" width="14.5455" height="14.1818"/>
  <object id="634" x="1192.73" y="2922.24" width="14.5455" height="14.1818"/>
  <object id="635" x="1000.73" y="2858.91" width="14.5455" height="14.1818"/>
  <object id="636" x="908.061" y="2858.24" width="14.5455" height="14.1818"/>
  <object id="639" x="968.061" y="2635.58" width="14.5455" height="14.1818"/>
  <object id="640" x="936.727" y="2600.91" width="14.5455" height="14.1818"/>
  <object id="641" x="839.394" y="2474.91" width="14.5455" height="14.1818"/>
  <object id="642" x="710.061" y="2472.91" width="14.5455" height="14.1818"/>
  <object id="643" x="747.394" y="2572.24" width="14.5455" height="14.1818"/>
  <object id="644" x="650.061" y="2540.24" width="14.5455" height="14.1818"/>
  <object id="645" x="549.394" y="2570.91" width="14.5455" height="14.1818"/>
  <object id="646" x="552.727" y="2477.58" width="14.5455" height="14.1818"/>
  <object id="647" x="484.061" y="2442.91" width="14.5455" height="14.1818"/>
  <object id="648" x="553.394" y="2378.91" width="14.5455" height="14.1818"/>
  <object id="649" x="8.06058" y="2509.58" width="14.5455" height="14.1818"/>
  <object id="650" x="169.394" y="2378.24" width="14.5455" height="14.1818"/>
  <object id="651" x="74.0606" y="2412.24" width="14.5455" height="14.1818"/>
  <object id="652" x="9.39392" y="2316.91" width="14.5455" height="14.1818"/>
  <object id="653" x="42.0606" y="2153.58" width="14.5455" height="14.1818"/>
  <object id="654" x="75.3939" y="2182.91" width="14.5455" height="14.1818"/>
  <object id="655" x="34.0606" y="2220.91" width="14.5455" height="14.1818"/>
  <object id="656" x="393.394" y="2250.91" width="14.5455" height="14.1818"/>
  <object id="657" x="394.727" y="1995.58" width="14.5455" height="14.1818"/>
  <object id="658" x="680.061" y="2029.58" width="14.5455" height="14.1818"/>
  <object id="659" x="716.061" y="2346.91" width="14.5455" height="14.1818"/>
  <object id="660" x="934.727" y="2314.91" width="14.5455" height="14.1818"/>
  <object id="661" x="1002.06" y="2410.24" width="14.5455" height="14.1818"/>
  <object id="662" x="1068.06" y="2380.91" width="14.5455" height="14.1818"/>
  <object id="663" x="1227.39" y="2025.58" width="14.5455" height="14.1818"/>
  <object id="664" x="1096.73" y="1960.24" width="14.5455" height="14.1818"/>
  <object id="665" x="1256.06" y="1931.58" width="14.5455" height="14.1818"/>
  <object id="666" x="1128.06" y="1800.91" width="14.5455" height="14.1818"/>
  <object id="667" x="1128.73" y="1703.58" width="14.5455" height="14.1818"/>
  <object id="668" x="1258.06" y="1672.24" width="14.5455" height="14.1818"/>
  <object id="669" x="1257.39" y="1772.91" width="14.5455" height="14.1818"/>
  <object id="670" x="936.061" y="1673.58" width="14.5455" height="14.1818"/>
  <object id="671" x="802.727" y="1832.91" width="14.5455" height="14.1818"/>
  <object id="672" x="521.394" y="1705.58" width="14.5455" height="14.1818"/>
  <object id="673" x="649.394" y="1867.58" width="14.5455" height="14.1818"/>
  <object id="674" x="360.727" y="1866.91" width="14.5455" height="14.1818"/>
  <object id="675" x="330.061" y="1673.58" width="14.5455" height="14.1818"/>
  <object id="676" x="138.061" y="1737.58" width="14.5455" height="14.1818"/>
  <object id="677" x="106.061" y="1707.58" width="14.5455" height="14.1818"/>
  <object id="678" x="70.7272" y="1544.91" width="14.5455" height="14.1818"/>
  <object id="679" x="103.394" y="1512.91" width="14.5455" height="14.1818"/>
  <object id="680" x="259.394" y="1544.91" width="14.5455" height="14.1818"/>
  <object id="681" x="169.394" y="1416.24" width="14.5455" height="14.1818"/>
  <object id="682" x="232.727" y="1386.24" width="14.5455" height="14.1818"/>
  <object id="683" x="422.061" y="1421.58" width="14.5455" height="14.1818"/>
  <object id="684" x="392.061" y="1289.58" width="14.5455" height="14.1818"/>
  <object id="685" x="745.394" y="1387.58" width="14.5455" height="14.1818"/>
  <object id="686" x="807.394" y="1352.91" width="14.5455" height="14.1818"/>
  <object id="687" x="839.394" y="1320.24" width="14.5455" height="14.1818"/>
  <object id="688" x="904.061" y="1323.58" width="14.5455" height="14.1818"/>
  <object id="689" x="904.061" y="1451.58" width="14.5455" height="14.1818"/>
  <object id="690" x="810.727" y="1512.24" width="14.5455" height="14.1818"/>
  <object id="691" x="938.061" y="1544.24" width="14.5455" height="14.1818"/>
  <object id="692" x="1098.06" y="1548.24" width="14.5455" height="14.1818"/>
  <object id="693" x="1065.39" y="1481.58" width="14.5455" height="14.1818"/>
  <object id="694" x="1062.06" y="1390.24" width="14.5455" height="14.1818"/>
  <object id="695" x="1225.39" y="1355.58" width="14.5455" height="14.1818"/>
  <object id="696" x="1192.06" y="1420.91" width="14.5455" height="14.1818"/>
  <object id="697" x="1191.39" y="1482.24" width="14.5455" height="14.1818"/>
  <object id="698" x="1259.39" y="1480.24" width="14.5455" height="14.1818"/>
  <object id="711" x="753" y="1432" width="26" height="22"/>
  <object id="712" x="407.667" y="1518.67" width="206" height="49.3334"/>
  <object id="713" x="611.667" y="1500.67" width="59.3334" height="49.3334"/>
  <object id="717" x="687.667" y="1560" width="13.3334" height="11.3334"/>
  <object id="724" x="749.667" y="1620" width="73.6667" height="29.3333"/>
  <object id="725" x="733.167" y="1602.83" width="62.8333" height="32.5"/>
  <object id="730" x="309.333" y="1433.33" width="24" height="35.3333"/>
  <object id="731" x="342" y="1411.33" width="42" height="33.3333"/>
  <object id="732" x="324" y="1439.33" width="96" height="76.6667"/>
  <object id="742" x="672" y="1654.83" width="62.6667" height="62.5"/>
  <object id="745" x="620.167" y="1641.75" width="62.6667" height="34.5"/>
  <object id="749" x="835.5" y="1515" width="94" height="24"/>
  <object id="789" x="327" y="1602.5" width="39.5" height="34.5"/>
  <object id="790" x="1280.15" y="6.06061" width="78.7879" height="4475.76"/>
  <object id="791" x="-78.8182" y="8.07455" width="78.7879" height="4475.76"/>
  <object id="792" x="-66.0606" y="4479.45" width="1434.79" height="61.76"/>
  <object id="793" x="-73.395" y="-62.88" width="1434.79" height="61.76"/>
 </objectgroup>
</map>
